; generated by PrusaSlicer 2.5.0+win64 on 2023-03-30 at 18:46:13 UTC


;
;
; 

; external perimeters extrusion width = 0.45mm
; perimeters extrusion width = 0.45mm
; infill extrusion width = 0.45mm
; solid infill extrusion width = 0.45mm
; top infill extrusion width = 0.40mm
; first layer extrusion width = 0.42mm

; external perimeters extrusion width = 0.45mm
; perimeters extrusion width = 0.45mm
; infill extrusion width = 0.45mm
; solid infill extrusion width = 0.45mm
; top infill extrusion width = 0.40mm
; first layer extrusion width = 0.42mm

M73 P0 R108
M73 Q0 S109
M201 X1000 Y1000 Z200 E5000 ; sets maximum accelerations, mm/sec^2
M203 X200 Y200 Z12 E120 ; sets maximum feedrates, mm / sec
M204 P1250 R1250 T1250 ; sets acceleration (P, T) and retract acceleration (R), mm/sec^2
M205 X8.00 Y8.00 Z0.40 E4.50 ; sets the jerk limits, mm/sec
M205 S0 T0 ; sets the minimum extruding and travel feed rate, mm/sec
M107
;TYPE:Custom
M862.3 P "MK3S" ; printer model check
M862.1 P0.4 ; nozzle diameter check
M115 U3.11.0 ; tell printer latest fw version
G90 ; use absolute coordinates
M83 ; extruder relative mode
M104 S215 ; set extruder temp
M140 S60 ; set bed temp
M190 S60 ; wait for bed temp
M109 S215 ; wait for extruder temp
G28 W ; home all without mesh bed level
G80 ; mesh bed leveling

G1 Z0.2 F720
G1 Y-3 F1000 ; go outside print area
G92 E0
G1 X60 E9 F1000 ; intro line
G1 X100 E12.5 F1000 ; intro line

G92 E0
M221 S95

; Don't change E values below. Excessive value can damage the printer.
M907 E430 ; set extruder motor current
G21 ; set units to millimeters
G90 ; use absolute coordinates
M83 ; use relative distances for extrusion
M900 K0.05 ; Filament gcode LA 1.5
M900 K30 ; Filament gcode LA 1.0
M107
;LAYER_CHANGE
;Z:0.2
;HEIGHT:0.2
;BEFORE_LAYER_CHANGE
G92 E0.0
;0.2


G1 E-.8 F2100
G1 Z.4 F720
;AFTER_LAYER_CHANGE
;0.2
G1 X91.143 Y40.727 F10800
G1 Z.2 F720
G1 E.8 F2100
M204 S800
;TYPE:Skirt/Brim
;WIDTH:0.42
G1 F1200
G1 X92.265 Y39.95 E.04278
G1 X93 Y39.833 E.02334
G1 X157 Y39.833 E2.00668
G1 X158.307 Y40.225 E.04278
G1 X159.183 Y41.271 E.04278
G1 X159.367 Y41.992 E.02334
G1 X168.868 Y145.08 E3.24594
G1 X168.704 Y146.948 E.05881
G1 X162.79 Y168.421 E.69834
G1 X162.065 Y169.577 E.04278
G1 X160.498 Y170.167 E.05248
G1 X89.498 Y170.167 E2.22616
G1 X88.191 Y169.775 E.04278
G1 X87.206 Y168.421 E.05249
G1 X81.294 Y146.948 E.69831
G1 X81.132 Y145.085 E.05866
G1 X90.633 Y41.992 E3.24609
G1 X91.12 Y40.782 E.0409
M204 S1000
; printing object Daisy 9V Battery Holder.STL id:0 copy 0
;WIPE_START
G1 F8640
G1 X92.265 Y39.95 E-.32671
G1 X93 Y39.833 E-.1719
G1 X94.132 Y39.833 E-.26139
;WIPE_END
G1 E-.04 F2100
G1 Z.6 F720
G1 X165.536 Y144.176 F10800
G1 Z.2 F720
G1 E.8 F2100
M204 S800
;TYPE:Perimeter
;WIDTH:0.491284
G1 F1200
G1 X165.44 Y144.051 E.00588
;WIDTH:0.462029
G1 X165.04 Y143.608 E.0208
;WIDTH:0.419999
G1 X164.681 Y143.334 E.01415
G1 X164.327 Y143.16 E.01238
G1 X163.88 Y143.035 E.01457
G1 X163.364 Y143.014 E.01618
G1 X162.808 Y143.116 E.01774
G1 X162.401 Y143.285 E.0138
G1 X162.138 Y143.459 E.00989
G1 X161.78 Y143.784 E.01517
G1 X161.546 Y144.101 E.01237
G1 X161.368 Y144.464 E.01267
G1 X161.257 Y144.844 E.01239
G1 X161.214 Y145.242 E.01255
G1 X161.239 Y145.637 E.01243
G1 X161.335 Y146.027 E.01257
G1 X161.494 Y146.39 E.01244
G1 X161.718 Y146.723 E.0126
G1 X161.993 Y147.009 E.01242
G1 X162.31 Y147.244 E.01237
G1 X162.673 Y147.422 E.01267
G1 X163.051 Y147.532 E.01236
G1 X163.446 Y147.577 E.01245
G1 X163.947 Y147.532 E.01576
G1 X164.502 Y147.339 E.01845
G1 X164.93 Y147.074 E.01576
G1 X165.099 Y146.903 E.00754
;WIDTH:0.455811
G1 X165.317 Y146.655 E.01135
;WIDTH:0.491622
G1 X165.536 Y146.407 E.01233
G1 X165.508 Y146.566 E.006
;WIDTH:0.462583
G1 X165.394 Y147.073 E.01817
;WIDTH:0.419999
G1 X165.012 Y147.894 E.02839
G1 X164.489 Y148.639 E.02853
G1 X163.848 Y149.281 E.02843
G1 X163.103 Y149.803 E.02853
G1 X162.282 Y150.185 E.02839
G1 X161.402 Y150.422 E.02856
G1 X160.173 Y150.533 E.0387
G1 X159.941 Y150.633 E.00792
G1 X159.782 Y150.814 E.00756
G1 X159.711 Y151.089 E.00889
G1 X159.711 Y167.002 E.49896
G1 X90.285 Y167.002 E2.17679
G1 X90.284 Y151.061 E.49984
G1 X90.209 Y150.806 E.00832
G1 X90.011 Y150.604 E.00889
G1 X89.769 Y150.525 E.00796
G1 X88.596 Y150.422 E.03694
G1 X87.716 Y150.185 E.02856
G1 X86.895 Y149.803 E.02839
G1 X86.15 Y149.281 E.02853
G1 X85.509 Y148.639 E.02843
G1 X85.117 Y148.081 E.02138
G1 X84.863 Y147.629 E.01628
G1 X84.601 Y147.059 E.01967
;WIDTH:0.455466
G1 X84.531 Y146.733 E.01143
;WIDTH:0.490932
G1 X84.462 Y146.407 E.01241
G1 X84.558 Y146.53 E.00581
;WIDTH:0.46203
G1 X84.958 Y146.973 E.0208
;WIDTH:0.419999
G1 X85.317 Y147.247 E.01415
G1 X85.671 Y147.421 E.01238
G1 X86.147 Y147.55 E.01547
G1 X86.689 Y147.565 E.01698
G1 X87.203 Y147.463 E.01644
G1 X87.597 Y147.296 E.01342
G1 X87.86 Y147.122 E.0099
G1 X88.218 Y146.797 E.01516
G1 X88.452 Y146.48 E.01237
G1 X88.63 Y146.117 E.01267
G1 X88.741 Y145.737 E.01239
G1 X88.784 Y145.337 E.01263
G1 X88.759 Y144.943 E.01236
G1 X88.663 Y144.554 E.01256
G1 X88.504 Y144.191 E.01244
G1 X88.28 Y143.858 E.0126
G1 X88.005 Y143.572 E.01242
G1 X87.688 Y143.337 E.01237
G1 X87.325 Y143.159 E.01267
G1 X86.946 Y143.049 E.01237
G1 X86.366 Y143.014 E.01822
G1 X85.808 Y143.116 E.01782
G1 X85.496 Y143.242 E.01054
G1 X85.068 Y143.507 E.01576
G1 X84.899 Y143.678 E.00754
;WIDTH:0.455643
G1 X84.68 Y143.927 E.01138
;WIDTH:0.491286
G1 X84.462 Y144.176 E.01236
G1 X84.49 Y144.015 E.00607
;WIDTH:0.462031
G1 X84.604 Y143.508 E.01814
;WIDTH:0.419999
G1 X84.986 Y142.687 E.02839
G1 X85.509 Y141.942 E.02853
G1 X86.15 Y141.3 E.02843
G1 X86.895 Y140.778 E.02853
G1 X87.716 Y140.396 E.02839
G1 X88.596 Y140.159 E.02856
G1 X89.823 Y140.048 E.03865
G1 X90.055 Y139.948 E.00792
G1 X90.214 Y139.766 E.00756
G1 X90.285 Y139.492 E.00888
G1 X90.285 Y123.579 E.49896
G1 X159.711 Y123.579 E2.17679
G1 X159.712 Y139.52 E.49984
G1 X159.787 Y139.775 E.00833
G1 X159.986 Y139.977 E.00889
G1 X160.227 Y140.056 E.00795
G1 X161.402 Y140.159 E.037
G1 X162.282 Y140.396 E.02856
G1 X163.103 Y140.778 E.02839
G1 X163.848 Y141.3 E.02853
G1 X164.489 Y141.942 E.02843
G1 X164.881 Y142.5 E.02138
G1 X165.135 Y142.952 E.01628
G1 X165.397 Y143.522 E.01967
;WIDTH:0.455642
G1 X165.467 Y143.849 E.01147
;WIDTH:0.491284
G1 X165.524 Y144.117 E.01022
M204 S1000
;WIPE_START
G1 F8640
G1 X165.44 Y144.051 E-.02468
G1 X165.04 Y143.608 E-.13781
G1 X164.681 Y143.334 E-.1042
G1 X164.327 Y143.16 E-.09115
G1 X163.88 Y143.035 E-.10726
G1 X163.364 Y143.014 E-.11918
G1 X162.808 Y143.116 E-.13065
G1 X162.627 Y143.191 E-.04506
;WIPE_END
G1 E-.04 F2100
G1 Z.6 F720
G1 X89.736 Y150.901 F10800
G1 Z.2 F720
G1 E.8 F2100
M204 S800
;TYPE:External perimeter
;WIDTH:0.419999
G1 F1200
G1 X88.53 Y150.794 E.03797
G1 X87.587 Y150.541 E.03062
G1 X86.706 Y150.131 E.03046
G1 X85.907 Y149.57 E.03061
G1 X85.219 Y148.883 E.03049
G1 X84.658 Y148.084 E.03061
G1 X84.249 Y147.203 E.03046
G1 X83.995 Y146.26 E.03061
;WIDTH:0.457909
G1 X84.003 Y146.133 E.0044
;WIDTH:0.495818
G1 X84.011 Y146.006 E.0048
;WIDTH:0.533727
G1 X84.019 Y145.879 E.0052
;WIDTH:0.571636
G1 X84.028 Y145.752 E.0056
G1 X83.991 Y145.357 E.01741
;WIDTH:0.572624
G1 X84.028 Y144.829 E.0233
G1 X84.02 Y144.702 E.00561
;WIDTH:0.534468
G1 X84.012 Y144.575 E.00521
;WIDTH:0.496312
G1 X84.003 Y144.448 E.0048
;WIDTH:0.458156
G1 X83.995 Y144.321 E.0044
;WIDTH:0.419999
G1 X84.249 Y143.378 E.03061
G1 X84.658 Y142.497 E.03046
G1 X85.219 Y141.698 E.03061
G1 X85.907 Y141.011 E.03049
G1 X86.706 Y140.45 E.03061
G1 X87.587 Y140.04 E.03046
G1 X88.53 Y139.787 E.03062
G1 X89.736 Y139.68 E.03797
G1 X89.842 Y139.635 E.00362
G1 X89.908 Y139.492 E.00493
G1 X89.908 Y123.201 E.51078
G1 X160.088 Y123.201 E2.20044
G1 X160.088 Y139.492 E.51078
M73 Q0 S108
G1 X160.12 Y139.597 E.00344
M73 P0 R107
G1 X160.26 Y139.68 E.0051
G1 X161.468 Y139.787 E.03803
G1 X162.411 Y140.04 E.03062
G1 X163.292 Y140.45 E.03046
G1 X164.091 Y141.011 E.03061
G1 X164.779 Y141.698 E.03049
G1 X165.3 Y142.441 E.02847
G1 X165.762 Y143.424 E.03404
G1 X166.006 Y144.356 E.03019
G1 X166.088 Y145.29 E.0294
G1 X166.003 Y146.26 E.03054
G1 X165.749 Y147.203 E.03062
G1 X165.34 Y148.084 E.03046
G1 X164.779 Y148.883 E.03061
G1 X164.091 Y149.57 E.03049
G1 X163.292 Y150.131 E.03061
G1 X162.411 Y150.541 E.03046
G1 X161.468 Y150.794 E.03062
G1 X160.26 Y150.901 E.03803
G1 X160.154 Y150.946 E.00362
G1 X160.088 Y151.089 E.00493
G1 X160.088 Y167.38 E.51078
G1 X89.908 Y167.38 E2.20044
G1 X89.908 Y151.089 E.51078
G1 X89.876 Y150.984 E.00344
G1 X89.788 Y150.932 E.00322
M204 S1000
G1 X89.661 Y150.508 F10800
;WIPE_START
G1 F8640
G1 X88.53 Y150.794 E-.29217
G1 X87.587 Y150.541 E-.2255
G1 X86.706 Y150.131 E-.22433
G1 X86.642 Y150.086 E-.018
;WIPE_END
G1 E-.04 F2100
G1 Z.6 F720
G1 X165.342 Y144.818 F10800
G1 Z.2 F720
G1 E.8 F2100
M204 S800
G1 F1200
G1 X165.383 Y144.973 E.00502
G1 X165.41 Y145.306 E.01048
G1 X165.377 Y145.64 E.01052
G1 X165.257 Y146.026 E.01267
G1 X165.135 Y146.274 E.00867
G1 X164.752 Y146.731 E.0187
G1 X164.343 Y146.997 E.01529
G1 X163.848 Y147.168 E.01641
G1 X163.344 Y147.189 E.01583
G1 X162.831 Y147.08 E.01645
G1 X162.356 Y146.814 E.01706
G1 X162.026 Y146.506 E.01416
G1 X161.836 Y146.232 E.01045
G1 X161.699 Y145.928 E.01044
G1 X161.615 Y145.606 E.01046
G1 X161.59 Y145.274 E.01044
G1 X161.621 Y144.942 E.01044
G1 X161.71 Y144.623 E.01039
G1 X161.854 Y144.319 E.01052
G1 X162.047 Y144.051 E.01037
G1 X162.356 Y143.767 E.01316
G1 X162.831 Y143.501 E.01706
G1 X163.432 Y143.385 E.01921
G1 X163.848 Y143.413 E.01307
G1 X164.343 Y143.584 E.01642
G1 X164.752 Y143.85 E.01529
G1 X165.135 Y144.307 E.0187
G1 X165.299 Y144.653 E.01199
G1 X165.327 Y144.76 E.00348
M204 S1000
G1 X165.498 Y144.854 F10800
G1 X165.536 Y144.176
M204 S800
;TYPE:Perimeter
;WIDTH:0.491284
G1 F1200
G1 X165.595 Y144.366 E.00743
;WIDTH:0.446511
G1 X165.654 Y144.557 E.00669
;WIDTH:0.401738
G1 X165.7 Y144.899 E.0103
;WIDTH:0.370835
G1 X165.746 Y145.241 E.00941
G1 X165.7 Y145.633 E.01075
;WIDTH:0.401694
G1 X165.654 Y146.024 E.01176
;WIDTH:0.446658
G1 X165.595 Y146.216 E.00672
;WIDTH:0.491622
G1 X165.536 Y146.407 E.00747
M204 S1000
;WIPE_START
G1 F8640
G1 X165.595 Y146.216 E-.04625
G1 X165.654 Y146.024 E-.04625
G1 X165.7 Y145.633 E-.09104
G1 X165.746 Y145.241 E-.09104
G1 X165.7 Y144.899 E-.07972
G1 X165.654 Y144.557 E-.07972
G1 X165.595 Y144.366 E-.04602
G1 X165.536 Y144.176 E-.04602
;WIPE_END
G1 E-.27394 F2100
G1 Z.6 F720
G1 X84.548 Y144.921 F10800
G1 Z.2 F720
G1 E.8 F2100
M204 S800
;TYPE:External perimeter
;WIDTH:0.572624
G1 F1200
G1 X84.62 Y144.778 E.00706
;WIDTH:0.534468
G1 X84.692 Y144.635 E.00655
;WIDTH:0.496312
G1 X84.764 Y144.492 E.00604
;WIDTH:0.458156
G1 X84.836 Y144.349 E.00553
;WIDTH:0.419999
G1 X85.188 Y143.92 E.01739
G1 X85.532 Y143.644 E.01383
G1 X85.876 Y143.487 E.01185
G1 X86.483 Y143.382 E.01932
G1 X86.848 Y143.413 E.0115
G1 X87.167 Y143.501 E.01037
G1 X87.642 Y143.767 E.01707
G1 X87.972 Y144.075 E.01415
G1 X88.162 Y144.349 E.01045
G1 X88.299 Y144.653 E.01044
G1 X88.383 Y144.975 E.01045
G1 X88.408 Y145.305 E.01038
G1 X88.377 Y145.639 E.01051
G1 X88.288 Y145.958 E.0104
G1 X88.144 Y146.262 E.01052
G1 X87.951 Y146.53 E.01037
G1 X87.642 Y146.814 E.01316
G1 X87.167 Y147.08 E.01707
G1 X86.654 Y147.189 E.01645
G1 X86.15 Y147.168 E.01583
G1 X85.655 Y146.997 E.01641
G1 X85.246 Y146.731 E.01529
G1 X84.863 Y146.274 E.0187
;WIDTH:0.457908
G1 X84.784 Y146.12 E.00596
;WIDTH:0.495817
G1 X84.706 Y145.967 E.0065
;WIDTH:0.533727
G1 X84.627 Y145.813 E.00704
;WIDTH:0.571636
G1 X84.548 Y145.66 E.00759
G1 X84.514 Y145.265 E.0174
;WIDTH:0.572624
G1 X84.542 Y144.981 E.01258
M204 S1000
G1 X84.384 Y144.389 F10800
M204 S800
;TYPE:Perimeter
;WIDTH:0.491286
G1 F1200
G1 X84.462 Y144.176 E.00847
M204 S1000
;WIPE_START
G1 F8640
G1 X84.384 Y144.389 E-.05246
;WIPE_END
G1 E-.74754 F2100
G1 Z.6 F720
G1 X84.462 Y146.405 F10800
G1 Z.2 F720
G1 E.8 F2100
M204 S800
G1 F1200
G1 X84.384 Y146.192 E.00847
M204 S1000
;WIPE_START
G1 F8640
G1 X84.462 Y146.405 E-.05244
;WIPE_END
G1 E-.74756 F2100
G1 Z.6 F720
G1 X164.428 Y147.497 F10800
G1 Z.2 F720
G1 E.8 F2100
M204 S800
;TYPE:Solid infill
;WIDTH:0.421635
G1 F1200
G1 X164.732 Y147.801 E.01354
G1 X164.511 Y148.116 E.01211
G1 X164.156 Y147.761 E.01582
G1 X163.923 Y147.826 E.00761
G1 X163.7 Y147.841 E.00702
G1 X164.29 Y148.431 E.02626
G1 X164.026 Y148.702 E.01193
G1 X162.941 Y147.618 E.04831
M204 S1000
;WIPE_START
G1 F8640
G1 X164.026 Y148.702 E-.35421
G1 X164.29 Y148.431 E-.08746
G1 X163.7 Y147.841 E-.19252
G1 X163.923 Y147.826 E-.05148
G1 X164.156 Y147.761 E-.05581
G1 X164.212 Y147.817 E-.01852
;WIPE_END
G1 E-.04 F2100
G1 Z.6 F720
G1 X164.993 Y143.242 F10800
G1 Z.2 F720
G1 E.8 F2100
M204 S800
G1 F1200
G1 X162.612 Y140.861 E.10601
G1 X162.185 Y140.663 E.01484
G1 X161.765 Y140.55 E.01369
G1 X163.989 Y142.773 E.09902
G1 X163.524 Y142.723 E.01473
G1 X163.409 Y142.73 E.00361
G1 X161.096 Y140.416 E.10302
G1 X160.508 Y140.364 E.01857
G1 X163.093 Y142.949 E.11509
M204 S1000
;WIPE_START
G1 F8640
G1 X160.765 Y140.621 E-.76
;WIPE_END
G1 E-.04 F2100
G1 Z.6 F720
G1 X159.598 Y124.457 F10800
G1 Z.2 F720
G1 E.8 F2100
M204 S800
G1 F1200
G1 X159.002 Y123.861 E.02654
G1 X158.466 Y123.861 E.01687
G1 X159.428 Y124.823 E.04284
G1 X159.428 Y125.359 E.01687
G1 X157.931 Y123.861 E.06669
G1 X157.395 Y123.861 E.01687
G1 X159.428 Y125.894 E.09054
G1 X159.428 Y126.43 E.01687
G1 X156.859 Y123.861 E.11439
G1 X156.324 Y123.861 E.01687
G1 X159.428 Y126.966 E.13825
G1 X159.428 Y127.501 E.01687
G1 X155.788 Y123.861 E.1621
G1 X155.253 Y123.861 E.01687
G1 X159.428 Y128.037 E.18595
G1 X159.428 Y128.572 E.01687
G1 X154.717 Y123.861 E.2098
G1 X154.182 Y123.861 E.01687
G1 X159.428 Y129.108 E.23365
G1 X159.428 Y129.644 E.01687
G1 X153.646 Y123.861 E.2575
G1 X153.11 Y123.861 E.01687
G1 X159.428 Y130.179 E.28136
G1 X159.428 Y130.715 E.01687
G1 X152.575 Y123.861 E.30521
G1 X152.039 Y123.861 E.01687
M73 Q1 S108
G1 X159.428 Y131.25 E.32906
G1 X159.428 Y131.786 E.01687
M73 P1 R107
G1 X151.504 Y123.861 E.35291
G1 X150.968 Y123.861 E.01687
G1 X159.428 Y132.322 E.37676
G1 X159.428 Y132.857 E.01687
G1 X150.432 Y123.861 E.40061
G1 X149.897 Y123.861 E.01687
G1 X159.428 Y133.393 E.42447
G1 X159.428 Y133.928 E.01687
G1 X149.361 Y123.861 E.44832
G1 X148.826 Y123.861 E.01687
G1 X159.428 Y134.464 E.47217
G1 X159.428 Y134.999 E.01687
G1 X148.29 Y123.861 E.49602
G1 X147.754 Y123.861 E.01687
G1 X159.428 Y135.535 E.51987
G1 X159.428 Y136.071 E.01687
G1 X147.219 Y123.861 E.54372
G1 X146.683 Y123.861 E.01687
G1 X159.428 Y136.606 E.56758
G1 X159.428 Y137.142 E.01687
G1 X146.148 Y123.861 E.59143
G1 X145.612 Y123.861 E.01687
G1 X159.428 Y137.677 E.61528
G1 X159.428 Y138.213 E.01687
G1 X145.077 Y123.861 E.63913
G1 X144.541 Y123.861 E.01687
G1 X159.428 Y138.749 E.66298
G1 X159.428 Y139.284 E.01687
G1 X144.005 Y123.861 E.68683
G1 X143.47 Y123.861 E.01687
G1 X162.525 Y142.917 E.84861
G1 X162.168 Y143.095 E.01258
G1 X142.934 Y123.861 E.85654
G1 X142.399 Y123.861 E.01687
G1 X161.859 Y143.321 E.86663
G1 X161.584 Y143.583 E.01193
G1 X141.863 Y123.861 E.87826
G1 X141.327 Y123.861 E.01687
G1 X161.355 Y143.888 E.89188
G1 X161.27 Y144.008 E.00461
G1 X161.165 Y144.235 E.00787
G1 X140.792 Y123.861 E.90732
G1 X140.256 Y123.861 E.01687
G1 X161.028 Y144.633 E.92503
G1 X160.958 Y144.913 E.00909
G1 X160.946 Y145.086 E.00549
G1 X139.721 Y123.861 E.94524
G1 X139.185 Y123.861 E.01687
G1 X161.17 Y145.846 E.97905
M204 S1000
;WIPE_START
G1 F8640
G1 X158.842 Y143.518 E-.76
;WIPE_END
G1 E-.04 F2100
G1 Z.6 F720
G1 X163.878 Y149.09 F10800
G1 Z.2 F720
G1 E.8 F2100
M204 S800
G1 F1200
G1 X138.65 Y123.861 E1.12354
G1 X138.114 Y123.861 E.01687
G1 X163.46 Y149.207 E1.12875
G1 X163.145 Y149.428 E.01211
G1 X137.578 Y123.861 E1.13859
G1 X137.043 Y123.861 E.01687
G1 X162.809 Y149.628 E1.14748
G1 X162.444 Y149.798 E.0127
G1 X136.507 Y123.861 E1.15506
G1 X135.972 Y123.861 E.01687
G1 X162.062 Y149.951 E1.16189
G1 X161.64 Y150.065 E.01376
G1 X135.436 Y123.861 E1.16695
G1 X134.9 Y123.861 E.01687
G1 X161.195 Y150.156 E1.171
G1 X160.703 Y150.199 E.01556
M73 Q1 S107
G1 X134.365 Y123.861 E1.17294
G1 X133.829 Y123.861 E.01687
M73 P1 R106
G1 X160.211 Y150.243 E1.17487
G1 X159.963 Y150.299 E.008
G1 X159.814 Y150.382 E.00536
