; generated by PrusaSlicer 2.5.2+win64 on 2023-05-23 at 18:38:05 UTC


;
;

;
;
; 

; external perimeters extrusion width = 0.45mm
; perimeters extrusion width = 0.45mm
; infill extrusion width = 0.45mm
; solid infill extrusion width = 0.45mm
; top infill extrusion width = 0.40mm
; first layer extrusion width = 0.42mm

M73 P0 R111
M201 X2500 Y2500 Z400 E5000 ; sets maximum accelerations, mm/sec^2
M203 X180 Y180 Z12 E80 ; sets maximum feedrates, mm / sec
M204 P1250 R1250 T2500 ; sets acceleration (P, T) and retract acceleration (R), mm/sec^2
M205 X8.00 Y8.00 Z2.00 E10.00 ; sets the jerk limits, mm/sec
M205 S0 T0 ; sets the minimum extruding and travel feed rate, mm/sec
M107
;TYPE:Custom
M862.3 P "MINI" ; printer model check
G90 ; use absolute coordinates
M83 ; extruder relative mode
M104 S170 ; set extruder temp for bed leveling
M140 S60 ; set bed temp
M109 R170 ; wait for bed leveling temp
M190 S60 ; wait for bed temp
M204 T1250 ; set travel acceleration
G28 ; home all without mesh bed level
G29 ; mesh bed leveling 
M204 T2500 ; restore travel acceleration
M104 S215 ; set extruder temp
G92 E0
G1 Y-2 X179 F2400
G1 Z3 F720
M109 S215 ; wait for extruder temp

; intro line
G1 X170 F1000
G1 Z0.2 F720
G1 X110 E8 F900
G1 X40 E10 F700
G92 E0

M221 S95 ; set flow
G21 ; set units to millimeters
G90 ; use absolute coordinates
M83 ; use relative distances for extrusion
M900 K0.2 ; Filament gcode LA 1.5
; ; Filament gcode LA 1.0
M107
;LAYER_CHANGE
;Z:0.2
;HEIGHT:0.2
;BEFORE_LAYER_CHANGE
G92 E0.0
;0.2


G1 E-3.2 F4200
G1 Z.2 F720
;AFTER_LAYER_CHANGE
;0.2
G1 Z.4
G1 X54.039 Y42.037 F9000
G1 Z.2 F720
G1 E3.2 F2400
M204 P800
;TYPE:Skirt/Brim
;WIDTH:0.42
G1 F1200
G1 X55.574 Y41.103 E.05633
G1 X88.774 Y35.776 E1.0543
G1 X90.202 Y35.682 E.04486
G1 X91.226 Y35.776 E.03223
G1 X124.425 Y41.103 E1.05427
G1 X125.654 Y41.697 E.04278
G1 X126.422 Y43.321 E.05633
G1 X128.826 Y87.501 E1.38728
G1 X128.823 Y92.628 E.16076
G1 X126.422 Y136.678 E1.38319
G1 X125.96 Y137.962 E.04278
G1 X124.425 Y138.896 E.05633
G1 X91.226 Y144.224 E1.05427
G1 X90.202 Y144.318 E.03223
G1 X88.775 Y144.224 E.04485
G1 X55.569 Y138.902 E1.05442
G1 X54.341 Y138.308 E.04278
G1 X53.572 Y136.683 E.05635
G1 X51.174 Y92.499 E1.38741
G1 X51.177 Y87.372 E.16076
G1 X53.577 Y43.321 E1.38322
G1 X54.019 Y42.094 E.0409
M204 P1000
; printing object Mega_Top.STL id:0 copy 0
G1 E-2.24 F4200
;WIPE_START
G1 F7200
G1 X55.407 Y41.21 E-.912
;WIPE_END
G1 E-.048 F4200
G1 Z.4 F720
G1 X94.114 Y44.108 F9000
G1 Z.2 F720
G1 E3.2 F2400
M204 P800
;TYPE:Perimeter
;WIDTH:0.419999
G1 F1200
G1 X94.1 Y44.22 E.00355
G1 X94.19 Y44.464 E.00817
G1 X94.395 Y44.651 E.0087
G1 X94.661 Y44.717 E.00859
G1 X122.779 Y44.721 E.88161
G1 X122.779 Y87.722 E1.34828
G1 X122.797 Y87.865 E.00451
G1 X122.936 Y88.113 E.00891
G1 X123.158 Y88.257 E.0083
G1 X123.345 Y88.288 E.00592
G1 X125.662 Y88.288 E.07266
G1 X125.662 Y91.712 E.10735
G1 X123.295 Y91.714 E.0742
G1 X123.021 Y91.814 E.00914
G1 X122.834 Y92.034 E.00905
G1 X122.779 Y92.278 E.00784
G1 X122.779 Y135.279 E1.34828
G1 X94.555 Y135.293 E.88493
G1 X94.297 Y135.416 E.00897
G1 X94.141 Y135.627 E.00822
G1 X94.097 Y135.877 E.00795
G1 X94.177 Y136.404 E.01674
G1 X94.209 Y137.07 E.02088
G1 X94.121 Y137.812 E.02342
G1 X93.915 Y138.497 E.02243
G1 X93.596 Y139.14 E.02252
G1 X93.172 Y139.717 E.02245
G1 X92.811 Y140.067 E.01576
G1 X92.424 Y140.374 E.01548
G1 X91.967 Y140.666 E.01702
G1 X92.128 Y140.281 E.01309
G1 X92.23 Y139.941 E.01111
G1 X92.287 Y139.503 E.01385
G1 X92.259 Y139.098 E.01273
G1 X92.164 Y138.714 E.01242
G1 X92.005 Y138.351 E.01242
G1 X91.782 Y138.017 E.01257
G1 X91.508 Y137.73 E.01246
G1 X91.182 Y137.494 E.01261
G1 X90.828 Y137.319 E.01238
G1 X90.297 Y137.188 E.01714
G1 X89.701 Y137.188 E.0187
G1 X89.222 Y137.299 E.01541
G1 X88.774 Y137.525 E.01573
G1 X88.318 Y137.908 E.01869
G1 X88.051 Y138.255 E.01373
G1 X87.904 Y138.547 E.01022
G1 X87.774 Y138.944 E.01312
G1 X87.715 Y139.404 E.01453
G1 X87.741 Y139.797 E.01236
G1 X87.837 Y140.188 E.01261
G1 X88.09 Y140.692 E.01769
G1 X87.941 Y140.622 E.00517
G1 X87.345 Y140.218 E.02256
G1 X86.828 Y139.717 E.02257
G1 X86.404 Y139.14 E.02245
G1 X86.085 Y138.497 E.02252
G1 X85.878 Y137.811 E.02246
G1 X85.792 Y137.086 E.02289
G1 X85.829 Y136.361 E.02277
G1 X85.906 Y135.779 E.01839
G1 X85.82 Y135.542 E.00791
G1 X85.612 Y135.35 E.00886
G1 X85.344 Y135.283 E.00866
G1 X57.219 Y135.281 E.88184
G1 X57.228 Y92.278 E1.34833
G1 X57.21 Y92.134 E.00454
G1 X57.071 Y91.886 E.0089
G1 X56.849 Y91.743 E.00829
G1 X56.663 Y91.712 E.00592
G1 X54.338 Y91.712 E.07289
G1 X54.338 Y88.288 E.10735
G1 X56.05 Y88.288 E.05368
G1 X56.843 Y88.256 E.02488
G1 X56.98 Y88.186 E.00483
G1 X57.166 Y87.965 E.00904
G1 X57.221 Y87.722 E.00781
G1 X57.221 Y44.721 E1.34828
G1 X85.393 Y44.715 E.88332
G1 X85.652 Y44.626 E.00858
G1 X85.845 Y44.414 E.00899
G1 X85.91 Y44.151 E.00848
G1 X85.823 Y43.592 E.01774
G1 X85.791 Y42.912 E.02134
G1 X85.878 Y42.189 E.02284
G1 X86.085 Y41.503 E.02246
G1 X86.404 Y40.86 E.02252
G1 X86.803 Y40.317 E.02112
G1 X87.184 Y39.938 E.01684
G1 X87.576 Y39.626 E.01572
G1 X88.034 Y39.334 E.01702
G1 X87.872 Y39.719 E.0131
G1 X87.77 Y40.059 E.01111
G1 X87.715 Y40.501 E.01398
G1 X87.74 Y40.897 E.01243
G1 X87.836 Y41.286 E.01258
G1 X87.995 Y41.649 E.01242
G1 X88.318 Y42.092 E.01717
G1 X88.73 Y42.438 E.01687
G1 X89.174 Y42.681 E.01588
G1 X89.553 Y42.792 E.01239
G1 X89.954 Y42.835 E.01263
G1 X90.345 Y42.81 E.0123
G1 X90.735 Y42.714 E.01258
G1 X91.099 Y42.554 E.01245
G1 X91.399 Y42.356 E.01128
G1 X91.719 Y42.058 E.01372
G1 X91.95 Y41.743 E.01225
G1 X92.096 Y41.453 E.01016
G1 X92.226 Y41.056 E.01312
G1 X92.287 Y40.6 E.0144
G1 X92.259 Y40.198 E.01266
G1 X92.163 Y39.812 E.01245
G1 X91.91 Y39.308 E.01769
G1 X92.059 Y39.378 E.00517
G1 X92.655 Y39.782 E.02255
G1 X93.172 Y40.283 E.02257
G1 X93.596 Y40.86 E.02245
G1 X93.915 Y41.503 E.02252
G1 X94.121 Y42.188 E.02243
G1 X94.208 Y42.929 E.02338
G1 X94.171 Y43.642 E.02239
G1 X94.121 Y44.048 E.01283
M204 P1000
G1 X94.475 Y44.121 F9000
M204 P800
;TYPE:External perimeter
G1 F1200
G1 X94.519 Y44.276 E.00503
G1 X94.661 Y44.34 E.00489
G1 X123.156 Y44.344 E.89343
G1 X123.156 Y87.722 E1.3601
G1 X123.208 Y87.853 E.0044
M73 P0 R110
G1 X123.345 Y87.911 E.00465
G1 X126.039 Y87.911 E.08448
G1 X126.039 Y90 E.0655
G1 X126.039 Y92.089 E.0655
G1 X123.345 Y92.089 E.08448
G1 X123.208 Y92.147 E.00465
G1 X123.156 Y92.274 E.00431
G1 X123.156 Y135.656 E1.3602
G1 X94.661 Y135.66 E.89342
G1 X94.529 Y135.714 E.00448
G1 X94.473 Y135.858 E.00484
G1 X94.552 Y136.366 E.01612
G1 X94.587 Y137.083 E.0225
G1 X94.492 Y137.889 E.02545
G1 X94.266 Y138.636 E.02446
G1 X93.919 Y139.337 E.02453
G1 X93.457 Y139.966 E.02448
G1 X92.893 Y140.512 E.02459
G1 X92.285 Y140.925 E.02305
G1 X91.853 Y141.135 E.01506
;WIDTH:0.422544
G1 X91.375 Y141.337 E.01639
;WIDTH:0.436188
G1 X90.747 Y141.534 E.02152
G1 X90.025 Y141.628 E.0238
;WIDTH:0.43131
G1 X89.602 Y141.589 E.01371
;WIDTH:0.428279
G1 X88.981 Y141.452 E.02041
G1 X88.476 Y141.289 E.01698
;WIDTH:0.419999
G1 X87.754 Y140.951 E.02502
G1 X87.107 Y140.512 E.02452
G1 X86.543 Y139.966 E.02459
G1 X86.081 Y139.337 E.02448
G1 X85.734 Y138.636 E.02453
G1 X85.508 Y137.889 E.02447
G1 X85.413 Y137.099 E.02494
G1 X85.447 Y136.44 E.02069
G1 X85.53 Y135.881 E.01772
G1 X85.488 Y135.727 E.005
G1 X85.344 Y135.66 E.00499
G1 X56.842 Y135.658 E.89366
G1 X56.851 Y92.278 E1.36016
G1 X56.799 Y92.147 E.00441
G1 X56.663 Y92.089 E.00464
G1 X53.961 Y92.089 E.08471
G1 X53.961 Y87.911 E.131
G1 X56.655 Y87.911 E.08447
G1 X56.792 Y87.852 E.00466
G1 X56.844 Y87.726 E.0043
G1 X56.844 Y44.344 E1.3602
G1 X85.344 Y44.34 E.89361
G1 X85.464 Y44.297 E.00401
M73 P1 R110
G1 X85.533 Y44.151 E.00503
G1 X85.448 Y43.633 E.01648
G1 X85.413 Y42.899 E.02304
G1 X85.508 Y42.111 E.02486
G1 X85.734 Y41.364 E.02447
G1 X86.081 Y40.663 E.02453
G1 X86.543 Y40.034 E.02448
G1 X87.107 Y39.488 E.02459
G1 X87.715 Y39.075 E.02305
G1 X88.147 Y38.865 E.01508
;WIDTH:0.422515
G1 X88.623 Y38.664 E.01631
G1 X89.365 Y38.444 E.02442
;WIDTH:0.419825
G1 X89.898 Y38.375 E.01685
;WIDTH:0.416872
G1 X90.396 Y38.411 E.0155
;WIDTH:0.428302
G1 X91.017 Y38.548 E.02038
G1 X91.524 Y38.711 E.01708
;WIDTH:0.419999
G1 X92.246 Y39.049 E.02501
G1 X92.893 Y39.488 E.02452
G1 X93.457 Y40.034 E.02459
G1 X93.919 Y40.663 E.02448
G1 X94.266 Y41.364 E.02453
G1 X94.492 Y42.111 E.02446
G1 X94.587 Y42.917 E.02543
G1 X94.552 Y43.574 E.02065
G1 X94.484 Y44.062 E.01544
M204 P1000
G1 X94.35 Y44.222 F9000
G1 E-2.24 F4200
;WIPE_START
G1 F7200
G1 X94.519 Y44.276 E-.12013
G1 X94.661 Y44.34 E-.08635
G1 X95.934 Y44.34 E-.70552
;WIPE_END
G1 E-.048 F4200
G1 Z.4 F720
G1 X89.331 Y137.665 F9000
G1 Z.2 F720
G1 E3.2 F2400
M204 P800
G1 F1200
G1 X89.701 Y137.565 E.01199
G1 X90.297 Y137.565 E.0187
G1 X90.669 Y137.661 E.01203
G1 X91.241 Y137.997 E.02081
G1 X91.474 Y138.234 E.01041
G1 X91.753 Y138.705 E.01718
G1 X91.884 Y139.133 E.01402
G1 X91.911 Y139.468 E.01057
G1 X91.866 Y139.842 E.01181
G1 X91.788 Y140.12 E.00904
G1 X91.642 Y140.42 E.01046
G1 X91.44 Y140.691 E.01059
;WIDTH:0.422544
G1 X91.188 Y140.919 E.01074
;WIDTH:0.428898
G1 X90.883 Y141.09 E.01121
G1 X90.326 Y141.226 E.01842
;WIDTH:0.413655
G1 X89.718 Y141.232 E.01873
;WIDTH:0.428709
G1 X89.114 Y141.09 E.01992
G1 X88.745 Y140.86 E.01395
;WIDTH:0.419999
G1 X88.536 Y140.664 E.00899
G1 X88.34 Y140.389 E.01057
G1 X88.201 Y140.089 E.01039
G1 X88.116 Y139.765 E.01047
G1 X88.091 Y139.435 E.01038
G1 X88.138 Y139.042 E.01241
G1 X88.337 Y138.509 E.01785
G1 X88.56 Y138.197 E.01202
G1 X89.016 Y137.814 E.01869
G1 X89.277 Y137.69 E.00905
M204 P1000
G1 X89.387 Y137.286 F9000
G1 E-2.24 F4200
;WIPE_START
G1 F7200
G1 X89.701 Y137.565 E-.24464
G1 X90.297 Y137.565 E-.3306
G1 X90.669 Y137.661 E-.21261
G1 X90.862 Y137.775 E-.12416
;WIPE_END
G1 E-.048 F4200
G1 Z.4 F720
G1 X89.064 Y38.936 F9000
G1 Z.2 F720
G1 E3.2 F2400
M204 P800
;WIDTH:0.428279
G1 F1200
G1 X89.414 Y38.817 E.01186
;WIDTH:0.419825
G1 X89.947 Y38.746 E.01685
;WIDTH:0.416872
G1 X90.326 Y38.774 E.0118
;WIDTH:0.428723
G1 X90.883 Y38.91 E.01842
G1 X91.255 Y39.138 E.01399
;WIDTH:0.419999
G1 X91.465 Y39.337 E.00906
G1 X91.66 Y39.611 E.01055
G1 X91.799 Y39.911 E.01039
G1 X91.883 Y40.232 E.0104
G1 X91.911 Y40.566 E.0105
G1 X91.862 Y40.958 E.01237
G1 X91.663 Y41.491 E.01785
G1 X91.453 Y41.791 E.01149
G1 X91.184 Y42.046 E.01162
G1 X90.939 Y42.213 E.00927
G1 X90.638 Y42.35 E.01039
G1 X90.313 Y42.434 E.0105
G1 X89.985 Y42.459 E.01031
G1 X89.651 Y42.428 E.01051
G1 X89.348 Y42.346 E.00986
G1 X88.972 Y42.149 E.0133
G1 X88.56 Y41.803 E.01687
G1 X88.337 Y41.491 E.01202
G1 X88.138 Y40.958 E.01785
G1 X88.091 Y40.533 E.0134
G1 X88.134 Y40.158 E.01184
G1 X88.212 Y39.88 E.00904
G1 X88.358 Y39.58 E.01046
G1 X88.561 Y39.308 E.01064
;WIDTH:0.422515
G1 X88.813 Y39.082 E.01068
;WIDTH:0.428279
G1 X89.012 Y38.966 E.00738
M204 P1000
G1 E-2.24 F4200
;WIPE_START
G1 F7200
G1 X89.414 Y38.817 E-.23777
G1 X89.947 Y38.746 E-.29797
G1 X90.326 Y38.774 E-.21035
G1 X90.617 Y38.845 E-.1659
;WIPE_END
G1 E-.048 F4200
G1 Z.4 F720
G1 X121.903 Y44.834 F9000
G1 Z.2 F720
G1 E3.2 F2400
M204 P800
;TYPE:Solid infill
;WIDTH:0.420065
G1 F1200
G1 X122.496 Y45.427 E.0263
G1 X122.496 Y45.96 E.01673
G1 X121.539 Y45.003 E.04244
G1 X121.006 Y45.003 E.01673
G1 X122.496 Y46.494 E.0661
G1 X122.496 Y47.027 E.01673
G1 X120.472 Y45.003 E.08977
G1 X119.939 Y45.003 E.01673
G1 X122.496 Y47.56 E.11343
G1 X122.496 Y48.094 E.01673
G1 X119.405 Y45.002 E.1371
G1 X118.871 Y45.002 E.01673
G1 X122.496 Y48.627 E.16076
G1 X122.496 Y49.161 E.01673
G1 X118.338 Y45.002 E.18443
G1 X117.804 Y45.002 E.01673
G1 X122.496 Y49.694 E.20809
G1 X122.496 Y50.227 E.01673
G1 X117.271 Y45.002 E.23176
G1 X116.737 Y45.001 E.01673
G1 X122.496 Y50.761 E.25542
G1 X122.496 Y51.294 E.01673
G1 X116.204 Y45.001 E.27908
G1 X115.67 Y45.001 E.01673
G1 X122.496 Y51.827 E.30275
G1 X122.496 Y52.361 E.01673
G1 X115.136 Y45.001 E.32641
G1 X114.603 Y45.001 E.01673
G1 X122.496 Y52.894 E.35008
G1 X122.496 Y53.428 E.01673
G1 X114.069 Y45 E.37374
G1 X113.536 Y45 E.01673
G1 X122.497 Y53.961 E.39741
G1 X122.497 Y54.494 E.01673
G1 X113.002 Y45 E.42107
G1 X112.469 Y45 E.01673
G1 X122.497 Y55.028 E.44474
G1 X122.497 Y55.561 E.01673
G1 X111.935 Y45 E.4684
G1 X111.401 Y44.999 E.01673
G1 X122.497 Y56.095 E.49207
G1 X122.497 Y56.628 E.01673
G1 X110.868 Y44.999 E.51573
G1 X110.334 Y44.999 E.01673
G1 X122.497 Y57.161 E.5394
G1 X122.497 Y57.695 E.01673
G1 X109.801 Y44.999 E.56306
G1 X109.267 Y44.998 E.01673
G1 X122.497 Y58.228 E.58672
G1 X122.497 Y58.761 E.01673
G1 X108.733 Y44.998 E.61039
G1 X108.2 Y44.998 E.01673
G1 X122.497 Y59.295 E.63405
G1 X122.497 Y59.828 E.01673
G1 X107.666 Y44.998 E.65772
G1 X107.133 Y44.998 E.01673
G1 X122.497 Y60.362 E.68138
G1 X122.497 Y60.895 E.01673
G1 X106.599 Y44.997 E.70505
G1 X106.066 Y44.997 E.01673
G1 X122.497 Y61.428 E.72871
G1 X122.497 Y61.962 E.01673
G1 X105.532 Y44.997 E.75238
G1 X104.998 Y44.997 E.01673
G1 X122.497 Y62.495 E.77604
G1 X122.497 Y63.029 E.01673
G1 X104.465 Y44.997 E.79971
G1 X103.931 Y44.996 E.01673
G1 X122.497 Y63.562 E.82337
G1 X122.497 Y64.095 E.01673
G1 X103.398 Y44.996 E.84704
G1 X102.864 Y44.996 E.01673
G1 X122.497 Y64.629 E.8707
G1 X122.497 Y65.162 E.01673
G1 X102.331 Y44.996 E.89437
G1 X101.797 Y44.996 E.01673
G1 X122.497 Y65.695 E.91803
G1 X122.497 Y66.229 E.01673
G1 X101.263 Y44.995 E.94169
G1 X100.73 Y44.995 E.01673
G1 X122.497 Y66.762 E.96536
G1 X122.497 Y67.296 E.01673
G1 X100.196 Y44.995 E.98902
G1 X99.663 Y44.995 E.01673
G1 X122.497 Y67.829 E1.01269
G1 X122.497 Y68.362 E.01673
G1 X99.129 Y44.994 E1.03635
G1 X98.596 Y44.994 E.01673
G1 X122.497 Y68.896 E1.06002
G1 X122.497 Y69.429 E.01673
G1 X98.062 Y44.994 E1.08368
G1 X97.528 Y44.994 E.01673
M73 P1 R109
G1 X122.497 Y69.963 E1.10735
G1 X122.497 Y70.496 E.01673
G1 X96.995 Y44.994 E1.13101
G1 X96.461 Y44.993 E.01673
G1 X122.497 Y71.029 E1.15468
G1 X122.497 Y71.563 E.01673
G1 X95.928 Y44.993 E1.17834
G1 X95.394 Y44.993 E.01673
G1 X122.497 Y72.096 E1.20201
G1 X122.497 Y72.629 E.01673
G1 X94.691 Y44.823 E1.2332
M204 P1000
G1 E-2.24 F4200
;WIPE_START
G1 F7200
G1 X95.854 Y45.987 E-.912
;WIPE_END
G1 E-.048 F4200
G1 Z.4 F720
G1 X93.923 Y41.921 F9000
G1 Z.2 F720
G1 E3.2 F2400
M204 P800
G1 F1200
G1 X92.562 Y40.561 E.06036
G1 X92.518 Y41.05 E.01542
G1 X93.861 Y42.393 E.05954
G1 X93.922 Y42.988 E.01875
G1 X92.398 Y41.464 E.06758
G1 X92.225 Y41.824 E.01253
G1 X93.896 Y43.495 E.07409
G1 X93.835 Y43.967 E.01495
G1 X92.009 Y42.141 E.081
G1 X91.954 Y42.222 E.00306
G1 X91.751 Y42.416 E.00883
G1 X122.497 Y73.163 E1.3636
G1 X122.497 Y73.696 E.01673
G1 X91.458 Y42.657 E1.37656
G1 X91.28 Y42.779 E.00678
G1 X91.122 Y42.854 E.00548
G1 X122.497 Y74.23 E1.39148
G1 X122.497 Y74.763 E.01673
G1 X90.733 Y42.999 E1.40872
G1 X90.436 Y43.084 E.0097
M73 P2 R109
G1 X90.296 Y43.095 E.00439
G1 X122.497 Y75.296 E1.4281
G1 X122.497 Y75.83 E.01673
G1 X89.58 Y42.912 E1.45988
M204 P1000
G1 E-2.24 F4200
;WIPE_START
G1 F7200
G1 X90.743 Y44.076 E-.912
;WIPE_END
G1 E-.048 F4200
G1 Z.4 F720
G1 X87.61 Y40.409 F9000
G1 Z.2 F720
G1 E3.2 F2400
M204 P800
G1 F1200
G1 X87.361 Y40.16 E.01102
G1 X87.09 Y40.422 E.01183
G1 X87.646 Y40.978 E.02464
M204 P1000
G1 X86.735 Y40.601 F9000
M204 P800
G1 F1200
G1 X87.603 Y41.469 E.03852
G1 X87.741 Y41.775 E.01052
G1 X88.045 Y42.221 E.01693
G1 X88.688 Y42.762 E.02635
G1 X89.081 Y42.946 E.0136
G1 X122.497 Y76.363 E1.48201
G1 X122.497 Y76.897 E.01673
G1 X86.634 Y41.033 E1.59053
G1 X86.457 Y41.39 E.01248
G1 X122.497 Y77.43 E1.59836
G1 X122.497 Y77.963 E.01673
G1 X86.301 Y41.767 E1.60528
G1 X86.177 Y42.177 E.01342
G1 X122.497 Y78.497 E1.61077
G1 X122.497 Y79.03 E.01673
G1 X86.109 Y42.641 E1.61382
G1 X86.075 Y42.923 E.00888
G1 X86.086 Y43.152 E.00719
G1 X122.498 Y79.563 E1.61484
G1 X122.498 Y80.097 E.01673
G1 X86.13 Y43.729 E1.61288
G1 X86.193 Y44.15 E.01333
G1 X86.175 Y44.308 E.00499
G1 X122.498 Y80.63 E1.61088
G1 X122.498 Y81.164 E.01673
G1 X86.004 Y44.67 E1.61848
G1 X85.934 Y44.763 E.00365
G1 X85.716 Y44.915 E.00834
G1 X122.498 Y81.697 E1.63126
G1 X122.498 Y82.23 E.01673
G1 X85.257 Y44.99 E1.65159
G1 X84.724 Y44.99 E.01672
G1 X122.498 Y82.764 E1.67523
G1 X122.498 Y83.297 E.01673
M73 P2 R108
G1 X84.191 Y44.99 E1.69888
G1 X83.658 Y44.991 E.01672
