; generated by PrusaSlicer 2.5.2+win64 on 2023-05-16 at 19:54:24 UTC


;
;

;
;
; 

; external perimeters extrusion width = 0.45mm
; perimeters extrusion width = 0.45mm
; infill extrusion width = 0.45mm
; solid infill extrusion width = 0.45mm
; top infill extrusion width = 0.40mm
; first layer extrusion width = 0.42mm

M73 P0 R86
M201 X2500 Y2500 Z400 E5000 ; sets maximum accelerations, mm/sec^2
M203 X180 Y180 Z12 E80 ; sets maximum feedrates, mm / sec
M204 P1250 R1250 T2500 ; sets acceleration (P, T) and retract acceleration (R), mm/sec^2
M205 X8.00 Y8.00 Z2.00 E10.00 ; sets the jerk limits, mm/sec
M205 S0 T0 ; sets the minimum extruding and travel feed rate, mm/sec
M107
;TYPE:Custom
M862.3 P "MINI" ; printer model check
G90 ; use absolute coordinates
M83 ; extruder relative mode
M104 S170 ; set extruder temp for bed leveling
M140 S60 ; set bed temp
M109 R170 ; wait for bed leveling temp
M190 S60 ; wait for bed temp
M204 T1250 ; set travel acceleration
G28 ; home all without mesh bed level
G29 ; mesh bed leveling 
M204 T2500 ; restore travel acceleration
M104 S215 ; set extruder temp
G92 E0
G1 Y-2 X179 F2400
G1 Z3 F720
M109 S215 ; wait for extruder temp

; intro line
M73 P0 R85
G1 X170 F1000
G1 Z0.2 F720
G1 X110 E8 F900
G1 X40 E10 F700
G92 E0

M221 S95 ; set flow
G21 ; set units to millimeters
G90 ; use absolute coordinates
M83 ; use relative distances for extrusion
M900 K0.2 ; Filament gcode LA 1.5
; ; Filament gcode LA 1.0
M107
;LAYER_CHANGE
;Z:0.2
;HEIGHT:0.2
;BEFORE_LAYER_CHANGE
G92 E0.0
;0.2


G1 E-3.2 F4200
G1 Z.2 F720
;AFTER_LAYER_CHANGE
;0.2
G1 Z.4
G1 X57.058 Y50.515 F9000
G1 Z.2 F720
G1 E3.2 F2400
M204 P800
;TYPE:Skirt/Brim
;WIDTH:0.42
G1 F1200
G1 X58.538 Y49.612 E.05436
G1 X88.737 Y44.282 E.96151
G1 X89.797 Y44.182 E.03338
G1 X91.049 Y44.254 E.03931
G1 X121.46 Y49.612 E.96822
G1 X122.68 Y50.224 E.04278
G1 X123.419 Y51.792 E.05435
G1 X125.822 Y87.341 E1.11714
G1 X125.827 Y92.499 E.16173
G1 X123.419 Y128.209 E1.12219
G1 X122.94 Y129.486 E.04278
G1 X121.46 Y130.389 E.05435
G1 X91.261 Y135.718 E.96151
G1 X90.199 Y135.818 E.03346
G1 X88.737 Y135.718 E.04594
G1 X58.538 Y130.389 E.96151
G1 X57.318 Y129.777 E.04278
G1 X56.579 Y128.209 E.05436
G1 X54.173 Y92.499 E1.12219
G1 X54.178 Y87.341 E.16173
G1 X56.579 Y51.792 E1.11714
G1 X57.037 Y50.571 E.0409
M204 P1000
; printing object Pico_Top.STL id:0 copy 0
G1 E-2.24 F4200
;WIPE_START
G1 F7200
G1 X58.423 Y49.685 E-.912
;WIPE_END
G1 E-.048 F4200
G1 Z.4 F720
G1 X120.303 Y91.738 F9000
G1 Z.2 F720
G1 E3.2 F2400
M204 P800
;TYPE:Perimeter
;WIDTH:0.419999
G1 F1200
G1 X120.153 Y91.744 E.00471
G1 X120.016 Y91.814 E.00485
G1 X119.829 Y92.035 E.00904
G1 X119.775 Y92.278 E.00781
G1 X119.775 Y126.776 E1.08167
G1 X94.559 Y126.789 E.79061
G1 X94.297 Y126.911 E.00906
G1 X94.138 Y127.126 E.0084
G1 X94.094 Y127.377 E.008
G1 X94.176 Y127.906 E.01677
G1 X94.208 Y128.571 E.02088
G1 X94.12 Y129.31 E.02334
G1 X93.913 Y129.999 E.02255
G1 X93.595 Y130.641 E.02246
G1 X93.171 Y131.219 E.02247
G1 X92.808 Y131.568 E.01578
G1 X92.423 Y131.874 E.01543
G1 X91.965 Y132.166 E.01702
G1 X92.127 Y131.781 E.0131
G1 X92.23 Y131.439 E.01118
G1 X92.286 Y131.003 E.01378
G1 X92.258 Y130.598 E.01273
G1 X92.163 Y130.213 E.01243
G1 X92.003 Y129.851 E.01242
G1 X91.782 Y129.52 E.01248
G1 X91.51 Y129.233 E.01239
G1 X91.186 Y128.995 E.01261
G1 X90.825 Y128.819 E.01258
G1 X90.385 Y128.695 E.01432
G1 X89.858 Y128.674 E.01655
G1 X89.307 Y128.776 E.01756
G1 X88.9 Y128.945 E.01383
G1 X88.612 Y129.135 E.01081
G1 X88.277 Y129.447 E.01434
G1 X88.052 Y129.755 E.01197
G1 X87.901 Y130.052 E.01044
G1 X87.773 Y130.444 E.01296
G1 X87.714 Y130.904 E.01452
G1 X87.74 Y131.297 E.01237
G1 X87.836 Y131.688 E.01261
G1 X88.089 Y132.192 E.01769
G1 X87.94 Y132.123 E.00514
G1 X87.344 Y131.716 E.02263
G1 X86.827 Y131.219 E.02249
G1 X86.403 Y130.641 E.02248
G1 X86.085 Y129.999 E.02246
G1 X85.877 Y129.31 E.02257
G1 X85.791 Y128.587 E.02283
G1 X85.83 Y127.847 E.02322
G1 X85.9 Y127.276 E.01803
G1 X85.801 Y127.02 E.00862
G1 X85.604 Y126.846 E.00822
G1 X85.338 Y126.78 E.00859
G1 X60.223 Y126.776 E.78746
G1 X60.223 Y92.278 E1.08167
G1 X60.205 Y92.136 E.00449
G1 X60.068 Y91.888 E.00889
G1 X59.845 Y91.744 E.00832
G1 X59.658 Y91.712 E.00595
G1 X57.337 Y91.712 E.07276
G1 X57.337 Y88.288 E.10735
G1 X59.707 Y88.286 E.07431
G1 X59.982 Y88.186 E.00919
G1 X60.169 Y87.965 E.00904
G1 X60.223 Y87.722 E.00781
G1 X60.223 Y53.225 E1.08166
G1 X85.438 Y53.211 E.79058
G1 X85.699 Y53.09 E.00905
G1 X85.859 Y52.876 E.00837
G1 X85.903 Y52.623 E.00804
G1 X85.824 Y52.095 E.01675
G1 X85.79 Y51.416 E.02132
G1 X85.877 Y50.689 E.02296
G1 X86.084 Y50.002 E.0225
G1 X86.403 Y49.359 E.02247
G1 X86.801 Y48.816 E.02114
G1 X87.182 Y48.438 E.01681
G1 X87.575 Y48.126 E.01573
G1 X88.035 Y47.833 E.01711
G1 X87.871 Y48.219 E.01317
G1 X87.769 Y48.56 E.01114
G1 X87.714 Y49.004 E.01403
G1 X87.739 Y49.397 E.01236
G1 X87.835 Y49.787 E.01257
G1 X87.995 Y50.149 E.01241
G1 X88.215 Y50.48 E.01248
G1 X88.491 Y50.769 E.01254
G1 X88.812 Y51.005 E.01249
G1 X89.173 Y51.181 E.01259
G1 X89.555 Y51.292 E.01248
G1 X89.95 Y51.335 E.01244
G1 X90.346 Y51.31 E.01244
G1 X90.735 Y51.214 E.01257
G1 X91.098 Y51.055 E.01242
G1 X91.393 Y50.859 E.01111
G1 X91.719 Y50.558 E.0139
G1 X91.945 Y50.248 E.01202
G1 X92.097 Y49.949 E.01052
G1 X92.225 Y49.556 E.01297
G1 X92.286 Y49.103 E.01431
G1 X92.258 Y48.698 E.01273
G1 X92.162 Y48.312 E.01246
G1 X91.909 Y47.808 E.0177
G1 X92.058 Y47.878 E.00518
G1 X92.654 Y48.282 E.02258
G1 X93.171 Y48.781 E.02251
G1 X93.595 Y49.359 E.0225
G1 X93.914 Y50.002 E.02247
G1 X94.121 Y50.689 E.0225
G1 X94.207 Y51.417 E.02299
G1 X94.17 Y52.142 E.02277
G1 X94.098 Y52.723 E.01837
G1 X94.187 Y52.966 E.00812
G1 X94.393 Y53.153 E.00873
G1 X94.659 Y53.22 E.00858
G1 X119.775 Y53.225 E.78749
G1 X119.775 Y87.722 E1.08166
G1 X119.793 Y87.864 E.00449
G1 X119.93 Y88.112 E.00889
G1 X120.153 Y88.256 E.00832
G1 X120.34 Y88.288 E.00595
G1 X122.663 Y88.288 E.07282
G1 X122.663 Y91.712 E.10735
G1 X120.951 Y91.712 E.05368
G1 X120.363 Y91.735 E.01844
M204 P1000
G1 X120.34 Y92.089 F9000
M204 P800
;TYPE:External perimeter
G1 F1200
G1 X120.204 Y92.148 E.00466
G1 X120.152 Y92.278 E.00439
G1 X120.152 Y127.153 E1.09349
G1 X94.659 Y127.157 E.79931
G1 X94.528 Y127.21 E.00443
G1 X94.471 Y127.356 E.00492
G1 X94.551 Y127.867 E.01621
G1 X94.586 Y128.584 E.02251
G1 X94.491 Y129.387 E.02536
G1 X94.265 Y130.138 E.02458
G1 X93.918 Y130.837 E.02448
G1 X93.456 Y131.468 E.02452
G1 X92.893 Y132.01 E.02451
G1 X92.285 Y132.424 E.02307
G1 X91.852 Y132.635 E.01509
;WIDTH:0.422494
G1 X91.376 Y132.836 E.01632
;WIDTH:0.436059
G1 X90.746 Y133.034 E.02158
G1 X90.022 Y133.127 E.02386
;WIDTH:0.430855
G1 X89.604 Y133.089 E.01354
;WIDTH:0.428205
G1 X88.98 Y132.952 E.02048
G1 X88.475 Y132.789 E.01699
;WIDTH:0.419999
G1 X87.753 Y132.451 E.025
G1 X87.105 Y132.01 E.02458
G1 X86.542 Y131.468 E.02451
G1 X86.08 Y130.837 E.02452
G1 X85.733 Y130.138 E.02448
G1 X85.507 Y129.387 E.02459
G1 X85.412 Y128.599 E.02488
G1 X85.449 Y127.912 E.02159
G1 X85.524 Y127.375 E.01698
G1 X85.485 Y127.227 E.00479
G1 X85.338 Y127.157 E.00512
G1 X59.846 Y127.153 E.79928
G1 X59.846 Y92.278 E1.09349
M73 P1 R85
G1 X59.794 Y92.148 E.00439
G1 X59.658 Y92.089 E.00466
G1 X56.96 Y92.089 E.08458
G1 X56.96 Y87.911 E.131
G1 X59.658 Y87.911 E.08458
G1 X59.794 Y87.852 E.00466
G1 X59.846 Y87.722 E.00439
G1 X59.846 Y52.848 E1.09348
G1 X85.338 Y52.843 E.79928
G1 X85.469 Y52.79 E.00443
G1 X85.526 Y52.644 E.00492
G1 X85.448 Y52.133 E.01621
G1 X85.412 Y51.402 E.02293
G1 X85.507 Y50.611 E.02498
G1 X85.733 Y49.862 E.02452
G1 X86.08 Y49.163 E.02448
G1 X86.542 Y48.532 E.02453
G1 X87.105 Y47.988 E.02454
G1 X87.714 Y47.575 E.02307
G1 X88.146 Y47.365 E.01507
;WIDTH:0.422461
G1 X88.621 Y47.164 E.01628
G1 X89.364 Y46.944 E.02444
;WIDTH:0.419784
G1 X89.895 Y46.875 E.01679
;WIDTH:0.416856
G1 X90.396 Y46.911 E.01563
;WIDTH:0.428042
G1 X91.017 Y47.048 E.02037
G1 X91.523 Y47.211 E.017
;WIDTH:0.419999
G1 X92.245 Y47.549 E.02501
G1 X92.893 Y47.988 E.02453
G1 X93.456 Y48.532 E.02454
G1 X93.918 Y49.163 E.02453
G1 X94.265 Y49.862 E.02448
G1 X94.491 Y50.611 E.02452
G1 X94.586 Y51.404 E.02503
G1 X94.551 Y52.072 E.02096
G1 X94.473 Y52.623 E.01748
G1 X94.517 Y52.778 E.00505
G1 X94.659 Y52.843 E.00488
G1 X120.152 Y52.848 E.79931
G1 X120.152 Y87.722 E1.09348
G1 X120.204 Y87.852 E.00439
G1 X120.34 Y87.911 E.00466
G1 X123.04 Y87.911 E.08465
G1 X123.04 Y90 E.0655
G1 X123.04 Y92.089 E.0655
G1 X120.4 Y92.089 E.08277
M204 P1000
G1 X120.214 Y92.01 F9000
G1 E-2.24 F4200
;WIPE_START
G1 F7200
G1 X120.204 Y92.148 E-.11371
G1 X120.152 Y92.278 E-.07753
G1 X120.152 Y93.578 E-.72076
;WIPE_END
G1 E-.048 F4200
G1 Z.4 F720
G1 X88.779 Y47.61 F9000
G1 Z.2 F720
M73 P1 R84
G1 E3.2 F2400
M204 P800
;WIDTH:0.422461
G1 F1200
G1 X88.81 Y47.582 E.00131
;WIDTH:0.428205
G1 X89.101 Y47.414 E.01076
G1 X89.413 Y47.317 E.01049
;WIDTH:0.419784
G1 X89.944 Y47.246 E.01679
;WIDTH:0.416856
G1 X90.327 Y47.274 E.01192
;WIDTH:0.428465
G1 X90.884 Y47.41 E.01841
G1 X91.253 Y47.637 E.01387
;WIDTH:0.419999
G1 X91.463 Y47.838 E.00912
G1 X91.659 Y48.11 E.0105
G1 X91.798 Y48.411 E.01041
G1 X91.882 Y48.733 E.01041
G1 X91.91 Y49.068 E.01057
G1 X91.861 Y49.457 E.01229
G1 X91.635 Y50.033 E.01939
G1 X91.452 Y50.291 E.00992
G1 X91.177 Y50.55 E.01185
G1 X90.94 Y50.713 E.00901
G1 X90.637 Y50.85 E.01043
G1 X90.314 Y50.934 E.01046
G1 X89.982 Y50.959 E.01045
G1 X89.653 Y50.928 E.01036
G1 X89.331 Y50.839 E.01046
G1 X88.838 Y50.563 E.01772
G1 X88.525 Y50.265 E.01356
G1 X88.243 Y49.79 E.01733
G1 X88.115 Y49.365 E.01389
G1 X88.09 Y49.035 E.01038
G1 X88.133 Y48.659 E.01189
G1 X88.211 Y48.38 E.00906
G1 X88.358 Y48.079 E.0105
G1 X88.558 Y47.812 E.01047
;WIDTH:0.422461
G1 X88.735 Y47.65 E.00756
M204 P1000
G1 E-2.24 F4200
;WIPE_START
G1 F7200
G1 X88.81 Y47.582 E-.05617
G1 X89.101 Y47.414 E-.18616
G1 X89.413 Y47.317 E-.18141
G1 X89.944 Y47.246 E-.29688
G1 X90.289 Y47.271 E-.19139
;WIPE_END
G1 E-.048 F4200
G1 Z.4 F720
G1 X88.108 Y130.788 F9000
G1 Z.2 F720
G1 E3.2 F2400
M204 P800
;WIDTH:0.419999
G1 F1200
G1 X88.137 Y130.543 E.00774
G1 X88.337 Y130.01 E.01783
G1 X88.545 Y129.712 E.01141
G1 X88.829 Y129.444 E.01222
G1 X89.058 Y129.287 E.00871
G1 X89.376 Y129.147 E.0109
G1 X89.927 Y129.045 E.01756
G1 X90.348 Y129.072 E.01325
G1 X90.667 Y129.161 E.01038
G1 X90.969 Y129.304 E.01048
G1 X91.241 Y129.498 E.0105
G1 X91.473 Y129.736 E.01041
G1 X91.755 Y130.211 E.01731
G1 X91.883 Y130.633 E.01381
G1 X91.91 Y130.968 E.01057
G1 X91.866 Y131.34 E.01173
G1 X91.787 Y131.62 E.00911
G1 X91.641 Y131.92 E.01046
G1 X91.439 Y132.191 E.01059
;WIDTH:0.422494
G1 X91.188 Y132.418 E.0107
;WIDTH:0.428692
G1 X90.884 Y132.59 E.01118
G1 X90.326 Y132.726 E.01843
;WIDTH:0.413391
G1 X89.72 Y132.732 E.01868
;WIDTH:0.428645
G1 X89.114 Y132.59 E.01997
G1 X88.744 Y132.362 E.01392
;WIDTH:0.419999
G1 X88.534 Y132.163 E.00906
G1 X88.339 Y131.889 E.01055
G1 X88.2 Y131.589 E.01039
G1 X88.115 Y131.265 E.01047
G1 X88.09 Y130.935 E.01038
G1 X88.1 Y130.848 E.00277
M204 P1000
G1 X87.903 Y130.649 F9000
G1 E-2.24 F4200
;WIPE_START
G1 F7200
G1 X88.137 Y130.543 E-.17013
G1 X88.337 Y130.01 E-.31519
G1 X88.545 Y129.712 E-.20172
G1 X88.829 Y129.444 E-.21606
G1 X88.842 Y129.435 E-.00891
;WIPE_END
G1 E-.048 F4200
G1 Z.4 F720
G1 X118.896 Y53.337 F9000
G1 Z.2 F720
G1 E3.2 F2400
M204 P800
;TYPE:Solid infill
;WIDTH:0.421351
G1 F1200
G1 X119.492 Y53.933 E.02652
G1 X119.492 Y54.468 E.01684
G1 X118.53 Y53.507 E.04279
G1 X117.995 Y53.506 E.01685
G1 X119.492 Y55.004 E.06662
G1 X119.492 Y55.539 E.01684
G1 X117.459 Y53.506 E.09046
G1 X116.924 Y53.506 E.01685
G1 X119.492 Y56.074 E.11429
G1 X119.492 Y56.609 E.01684
G1 X116.388 Y53.506 E.13812
G1 X115.853 Y53.505 E.01685
G1 X119.492 Y57.144 E.16195
G1 X119.492 Y57.68 E.01684
G1 X115.317 Y53.505 E.18578
G1 X114.782 Y53.505 E.01685
G1 X119.492 Y58.215 E.20961
G1 X119.492 Y58.75 E.01684
G1 X114.246 Y53.504 E.23344
G1 X113.711 Y53.504 E.01685
G1 X119.492 Y59.285 E.25727
G1 X119.492 Y59.821 E.01684
G1 X113.176 Y53.504 E.2811
G1 X112.64 Y53.503 E.01685
G1 X119.492 Y60.356 E.30493
G1 X119.492 Y60.891 E.01684
G1 X112.105 Y53.503 E.32876
G1 X111.569 Y53.503 E.01685
G1 X119.492 Y61.426 E.35259
G1 X119.492 Y61.961 E.01684
G1 X111.034 Y53.503 E.37642
G1 X110.498 Y53.502 E.01685
G1 X119.492 Y62.497 E.40025
G1 X119.492 Y63.032 E.01684
G1 X109.963 Y53.502 E.42408
G1 X109.427 Y53.502 E.01685
G1 X119.492 Y63.567 E.44791
G1 X119.493 Y64.102 E.01684
G1 X108.892 Y53.501 E.47174
G1 X108.356 Y53.501 E.01685
G1 X119.493 Y64.637 E.49557
G1 X119.493 Y65.173 E.01684
G1 X107.821 Y53.501 E.5194
G1 X107.285 Y53.501 E.01685
G1 X119.493 Y65.708 E.54324
G1 X119.493 Y66.243 E.01684
G1 X106.75 Y53.5 E.56707
G1 X106.214 Y53.5 E.01685
G1 X119.493 Y66.778 E.5909
G1 X119.493 Y67.314 E.01684
G1 X105.679 Y53.5 E.61473
G1 X105.143 Y53.499 E.01685
G1 X119.493 Y67.849 E.63856
G1 X119.493 Y68.384 E.01684
G1 X104.608 Y53.499 E.66239
G1 X104.072 Y53.499 E.01685
G1 X119.493 Y68.919 E.68622
G1 X119.493 Y69.454 E.01684
G1 X103.537 Y53.498 E.71005
G1 X103.001 Y53.498 E.01685
G1 X119.493 Y69.99 E.73388
G1 X119.493 Y70.525 E.01684
G1 X102.466 Y53.498 E.75771
G1 X101.93 Y53.498 E.01685
G1 X119.493 Y71.06 E.78154
G1 X119.493 Y71.595 E.01684
G1 X101.395 Y53.497 E.80537
G1 X100.86 Y53.497 E.01685
G1 X119.493 Y72.13 E.8292
G1 X119.493 Y72.666 E.01684
G1 X100.324 Y53.497 E.85303
G1 X99.789 Y53.496 E.01685
G1 X119.493 Y73.201 E.87686
G1 X119.493 Y73.736 E.01684
G1 X99.253 Y53.496 E.90069
G1 X98.718 Y53.496 E.01685
G1 X119.493 Y74.271 E.92452
G1 X119.493 Y74.807 E.01684
G1 X98.182 Y53.496 E.94835
G1 X97.647 Y53.495 E.01685
G1 X119.493 Y75.342 E.97218
G1 X119.493 Y75.877 E.01684
G1 X97.111 Y53.495 E.99602
G1 X96.576 Y53.495 E.01685
G1 X119.493 Y76.412 E1.01985
G1 X119.493 Y76.947 E.01684
G1 X96.04 Y53.494 E1.04368
G1 X95.505 Y53.494 E.01685
M73 P2 R84
G1 X119.493 Y77.483 E1.06751
G1 X119.493 Y78.018 E.01684
G1 X94.8 Y53.324 E1.09889
M204 P1000
G1 E-2.24 F4200
;WIPE_START
G1 F7200
G1 X95.963 Y54.488 E-.912
;WIPE_END
G1 E-.048 F4200
G1 Z.4 F720
G1 X93.872 Y50.256 F9000
G1 Z.2 F720
G1 E3.2 F2400
M204 P800
G1 F1200
G1 X92.565 Y48.949 E.05816
G1 X92.527 Y49.445 E.01568
G1 X93.845 Y50.764 E.05866
G1 X93.917 Y51.371 E.01926
G1 X92.428 Y49.882 E.06629
G1 X92.266 Y50.255 E.0128
G1 X93.9 Y51.889 E.07273
G1 X93.848 Y52.372 E.01529
G1 X92.052 Y50.577 E.07992
G1 X91.956 Y50.718 E.00539
G1 X91.804 Y50.864 E.00662
G1 X119.493 Y78.553 E1.23219
G1 X119.493 Y79.088 E.01684
G1 X91.52 Y51.115 E1.24484
G1 X91.191 Y51.321 E.01221
G1 X119.493 Y79.624 E1.25946
G1 X119.494 Y80.159 E.01684
G1 X90.812 Y51.477 E1.27636
G1 X90.387 Y51.588 E.0138
G1 X119.494 Y80.694 E1.29525
G1 X119.494 Y81.229 E.01684
G1 X89.688 Y51.424 E1.32636
M204 P1000
G1 E-2.24 F4200
;WIPE_START
G1 F7200
G1 X90.852 Y52.587 E-.912
;WIPE_END
G1 E-.048 F4200
G1 Z.4 F720
G1 X87.619 Y48.819 F9000
G1 Z.2 F720
G1 E3.2 F2400
M204 P800
G1 F1200
G1 X87.411 Y48.611 E.00926
G1 X87.138 Y48.874 E.01191
G1 X87.631 Y49.366 E.02193
M204 P1000
G1 X86.774 Y49.045 F9000
M204 P800
G1 F1200
G1 X87.552 Y49.823 E.03462
G1 X87.741 Y50.274 E.01539
G1 X88.042 Y50.719 E.0169
G1 X88.398 Y51.06 E.01553
M73 P2 R83
G1 X88.717 Y51.279 E.01216
G1 X89.061 Y51.441 E.01196
G1 X89.214 Y51.484 E.005
G1 X119.494 Y81.764 E1.34747
G1 X119.494 Y82.3 E.01684
G1 X86.669 Y49.475 E1.46072
G1 X86.486 Y49.828 E.0125
G1 X119.494 Y82.835 E1.46884
G1 X119.494 Y83.37 E.01684
G1 X86.321 Y50.197 E1.47621
G1 X86.197 Y50.608 E.01351
G1 X119.494 Y83.905 E1.48173
G1 X119.494 Y84.44 E.01684
G1 X86.117 Y51.064 E1.48527
G1 X86.074 Y51.426 E.01146
G1 X86.081 Y51.563 E.00432
G1 X119.494 Y84.976 E1.4869
G1 X119.494 Y85.511 E.01684
G1 X86.115 Y52.132 E1.48538
G1 X86.186 Y52.61 E.01519
G1 X86.176 Y52.728 E.00373
G1 X119.494 Y86.046 E1.48268
G1 X119.494 Y86.581 E.01684
G1 X86.035 Y53.123 E1.48892
G1 X85.929 Y53.265 E.00559
G1 X85.763 Y53.385 E.00646
G1 X119.664 Y87.286 E1.5086
M204 P1000
G1 E-2.24 F4200
;WIPE_START
G1 F7200
G1 X118.5 Y86.123 E-.912
;WIPE_END
G1 E-.048 F4200
G1 Z.4 F720
G1 X121.849 Y88.401 F9000
G1 Z.2 F720
G1 E3.2 F2400
M204 P800
G1 F1200
G1 X122.38 Y88.932 E.02364
G1 X122.38 Y89.468 E.01684
G1 X121.483 Y88.571 E.0399
G1 X120.948 Y88.571 E.01684
