; generated by PrusaSlicer 2.5.0+win64 on 2023-03-30 at 19:18:39 UTC


;
;

;
;
; 

; external perimeters extrusion width = 0.45mm
; perimeters extrusion width = 0.45mm
; infill extrusion width = 0.45mm
; solid infill extrusion width = 0.45mm
; top infill extrusion width = 0.40mm
; first layer extrusion width = 0.42mm

; external perimeters extrusion width = 0.45mm
; perimeters extrusion width = 0.45mm
; infill extrusion width = 0.45mm
; solid infill extrusion width = 0.45mm
; top infill extrusion width = 0.40mm
; first layer extrusion width = 0.42mm

M73 P0 R106
M201 X2500 Y2500 Z400 E5000 ; sets maximum accelerations, mm/sec^2
M203 X180 Y180 Z12 E80 ; sets maximum feedrates, mm / sec
M204 P1250 R1250 T2500 ; sets acceleration (P, T) and retract acceleration (R), mm/sec^2
M205 X8.00 Y8.00 Z2.00 E10.00 ; sets the jerk limits, mm/sec
M205 S0 T0 ; sets the minimum extruding and travel feed rate, mm/sec
M107
;TYPE:Custom
M862.3 P "MINI" ; printer model check
G90 ; use absolute coordinates
M83 ; extruder relative mode
M104 S170 ; set extruder temp for bed leveling
M140 S60 ; set bed temp
M109 R170 ; wait for bed leveling temp
M190 S60 ; wait for bed temp
M204 T1250 ; set travel acceleration
G28 ; home all without mesh bed level
G29 ; mesh bed leveling 
M204 T2500 ; restore travel acceleration
M104 S215 ; set extruder temp
G92 E0
G1 Y-2 X179 F2400
G1 Z3 F720
M109 S215 ; wait for extruder temp

; intro line
G1 X170 F1000
G1 Z0.2 F720
G1 X110 E8 F900
G1 X40 E10 F700
G92 E0

M221 S95 ; set flow
G21 ; set units to millimeters
G90 ; use absolute coordinates
M83 ; use relative distances for extrusion
M900 K0.2 ; Filament gcode LA 1.5
; ; Filament gcode LA 1.0
M107
;LAYER_CHANGE
;Z:0.2
;HEIGHT:0.2
;BEFORE_LAYER_CHANGE
G92 E0.0
;0.2


M73 P0 R105
G1 E-3.2 F4200
G1 Z.2 F720
;AFTER_LAYER_CHANGE
;0.2
G1 Z.4
G1 X56.143 Y25.727 F9000
G1 Z.2 F720
G1 E3.2 F2400
M204 P800
;TYPE:Skirt/Brim
;WIDTH:0.42
G1 F1200
G1 X57.265 Y24.95 E.04278
G1 X58 Y24.833 E.02334
G1 X122 Y24.833 E2.00668
G1 X123.307 Y25.225 E.04278
G1 X124.183 Y26.271 E.04278
G1 X124.367 Y26.992 E.02334
G1 X133.868 Y130.08 E3.24594
G1 X133.704 Y131.948 E.05881
G1 X127.79 Y153.421 E.69834
G1 X127.065 Y154.577 E.04278
G1 X125.498 Y155.167 E.05248
G1 X54.498 Y155.167 E2.22616
G1 X53.191 Y154.775 E.04278
G1 X52.206 Y153.421 E.05249
G1 X46.294 Y131.948 E.69831
G1 X46.132 Y130.085 E.05866
G1 X55.633 Y26.992 E3.24609
G1 X56.12 Y25.782 E.0409
M204 P1000
; printing object Daisy 9V Battery Holder.STL id:0 copy 0
G1 E-2.24 F4200
;WIPE_START
G1 F7200
G1 X57.265 Y24.95 E-.78411
G1 X57.493 Y24.914 E-.12789
;WIPE_END
G1 E-.048 F4200
G1 Z.4 F720
G1 X130.536 Y129.176 F9000
G1 Z.2 F720
G1 E3.2 F2400
M204 P800
;TYPE:Perimeter
;WIDTH:0.491286
G1 F1200
G1 X130.44 Y129.051 E.00588
;WIDTH:0.46203
G1 X130.04 Y128.608 E.0208
;WIDTH:0.419999
G1 X129.681 Y128.334 E.01415
G1 X129.327 Y128.16 E.01238
G1 X128.88 Y128.035 E.01457
G1 X128.364 Y128.014 E.01618
G1 X127.808 Y128.116 E.01774
G1 X127.401 Y128.285 E.0138
G1 X127.138 Y128.459 E.00989
G1 X126.78 Y128.784 E.01517
G1 X126.546 Y129.101 E.01237
G1 X126.368 Y129.464 E.01267
G1 X126.257 Y129.844 E.01239
G1 X126.214 Y130.242 E.01255
G1 X126.239 Y130.637 E.01243
G1 X126.335 Y131.027 E.01257
G1 X126.494 Y131.39 E.01244
G1 X126.718 Y131.723 E.0126
G1 X126.993 Y132.009 E.01242
G1 X127.31 Y132.244 E.01237
G1 X127.673 Y132.422 E.01267
G1 X128.051 Y132.532 E.01236
G1 X128.446 Y132.577 E.01245
G1 X128.947 Y132.532 E.01576
G1 X129.502 Y132.339 E.01845
G1 X129.93 Y132.074 E.01576
G1 X130.099 Y131.903 E.00754
;WIDTH:0.455811
G1 X130.317 Y131.655 E.01135
;WIDTH:0.491622
G1 X130.536 Y131.407 E.01233
G1 X130.508 Y131.566 E.006
;WIDTH:0.462582
G1 X130.394 Y132.073 E.01817
;WIDTH:0.419999
G1 X130.012 Y132.894 E.02839
G1 X129.489 Y133.639 E.02853
G1 X128.848 Y134.281 E.02843
G1 X128.103 Y134.803 E.02853
G1 X127.282 Y135.185 E.02839
G1 X126.402 Y135.422 E.02856
G1 X125.173 Y135.533 E.0387
G1 X124.941 Y135.633 E.00792
G1 X124.782 Y135.814 E.00756
G1 X124.711 Y136.089 E.00889
G1 X124.711 Y152.002 E.49896
G1 X55.285 Y152.002 E2.17679
G1 X55.284 Y136.061 E.49984
G1 X55.209 Y135.806 E.00832
G1 X55.011 Y135.604 E.00889
G1 X54.769 Y135.525 E.00796
G1 X53.596 Y135.422 E.03694
G1 X52.716 Y135.185 E.02856
G1 X51.895 Y134.803 E.02839
G1 X51.15 Y134.281 E.02853
G1 X50.509 Y133.639 E.02843
G1 X50.117 Y133.081 E.02138
G1 X49.863 Y132.629 E.01628
G1 X49.601 Y132.059 E.01967
;WIDTH:0.455815
G1 X49.531 Y131.733 E.01144
;WIDTH:0.49163
G1 X49.462 Y131.407 E.01243
G1 X49.558 Y131.53 E.00582
;WIDTH:0.462587
G1 X49.958 Y131.973 E.02083
;WIDTH:0.419999
G1 X50.317 Y132.247 E.01415
G1 X50.671 Y132.421 E.01238
G1 X51.147 Y132.55 E.01547
G1 X51.689 Y132.565 E.01698
G1 X52.203 Y132.463 E.01644
G1 X52.597 Y132.296 E.01342
G1 X52.86 Y132.122 E.0099
G1 X53.218 Y131.797 E.01516
G1 X53.452 Y131.48 E.01237
G1 X53.63 Y131.117 E.01267
G1 X53.741 Y130.737 E.01239
G1 X53.784 Y130.337 E.01263
G1 X53.759 Y129.943 E.01236
G1 X53.663 Y129.554 E.01256
G1 X53.504 Y129.191 E.01244
G1 X53.28 Y128.858 E.0126
G1 X53.005 Y128.572 E.01242
G1 X52.688 Y128.337 E.01237
G1 X52.325 Y128.159 E.01267
G1 X51.946 Y128.049 E.01237
G1 X51.367 Y128.014 E.01822
G1 X50.808 Y128.116 E.01782
G1 X50.496 Y128.242 E.01054
G1 X50.068 Y128.507 E.01576
G1 X49.899 Y128.678 E.00754
;WIDTH:0.455643
G1 X49.68 Y128.927 E.01138
;WIDTH:0.491286
G1 X49.462 Y129.176 E.01236
G1 X49.49 Y129.015 E.00607
;WIDTH:0.462031
G1 X49.604 Y128.508 E.01814
;WIDTH:0.419999
G1 X49.986 Y127.687 E.02839
G1 X50.509 Y126.942 E.02853
G1 X51.15 Y126.3 E.02843
G1 X51.895 Y125.778 E.02853
G1 X52.716 Y125.396 E.02839
G1 X53.596 Y125.159 E.02856
G1 X54.823 Y125.048 E.03865
G1 X55.055 Y124.948 E.00792
G1 X55.214 Y124.766 E.00756
G1 X55.285 Y124.492 E.00888
G1 X55.285 Y108.579 E.49896
G1 X124.711 Y108.579 E2.17679
G1 X124.712 Y124.52 E.49984
G1 X124.787 Y124.775 E.00833
G1 X124.986 Y124.977 E.00889
G1 X125.227 Y125.056 E.00795
G1 X126.402 Y125.159 E.037
G1 X127.282 Y125.396 E.02856
G1 X128.103 Y125.778 E.02839
G1 X128.848 Y126.3 E.02853
G1 X129.489 Y126.942 E.02843
G1 X129.881 Y127.5 E.02138
G1 X130.135 Y127.952 E.01628
G1 X130.397 Y128.522 E.01967
;WIDTH:0.455643
G1 X130.467 Y128.849 E.01147
;WIDTH:0.491286
G1 X130.524 Y129.117 E.01022
M204 P1000
G1 E-2.24 F4200
;WIPE_START
G1 F7200
G1 X130.44 Y129.051 E-.05923
G1 X130.04 Y128.608 E-.33076
G1 X129.681 Y128.334 E-.25008
G1 X129.327 Y128.16 E-.21875
G1 X129.235 Y128.134 E-.05318
;WIPE_END
G1 E-.048 F4200
G1 Z.4 F720
G1 X54.736 Y135.901 F9000
G1 Z.2 F720
G1 E3.2 F2400
M204 P800
;TYPE:External perimeter
;WIDTH:0.419999
G1 F1200
G1 X53.53 Y135.794 E.03797
G1 X52.587 Y135.541 E.03062
G1 X51.706 Y135.131 E.03046
G1 X50.907 Y134.57 E.03061
G1 X50.219 Y133.883 E.03049
G1 X49.658 Y133.084 E.03061
G1 X49.249 Y132.203 E.03046
G1 X48.995 Y131.26 E.03061
;WIDTH:0.457909
G1 X49.003 Y131.133 E.0044
;WIDTH:0.495818
G1 X49.011 Y131.006 E.0048
;WIDTH:0.533727
G1 X49.019 Y130.879 E.0052
;WIDTH:0.571636
G1 X49.028 Y130.752 E.0056
G1 X48.991 Y130.357 E.01741
;WIDTH:0.572624
G1 X49.028 Y129.829 E.0233
G1 X49.02 Y129.702 E.00561
;WIDTH:0.534468
G1 X49.012 Y129.575 E.00521
;WIDTH:0.496312
G1 X49.003 Y129.448 E.0048
;WIDTH:0.458156
G1 X48.995 Y129.321 E.0044
;WIDTH:0.419999
G1 X49.249 Y128.378 E.03061
G1 X49.658 Y127.497 E.03046
G1 X50.219 Y126.698 E.03061
G1 X50.907 Y126.011 E.03049
G1 X51.706 Y125.45 E.03061
G1 X52.587 Y125.04 E.03046
G1 X53.53 Y124.787 E.03062
G1 X54.736 Y124.68 E.03797
G1 X54.842 Y124.635 E.00362
G1 X54.908 Y124.492 E.00493
G1 X54.908 Y108.201 E.51078
G1 X125.088 Y108.201 E2.20044
G1 X125.088 Y124.492 E.51078
G1 X125.12 Y124.597 E.00344
G1 X125.26 Y124.68 E.0051
G1 X126.468 Y124.787 E.03803
G1 X127.411 Y125.04 E.03062
G1 X128.292 Y125.45 E.03046
G1 X129.091 Y126.011 E.03061
G1 X129.779 Y126.698 E.03049
G1 X130.3 Y127.441 E.02847
G1 X130.762 Y128.424 E.03404
G1 X131.006 Y129.356 E.03019
G1 X131.088 Y130.29 E.0294
G1 X131.003 Y131.26 E.03054
G1 X130.749 Y132.203 E.03062
G1 X130.34 Y133.084 E.03046
G1 X129.779 Y133.883 E.03061
G1 X129.091 Y134.57 E.03049
G1 X128.292 Y135.131 E.03061
G1 X127.411 Y135.541 E.03046
G1 X126.468 Y135.794 E.03062
G1 X125.26 Y135.901 E.03803
G1 X125.154 Y135.946 E.00362
G1 X125.088 Y136.089 E.00493
G1 X125.088 Y152.38 E.51078
G1 X54.908 Y152.38 E2.20044
G1 X54.908 Y136.089 E.51078
G1 X54.876 Y135.984 E.00344
G1 X54.788 Y135.932 E.00322
M204 P1000
G1 X54.661 Y135.508 F9000
G1 E-2.24 F4200
;WIPE_START
G1 F7200
G1 X53.53 Y135.794 E-.70121
G1 X53.162 Y135.696 E-.21079
;WIPE_END
G1 E-.048 F4200
G1 Z.4 F720
G1 X130.299 Y129.653 F9000
M73 P1 R105
G1 Z.2 F720
G1 E3.2 F2400
M204 P800
G1 F1200
G1 X130.383 Y129.973 E.01038
G1 X130.41 Y130.306 E.01048
G1 X130.377 Y130.64 E.01052
G1 X130.257 Y131.026 E.01267
G1 X130.135 Y131.274 E.00867
G1 X129.752 Y131.731 E.0187
G1 X129.343 Y131.997 E.01529
G1 X128.848 Y132.168 E.01641
G1 X128.344 Y132.189 E.01583
G1 X127.831 Y132.08 E.01645
G1 X127.356 Y131.814 E.01706
G1 X127.026 Y131.506 E.01416
G1 X126.836 Y131.232 E.01045
G1 X126.699 Y130.928 E.01044
G1 X126.615 Y130.606 E.01046
G1 X126.59 Y130.274 E.01044
G1 X126.621 Y129.942 E.01044
G1 X126.71 Y129.623 E.01039
G1 X126.854 Y129.319 E.01052
G1 X127.047 Y129.051 E.01037
G1 X127.356 Y128.767 E.01316
G1 X127.831 Y128.501 E.01706
G1 X128.432 Y128.385 E.01921
G1 X128.848 Y128.413 E.01306
G1 X129.343 Y128.584 E.01642
G1 X129.752 Y128.85 E.01529
G1 X130.135 Y129.307 E.0187
G1 X130.273 Y129.598 E.01011
M204 P1000
G1 X130.626 Y129.703 F9000
G1 X130.536 Y129.176
M204 P800
;TYPE:Perimeter
;WIDTH:0.491286
G1 F1200
G1 X130.595 Y129.366 E.00743
;WIDTH:0.446512
G1 X130.654 Y129.557 E.00669
;WIDTH:0.401738
G1 X130.7 Y129.899 E.0103
;WIDTH:0.370835
G1 X130.746 Y130.241 E.00941
G1 X130.7 Y130.633 E.01075
;WIDTH:0.401694
G1 X130.654 Y131.024 E.01176
;WIDTH:0.446658
G1 X130.595 Y131.216 E.00672
;WIDTH:0.491622
G1 X130.536 Y131.407 E.00747
M204 P1000
G1 E-2.24 F4200
;WIPE_START
G1 F7200
G1 X130.595 Y131.216 E-.111
G1 X130.654 Y131.024 E-.111
G1 X130.7 Y130.633 E-.21849
G1 X130.746 Y130.241 E-.21849
G1 X130.7 Y129.899 E-.19133
G1 X130.685 Y129.789 E-.06169
;WIPE_END
G1 E-.048 F4200
G1 Z.4 F720
G1 X49.548 Y129.921 F9000
G1 Z.2 F720
G1 E3.2 F2400
M204 P800
;TYPE:External perimeter
;WIDTH:0.572624
G1 F1200
G1 X49.62 Y129.778 E.00706
;WIDTH:0.534468
G1 X49.692 Y129.635 E.00655
;WIDTH:0.496312
G1 X49.764 Y129.492 E.00604
;WIDTH:0.458156
G1 X49.836 Y129.349 E.00553
;WIDTH:0.419999
G1 X50.188 Y128.92 E.01739
G1 X50.532 Y128.644 E.01383
G1 X50.876 Y128.487 E.01185
G1 X51.435 Y128.385 E.01782
G1 X51.848 Y128.413 E.013
G1 X52.167 Y128.501 E.01037
G1 X52.642 Y128.767 E.01707
G1 X52.972 Y129.075 E.01415
M73 P1 R104
G1 X53.162 Y129.349 E.01045
G1 X53.299 Y129.653 E.01044
G1 X53.383 Y129.975 E.01045
G1 X53.408 Y130.3 E.01023
G1 X53.377 Y130.639 E.01066
G1 X53.288 Y130.958 E.0104
G1 X53.144 Y131.262 E.01052
G1 X52.951 Y131.53 E.01037
G1 X52.642 Y131.814 E.01316
G1 X52.167 Y132.08 E.01707
G1 X51.654 Y132.189 E.01645
G1 X51.15 Y132.168 E.01583
G1 X50.655 Y131.997 E.01641
G1 X50.246 Y131.731 E.01529
G1 X49.863 Y131.274 E.0187
;WIDTH:0.457909
G1 X49.784 Y131.12 E.00596
;WIDTH:0.495818
G1 X49.706 Y130.967 E.0065
;WIDTH:0.533727
G1 X49.627 Y130.813 E.00704
;WIDTH:0.571636
G1 X49.548 Y130.66 E.00759
G1 X49.514 Y130.265 E.0174
;WIDTH:0.572624
G1 X49.542 Y129.981 E.01258
M204 P1000
G1 X49.462 Y131.407 F9000
M204 P800
;TYPE:Perimeter
;WIDTH:0.49163
G1 F1200
G1 X49.384 Y131.192 E.00855
M204 P1000
G1 E-2.24 F4200
;WIPE_START
G1 F7200
G1 X49.462 Y131.407 E-.12695
;WIPE_END
G1 E-.83305 F4200
G1 Z.4 F720
G1 X49.384 Y129.389 F9000
G1 Z.2 F720
G1 E3.2 F2400
M204 P800
;WIDTH:0.491286
G1 F1200
G1 X49.462 Y129.176 E.00847
M204 P1000
G1 E-2.24 F4200
;WIPE_START
G1 F7200
G1 X49.384 Y129.389 E-.1259
;WIPE_END
G1 E-.8341 F4200
G1 Z.4 F720
G1 X129.428 Y132.497 F9000
G1 Z.2 F720
G1 E3.2 F2400
M204 P800
;TYPE:Solid infill
;WIDTH:0.421635
G1 F1200
G1 X129.732 Y132.801 E.01354
G1 X129.511 Y133.116 E.01211
G1 X129.156 Y132.761 E.01582
G1 X128.923 Y132.826 E.00761
G1 X128.7 Y132.841 E.00702
G1 X129.29 Y133.431 E.02626
G1 X129.026 Y133.702 E.01193
G1 X127.941 Y132.618 E.04831
M204 P1000
G1 E-2.24 F4200
;WIPE_START
G1 F7200
G1 X129.026 Y133.702 E-.8501
G1 X129.104 Y133.622 E-.0619
;WIPE_END
G1 E-.048 F4200
G1 Z.4 F720
G1 X129.993 Y128.242 F9000
G1 Z.2 F720
G1 E3.2 F2400
M204 P800
G1 F1200
G1 X127.612 Y125.861 E.10601
G1 X127.185 Y125.663 E.01484
G1 X126.765 Y125.55 E.01369
G1 X128.989 Y127.773 E.09902
G1 X128.524 Y127.723 E.01472
G1 X128.409 Y127.73 E.00361
G1 X126.096 Y125.416 E.10302
G1 X125.508 Y125.364 E.01857
G1 X128.093 Y127.949 E.11509
M204 P1000
G1 E-2.24 F4200
;WIPE_START
G1 F7200
G1 X126.929 Y126.785 E-.912
;WIPE_END
G1 E-.048 F4200
G1 Z.4 F720
G1 X124.598 Y109.457 F9000
G1 Z.2 F720
G1 E3.2 F2400
M204 P800
G1 F1200
G1 X124.002 Y108.861 E.02654
G1 X123.466 Y108.861 E.01687
G1 X124.428 Y109.823 E.04284
G1 X124.428 Y110.359 E.01687
G1 X122.931 Y108.861 E.06669
G1 X122.395 Y108.861 E.01687
G1 X124.428 Y110.894 E.09054
G1 X124.428 Y111.43 E.01687
G1 X121.859 Y108.861 E.11439
G1 X121.324 Y108.861 E.01687
G1 X124.428 Y111.966 E.13825
G1 X124.428 Y112.501 E.01687
G1 X120.788 Y108.861 E.1621
G1 X120.253 Y108.861 E.01687
G1 X124.428 Y113.037 E.18595
G1 X124.428 Y113.572 E.01687
G1 X119.717 Y108.861 E.2098
G1 X119.182 Y108.861 E.01687
G1 X124.428 Y114.108 E.23365
G1 X124.428 Y114.644 E.01687
G1 X118.646 Y108.861 E.2575
G1 X118.11 Y108.861 E.01687
G1 X124.428 Y115.179 E.28136
G1 X124.428 Y115.715 E.01687
G1 X117.575 Y108.861 E.30521
G1 X117.039 Y108.861 E.01687
G1 X124.428 Y116.25 E.32906
G1 X124.428 Y116.786 E.01687
G1 X116.504 Y108.861 E.35291
G1 X115.968 Y108.861 E.01687
G1 X124.428 Y117.322 E.37676
G1 X124.428 Y117.857 E.01687
G1 X115.432 Y108.861 E.40061
G1 X114.897 Y108.861 E.01687
G1 X124.428 Y118.393 E.42447
G1 X124.428 Y118.928 E.01687
G1 X114.361 Y108.861 E.44832
G1 X113.826 Y108.861 E.01687
G1 X124.428 Y119.464 E.47217
G1 X124.428 Y119.999 E.01687
G1 X113.29 Y108.861 E.49602
G1 X112.754 Y108.861 E.01687
G1 X124.428 Y120.535 E.51987
G1 X124.428 Y121.071 E.01687
G1 X112.219 Y108.861 E.54372
G1 X111.683 Y108.861 E.01687
G1 X124.428 Y121.606 E.56758
G1 X124.428 Y122.142 E.01687
G1 X111.148 Y108.861 E.59143
G1 X110.612 Y108.861 E.01687
G1 X124.428 Y122.677 E.61528
G1 X124.428 Y123.213 E.01687
G1 X110.077 Y108.861 E.63913
G1 X109.541 Y108.861 E.01687
G1 X124.428 Y123.749 E.66298
G1 X124.428 Y124.284 E.01687
G1 X109.005 Y108.861 E.68683
G1 X108.47 Y108.861 E.01687
G1 X127.525 Y127.917 E.84861
G1 X127.168 Y128.095 E.01258
G1 X107.934 Y108.861 E.85654
G1 X107.399 Y108.861 E.01687
G1 X126.859 Y128.321 E.86663
G1 X126.584 Y128.583 E.01193
G1 X106.863 Y108.861 E.87826
G1 X106.327 Y108.861 E.01687
G1 X126.355 Y128.888 E.89188
G1 X126.27 Y129.008 E.00461
G1 X126.165 Y129.235 E.00787
G1 X105.792 Y108.861 E.90732
G1 X105.256 Y108.861 E.01687
G1 X126.028 Y129.633 E.92503
G1 X125.958 Y129.913 E.00908
G1 X125.946 Y130.086 E.00549
G1 X104.721 Y108.861 E.94524
G1 X104.185 Y108.861 E.01687
G1 X126.17 Y130.846 E.97905
M204 P1000
G1 E-2.24 F4200
;WIPE_START
G1 F7200
G1 X125.006 Y129.682 E-.912
;WIPE_END
G1 E-.048 F4200
G1 Z.4 F720
G1 X128.878 Y134.09 F9000
G1 Z.2 F720
G1 E3.2 F2400
M204 P800
G1 F1200
G1 X103.65 Y108.861 E1.12354
G1 X103.114 Y108.861 E.01687
G1 X128.46 Y134.207 E1.12875
G1 X128.145 Y134.428 E.01211
G1 X102.578 Y108.861 E1.13859
G1 X102.043 Y108.861 E.01687
G1 X127.809 Y134.628 E1.14748
G1 X127.444 Y134.798 E.0127
G1 X101.507 Y108.861 E1.15506
G1 X100.972 Y108.861 E.01687
G1 X127.062 Y134.951 E1.16189
G1 X126.64 Y135.065 E.01376
G1 X100.436 Y108.861 E1.16695
G1 X99.9 Y108.861 E.01687
G1 X126.195 Y135.156 E1.171
G1 X125.703 Y135.199 E.01556
G1 X99.365 Y108.861 E1.17294
G1 X98.829 Y108.861 E.01687
G1 X125.211 Y135.243 E1.17487
G1 X124.963 Y135.299 E.008
G1 X124.814 Y135.382 E.00536
G1 X98.294 Y108.861 E1.18107
G1 X97.758 Y108.861 E.01687
G1 X124.551 Y135.654 E1.19318
G1 X124.461 Y135.853 E.00688
G1 X124.43 Y136.069 E.00687
G1 X97.223 Y108.861 E1.21166
G1 X96.687 Y108.861 E.01687
G1 X124.428 Y136.603 E1.23542
G1 X124.428 Y137.138 E.01687
M73 P2 R103
G1 X96.151 Y108.861 E1.25928
