; generated by PrusaSlicer 2.5.0+win64 on 2023-03-21 at 19:11:22 UTC


;
;

;
;
; 

; external perimeters extrusion width = 0.45mm
; perimeters extrusion width = 0.45mm
; infill extrusion width = 0.45mm
; solid infill extrusion width = 0.45mm
; top infill extrusion width = 0.40mm
; first layer extrusion width = 0.42mm

M73 P0 R79
M201 X2500 Y2500 Z400 E5000 ; sets maximum accelerations, mm/sec^2
M203 X180 Y180 Z12 E80 ; sets maximum feedrates, mm / sec
M204 P1250 R1250 T2500 ; sets acceleration (P, T) and retract acceleration (R), mm/sec^2
M205 X8.00 Y8.00 Z2.00 E10.00 ; sets the jerk limits, mm/sec
M205 S0 T0 ; sets the minimum extruding and travel feed rate, mm/sec
M107
;TYPE:Custom
M862.3 P "MINI" ; printer model check
G90 ; use absolute coordinates
M83 ; extruder relative mode
M104 S170 ; set extruder temp for bed leveling
M140 S60 ; set bed temp
M109 R170 ; wait for bed leveling temp
M190 S60 ; wait for bed temp
M204 T1250 ; set travel acceleration
G28 ; home all without mesh bed level
G29 ; mesh bed leveling 
M204 T2500 ; restore travel acceleration
M104 S215 ; set extruder temp
G92 E0
G1 Y-2 X179 F2400
G1 Z3 F720
M109 S215 ; wait for extruder temp

; intro line
G1 X170 F1000
G1 Z0.2 F720
G1 X110 E8 F900
G1 X40 E10 F700
G92 E0

M221 S95 ; set flow
G21 ; set units to millimeters
G90 ; use absolute coordinates
M83 ; use relative distances for extrusion
M900 K0.2 ; Filament gcode LA 1.5
; ; Filament gcode LA 1.0
M107
;LAYER_CHANGE
;Z:0.2
;HEIGHT:0.2
;BEFORE_LAYER_CHANGE
G92 E0.0
;0.2


G1 E-3.2 F4200
G1 Z.2 F720
;AFTER_LAYER_CHANGE
;0.2
G1 Z.4
G1 X54.015 Y41.693 F9000
G1 Z.2 F720
G1 E3.2 F2400
M204 P800
;TYPE:Skirt/Brim
;WIDTH:0.42
G1 F1200
G1 X55.06 Y40.817 E.04278
G1 X56 Y40.623 E.03008
G1 X124 Y40.623 E2.13209
G1 X125.307 Y41.015 E.04278
G1 X126.183 Y42.06 E.04278
G1 X126.377 Y43 E.03008
G1 X126.377 Y137 E2.9473
G1 X125.985 Y138.307 E.04278
G1 X124.94 Y139.183 E.04278
G1 X124 Y139.377 E.03008
G1 X56 Y139.377 E2.13209
G1 X54.693 Y138.985 E.04278
G1 X53.817 Y137.94 E.04278
G1 X53.623 Y137 E.03008
G1 X53.623 Y43 E2.9473
G1 X53.997 Y41.75 E.0409
M204 P1000
; printing object Lily Battery holder.STL id:0 copy 0
G1 E-2.24 F4200
;WIPE_START
G1 F7200
G1 X55.06 Y40.817 E-.78411
G1 X55.286 Y40.77 E-.12789
;WIPE_END
G1 E-.048 F4200
G1 Z.4 F720
G1 X123.24 Y91.852 F9000
G1 Z.2 F720
G1 E3.2 F2400
M204 P800
;TYPE:Perimeter
;WIDTH:0.419999
G1 F1200
G1 X123.213 Y93 E.03598
G1 X123.213 Y136.213 E1.35492
G1 X56.787 Y136.213 E2.08273
G1 X56.787 Y93 E1.35492
G1 X56.74 Y91.863 E.03567
G1 X57.132 Y92.09 E.0142
G1 X57.53 Y92.23 E.01324
G1 X57.944 Y92.284 E.01308
G1 X58.346 Y92.26 E.01263
G1 X58.735 Y92.165 E.01256
G1 X59.1 Y92.004 E.0125
G1 X59.432 Y91.783 E.0125
G1 X59.719 Y91.507 E.0125
G1 X59.955 Y91.186 E.0125
G1 X60.131 Y90.828 E.0125
G1 X60.251 Y90.41 E.01363
G1 X60.279 Y89.902 E.01597
G1 X60.175 Y89.313 E.01875
G1 X60.004 Y88.9 E.01401
G1 X59.783 Y88.568 E.0125
G1 X59.507 Y88.281 E.0125
G1 X59.186 Y88.045 E.0125
G1 X58.828 Y87.869 E.0125
G1 X58.294 Y87.738 E.01723
G1 X57.614 Y87.75 E.02134
G1 X57.132 Y87.91 E.01593
G1 X56.733 Y88.174 E.01498
G1 X56.754 Y88.02 E.00487
G1 X56.787 Y87 E.032
G1 X56.787 Y43.787 E1.35492
G1 X123.213 Y43.787 E2.08273
M73 P0 R78
G1 X123.213 Y86.243 E1.33118
M73 P1 R78
G1 X123.219 Y87.532 E.0404
G1 X123.267 Y88.174 E.0202
G1 X123.21 Y88.12 E.00245
G1 X122.773 Y87.866 E.01586
G1 X122.303 Y87.743 E.01521
G1 X121.706 Y87.738 E.01874
G1 X121.265 Y87.835 E.01415
G1 X120.9 Y87.996 E.0125
G1 X120.568 Y88.217 E.0125
G1 X120.281 Y88.493 E.0125
G1 X120.045 Y88.814 E.0125
G1 X119.869 Y89.172 E.0125
G1 X119.758 Y89.555 E.0125
G1 X119.714 Y89.951 E.0125
G1 X119.74 Y90.348 E.0125
G1 X119.835 Y90.735 E.0125
G1 X119.996 Y91.1 E.0125
G1 X120.217 Y91.432 E.0125
G1 X120.493 Y91.719 E.0125
G1 X120.814 Y91.955 E.0125
G1 X121.172 Y92.131 E.0125
G1 X121.555 Y92.242 E.0125
G1 X121.953 Y92.285 E.01256
G1 X122.386 Y92.25 E.01362
G1 X122.868 Y92.09 E.01593
G1 X123.189 Y91.885 E.01194
M204 P1000
G1 E-2.24 F4200
;WIPE_START
G1 F7200
G1 X123.213 Y93 E-.618
G1 X123.213 Y93.53 E-.294
;WIPE_END
G1 E-.048 F4200
G1 Z.4 F720
G1 X123.748 Y90.04 F9000
G1 Z.2 F720
G1 E3.2 F2400
M204 P800
;TYPE:External perimeter
;WIDTH:0.503333
G1 F1200
G1 X123.769 Y90.511 E.01806
;WIDTH:0.461666
G1 X123.79 Y90.983 E.01643
;WIDTH:0.419999
G1 X123.681 Y91.635 E.02073
G1 X123.612 Y92.321 E.02163
G1 X123.59 Y93 E.02129
G1 X123.59 Y136.59 E1.36674
G1 X56.41 Y136.59 E2.10638
G1 X56.41 Y93.031 E1.36575
G1 X56.375 Y91.967 E.0334
G1 X56.212 Y90.997 E.03082
G1 X56.21 Y90.569 E.01343
;WIDTH:0.461666
G1 X56.231 Y90.304 E.00924
;WIDTH:0.503333
G1 X56.252 Y90.04 E.01016
G1 X56.328 Y90.324 E.01126
;WIDTH:0.461666
G1 X56.403 Y90.609 E.01024
;WIDTH:0.419999
G1 X56.783 Y91.331 E.02559
G1 X57.026 Y91.585 E.01102
G1 X57.321 Y91.764 E.01082
G1 X57.644 Y91.871 E.01067
G1 X57.981 Y91.908 E.01063
G1 X58.315 Y91.884 E.01048
G1 X58.638 Y91.801 E.01046
G1 X58.941 Y91.662 E.01044
G1 X59.215 Y91.474 E.01044
G1 X59.453 Y91.24 E.01044
G1 X59.646 Y90.969 E.01044
G1 X59.789 Y90.669 E.01044
G1 X59.878 Y90.348 E.01044
G1 X59.908 Y89.967 E.01198
G1 X59.804 Y89.378 E.01875
G1 X59.662 Y89.059 E.01094
G1 X59.474 Y88.785 E.01044
G1 X59.24 Y88.547 E.01044
G1 X58.969 Y88.354 E.01044
G1 X58.669 Y88.211 E.01044
G1 X58.297 Y88.115 E.01202
G1 X57.7 Y88.12 E.01874
G1 X57.359 Y88.22 E.01113
G1 X57.064 Y88.386 E.0106
G1 X56.783 Y88.669 E.01251
G1 X56.385 Y89.446 E.02739
;WIDTH:0.461709
G1 X56.318 Y89.703 E.00924
;WIDTH:0.503418
G1 X56.252 Y89.96 E.01016
G1 X56.231 Y89.489 E.01806
;WIDTH:0.461709
G1 X56.21 Y89.017 E.01643
;WIDTH:0.419999
G1 X56.319 Y88.365 E.02073
G1 X56.388 Y87.679 E.02162
G1 X56.41 Y87 E.02129
G1 X56.41 Y43.41 E1.36674
G1 X123.59 Y43.41 E2.10638
G1 X123.59 Y86.5 E1.35105
G1 X123.621 Y87.966 E.04599
G1 X123.79 Y89.032 E.03384
G1 X123.79 Y89.431 E.0125
;WIDTH:0.46171
G1 X123.769 Y89.696 E.00924
;WIDTH:0.50342
G1 X123.748 Y89.96 E.01016
G1 X123.672 Y89.676 E.01127
;WIDTH:0.46171
G1 X123.597 Y89.391 E.01025
;WIDTH:0.419999
G1 X123.217 Y88.669 E.02559
G1 X122.974 Y88.415 E.01102
G1 X122.679 Y88.236 E.01082
G1 X122.3 Y88.12 E.01242
G1 X121.703 Y88.116 E.01874
G1 X121.362 Y88.199 E.01099
G1 X121.059 Y88.338 E.01044
G1 X120.785 Y88.526 E.01044
G1 X120.547 Y88.76 E.01044
G1 X120.354 Y89.031 E.01044
G1 X120.211 Y89.331 E.01044
G1 X120.122 Y89.652 E.01044
G1 X120.09 Y89.984 E.01044
G1 X120.116 Y90.316 E.01044
G1 X120.199 Y90.638 E.01044
G1 X120.338 Y90.941 E.01044
G1 X120.526 Y91.215 E.01044
G1 X120.76 Y91.453 E.01044
G1 X121.031 Y91.646 E.01044
G1 X121.331 Y91.789 E.01044
G1 X121.652 Y91.878 E.01044
G1 X121.985 Y91.909 E.01046
G1 X122.318 Y91.879 E.01048
G1 X122.641 Y91.78 E.01061
G1 X122.936 Y91.614 E.0106
G1 X123.217 Y91.331 E.01251
G1 X123.615 Y90.554 E.02739
;WIDTH:0.461666
G1 X123.682 Y90.297 E.00924
;WIDTH:0.503333
G1 X123.733 Y90.098 E.00786
M204 P1000
G1 E-2.24 F4200
;WIPE_START
G1 F7200
G1 X123.769 Y90.511 E-.22984
G1 X123.79 Y90.983 E-.26142
G1 X123.681 Y91.635 E-.36642
G1 X123.671 Y91.732 E-.05433
;WIPE_END
G1 E-.048 F4200
G1 Z.4 F720
G1 X122.337 Y43.9 F9000
G1 Z.2 F720
G1 E3.2 F2400
M204 P800
;TYPE:Solid infill
;WIDTH:0.420221
G1 F1200
G1 X122.93 Y44.493 E.02631
G1 X122.93 Y45.027 E.01674
G1 X121.973 Y44.07 E.04246
G1 X121.44 Y44.07 E.01674
G1 X122.93 Y45.56 E.06613
G1 X122.93 Y46.094 E.01674
G1 X120.906 Y44.07 E.08981
G1 X120.372 Y44.07 E.01674
G1 X122.93 Y46.628 E.11348
G1 X122.93 Y47.161 E.01674
G1 X119.839 Y44.07 E.13715
G1 X119.305 Y44.07 E.01674
G1 X122.93 Y47.695 E.16083
G1 X122.93 Y48.228 E.01674
G1 X118.772 Y44.07 E.1845
G1 X118.238 Y44.07 E.01674
G1 X122.93 Y48.762 E.20818
G1 X122.93 Y49.296 E.01674
G1 X117.704 Y44.07 E.23185
G1 X117.171 Y44.07 E.01674
G1 X122.93 Y49.829 E.25552
G1 X122.93 Y50.363 E.01674
G1 X116.637 Y44.07 E.2792
G1 X116.104 Y44.07 E.01674
G1 X122.93 Y50.896 E.30287
G1 X122.93 Y51.43 E.01674
G1 X115.57 Y44.07 E.32654
G1 X115.037 Y44.07 E.01674
G1 X122.93 Y51.963 E.35022
G1 X122.93 Y52.497 E.01674
G1 X114.503 Y44.07 E.37389
G1 X113.969 Y44.07 E.01674
G1 X122.93 Y53.031 E.39757
G1 X122.93 Y53.564 E.01674
G1 X113.436 Y44.07 E.42124
G1 X112.902 Y44.07 E.01674
G1 X122.93 Y54.098 E.44491
G1 X122.93 Y54.631 E.01674
G1 X112.369 Y44.07 E.46859
G1 X111.835 Y44.07 E.01674
G1 X122.93 Y55.165 E.49226
G1 X122.93 Y55.699 E.01674
G1 X111.301 Y44.07 E.51594
G1 X110.768 Y44.07 E.01674
G1 X122.93 Y56.232 E.53961
G1 X122.93 Y56.766 E.01674
G1 X110.234 Y44.07 E.56328
G1 X109.701 Y44.07 E.01674
G1 X122.93 Y57.299 E.58696
G1 X122.93 Y57.833 E.01674
G1 X109.167 Y44.07 E.61063
G1 X108.634 Y44.07 E.01674
G1 X122.93 Y58.366 E.63431
G1 X122.93 Y58.9 E.01674
G1 X108.1 Y44.07 E.65798
G1 X107.566 Y44.07 E.01674
G1 X122.93 Y59.434 E.68165
G1 X122.93 Y59.967 E.01674
G1 X107.033 Y44.07 E.70533
G1 X106.499 Y44.07 E.01674
G1 X122.93 Y60.501 E.729
G1 X122.93 Y61.034 E.01674
G1 X105.966 Y44.07 E.75268
G1 X105.432 Y44.07 E.01674
G1 X122.93 Y61.568 E.77635
G1 X122.93 Y62.102 E.01674
G1 X104.898 Y44.07 E.80002
G1 X104.365 Y44.07 E.01674
G1 X122.93 Y62.635 E.8237
G1 X122.93 Y63.169 E.01674
G1 X103.831 Y44.07 E.84737
G1 X103.298 Y44.07 E.01674
G1 X122.93 Y63.702 E.87104
G1 X122.93 Y64.236 E.01674
M73 P2 R78
G1 X102.764 Y44.07 E.89472
G1 X102.231 Y44.07 E.01674
G1 X122.93 Y64.769 E.91839
G1 X122.93 Y65.303 E.01674
G1 X101.697 Y44.07 E.94207
G1 X101.163 Y44.07 E.01674
G1 X122.93 Y65.837 E.96574
G1 X122.93 Y66.37 E.01674
G1 X100.63 Y44.07 E.98941
G1 X100.096 Y44.07 E.01674
M73 P2 R77
G1 X122.93 Y66.904 E1.01309
G1 X122.93 Y67.437 E.01674
G1 X99.563 Y44.07 E1.03676
G1 X99.029 Y44.07 E.01674
G1 X122.93 Y67.971 E1.06044
G1 X122.93 Y68.505 E.01674
G1 X98.495 Y44.07 E1.08411
G1 X97.962 Y44.07 E.01674
G1 X122.93 Y69.038 E1.10778
G1 X122.93 Y69.572 E.01674
G1 X97.428 Y44.07 E1.13146
G1 X96.895 Y44.07 E.01674
G1 X122.93 Y70.105 E1.15513
G1 X122.93 Y70.639 E.01674
G1 X96.361 Y44.07 E1.17881
G1 X95.828 Y44.07 E.01674
G1 X122.93 Y71.172 E1.20248
G1 X122.93 Y71.706 E.01674
G1 X95.294 Y44.07 E1.22615
G1 X94.76 Y44.07 E.01674
G1 X122.93 Y72.24 E1.24983
G1 X122.93 Y72.773 E.01674
G1 X94.227 Y44.07 E1.2735
G1 X93.693 Y44.07 E.01674
G1 X122.93 Y73.307 E1.29717
G1 X122.93 Y73.84 E.01674
G1 X93.16 Y44.07 E1.32085
G1 X92.626 Y44.07 E.01674
G1 X122.93 Y74.374 E1.34452
G1 X122.93 Y74.908 E.01674
G1 X92.092 Y44.07 E1.3682
G1 X91.559 Y44.07 E.01674
G1 X122.93 Y75.441 E1.39187
G1 X122.93 Y75.975 E.01674
G1 X91.025 Y44.07 E1.41554
G1 X90.492 Y44.07 E.01674
G1 X122.93 Y76.508 E1.43922
G1 X122.93 Y77.042 E.01674
G1 X89.958 Y44.07 E1.46289
G1 X89.425 Y44.07 E.01674
M73 P3 R77
G1 X122.93 Y77.575 E1.48657
G1 X122.93 Y78.109 E.01674
G1 X88.891 Y44.07 E1.51024
G1 X88.357 Y44.07 E.01674
G1 X122.93 Y78.643 E1.53391
G1 X122.93 Y79.176 E.01674
G1 X87.824 Y44.07 E1.55759
G1 X87.29 Y44.07 E.01674
G1 X122.93 Y79.71 E1.58126
G1 X122.93 Y80.243 E.01674
G1 X86.757 Y44.07 E1.60494
G1 X86.223 Y44.07 E.01674
G1 X122.93 Y80.777 E1.62861
G1 X122.93 Y81.311 E.01674
G1 X85.689 Y44.07 E1.65228
G1 X85.156 Y44.07 E.01674
M73 P3 R76
G1 X122.93 Y81.844 E1.67596
G1 X122.93 Y82.378 E.01674
G1 X84.622 Y44.07 E1.69963
G1 X84.089 Y44.07 E.01674
G1 X122.93 Y82.911 E1.72331
G1 X122.93 Y83.445 E.01674
G1 X83.555 Y44.07 E1.74698
G1 X83.022 Y44.07 E.01674
G1 X122.93 Y83.978 E1.77065
G1 X122.93 Y84.512 E.01674
G1 X82.488 Y44.07 E1.79433
G1 X81.954 Y44.07 E.01674
G1 X122.93 Y85.046 E1.818
G1 X122.93 Y85.579 E.01674
G1 X81.421 Y44.07 E1.84167
G1 X80.887 Y44.07 E.01674
G1 X122.93 Y86.113 E1.86535
G1 X122.932 Y86.649 E.01681
G1 X80.354 Y44.07 E1.88913
G1 X79.82 Y44.07 E.01674
M73 P4 R76
G1 X122.941 Y87.191 E1.91318
G1 X122.948 Y87.64 E.01409
G1 X122.792 Y87.576 E.00528
G1 X79.286 Y44.07 E1.93025
G1 X78.753 Y44.07 E.01674
G1 X122.142 Y87.459 E1.92508
G1 X121.616 Y87.466 E.01651
G1 X78.219 Y44.07 E1.92541
G1 X77.686 Y44.07 E.01674
G1 X121.181 Y87.565 E1.92979
G1 X120.817 Y87.735 E.0126
G1 X77.152 Y44.07 E1.93732
G1 X76.619 Y44.07 E.01674
G1 X120.483 Y87.934 E1.94616
G1 X120.343 Y88.035 E.00541
G1 X120.195 Y88.18 E.0065
G1 X76.085 Y44.07 E1.95707
G1 X75.551 Y44.07 E.01674
G1 X119.951 Y88.47 E1.96993
G1 X119.737 Y88.79 E.01207
G1 X75.018 Y44.07 E1.98411
G1 X74.484 Y44.07 E.01674
M73 P4 R75
G1 X119.574 Y89.16 E2.00053
G1 X119.482 Y89.488 E.01069
G1 X119.472 Y89.591 E.00325
G1 X73.951 Y44.07 E2.01967
G1 X73.417 Y44.07 E.01674
G1 X119.629 Y90.282 E2.05032
M204 P1000
G1 E-2.24 F4200
;WIPE_START
G1 F7200
G1 X118.465 Y89.118 E-.912
;WIPE_END
G1 E-.048 F4200
G1 Z.4 F720
G1 X122.693 Y92.278 F9000
G1 Z.2 F720
G1 E3.2 F2400
M204 P800
G1 F1200
G1 X122.945 Y92.531 E.01122
G1 X122.93 Y93.05 E.01628
G1 X122.411 Y92.53 E.02305
G1 X121.912 Y92.565 E.01569
G1 X122.93 Y93.583 E.04519
G1 X122.93 Y94.117 E.01674
G1 X121.27 Y92.457 E.07366
G1 X121.185 Y92.436 E.00275
G1 X120.659 Y92.191 E.01822
G1 X120.343 Y91.965 E.01218
G1 X120.076 Y91.702 E.01177
G1 X119.768 Y91.276 E.01647
G1 X119.587 Y90.888 E.01344
G1 X119.543 Y90.73 E.00515
G1 X72.883 Y44.07 E2.07018
G1 X72.35 Y44.07 E.01674
G1 X122.93 Y94.65 E2.24415
G1 X122.93 Y95.184 E.01674
M73 P5 R75
G1 X71.816 Y44.07 E2.26782
G1 X71.283 Y44.07 E.01674
G1 X122.93 Y95.718 E2.29149
G1 X122.93 Y96.251 E.01674
G1 X70.749 Y44.07 E2.31517
G1 X70.216 Y44.07 E.01674
G1 X122.93 Y96.785 E2.33884
G1 X122.93 Y97.318 E.01674
G1 X69.682 Y44.07 E2.36251
G1 X69.148 Y44.07 E.01674
G1 X122.93 Y97.852 E2.38619
G1 X122.93 Y98.386 E.01674
G1 X68.615 Y44.07 E2.40986
G1 X68.081 Y44.07 E.01674
G1 X122.93 Y98.919 E2.43353
G1 X122.93 Y99.453 E.01674
G1 X67.548 Y44.07 E2.45721
G1 X67.014 Y44.07 E.01674
G1 X122.93 Y99.986 E2.48088
G1 X122.93 Y100.52 E.01674
G1 X66.48 Y44.07 E2.50456
G1 X65.947 Y44.07 E.01674
M73 P5 R74
G1 X122.93 Y101.053 E2.52823
G1 X122.93 Y101.587 E.01674
M73 P6 R74
G1 X65.413 Y44.07 E2.5519
G1 X64.88 Y44.07 E.01674
G1 X122.93 Y102.121 E2.57558
G1 X122.93 Y102.654 E.01674
G1 X64.346 Y44.07 E2.59925
G1 X63.812 Y44.07 E.01674
G1 X122.93 Y103.188 E2.62292
G1 X122.93 Y103.721 E.01674
G1 X63.279 Y44.07 E2.6466
G1 X62.745 Y44.07 E.01674
G1 X122.93 Y104.255 E2.67027
G1 X122.93 Y104.788 E.01674
G1 X62.212 Y44.07 E2.69395
G1 X61.678 Y44.07 E.01674
G1 X122.93 Y105.322 E2.71762
G1 X122.93 Y105.856 E.01674
G1 X61.145 Y44.07 E2.74129
G1 X60.611 Y44.07 E.01674
G1 X122.93 Y106.389 E2.76497
G1 X122.93 Y106.923 E.01674
G1 X60.077 Y44.07 E2.78864
G1 X59.544 Y44.07 E.01674
M73 P7 R74
G1 X122.93 Y107.456 E2.81231
G1 X122.93 Y107.99 E.01674
G1 X59.01 Y44.07 E2.83599
G1 X58.477 Y44.07 E.01674
M73 P7 R73
G1 X122.93 Y108.524 E2.85966
G1 X122.93 Y109.057 E.01674
G1 X57.943 Y44.07 E2.88334
G1 X57.409 Y44.07 E.01674
G1 X122.93 Y109.591 E2.90701
G1 X122.93 Y110.124 E.01674
G1 X57.07 Y44.264 E2.92208
G1 X57.07 Y44.797 E.01674
G1 X122.93 Y110.658 E2.92208
G1 X122.93 Y111.191 E.01674
G1 X57.07 Y45.331 E2.92208
G1 X57.07 Y45.865 E.01674
G1 X122.93 Y111.725 E2.92208
G1 X122.93 Y112.259 E.01674
G1 X57.07 Y46.398 E2.92208
G1 X57.07 Y46.932 E.01674
M73 P8 R73
G1 X122.93 Y112.792 E2.92208
G1 X122.93 Y113.326 E.01674
G1 X57.07 Y47.465 E2.92208
G1 X57.07 Y47.999 E.01674
G1 X122.93 Y113.859 E2.92208
G1 X122.93 Y114.393 E.01674
G1 X57.07 Y48.532 E2.92208
G1 X57.07 Y49.066 E.01674
G1 X122.93 Y114.927 E2.92208
G1 X122.93 Y115.46 E.01674
M73 P8 R72
G1 X57.07 Y49.6 E2.92208
G1 X57.07 Y50.133 E.01674
G1 X122.93 Y115.994 E2.92208
G1 X122.93 Y116.527 E.01674
G1 X57.07 Y50.667 E2.92208
G1 X57.07 Y51.2 E.01674
G1 X122.93 Y117.061 E2.92208
G1 X122.93 Y117.594 E.01674
G1 X57.07 Y51.734 E2.92208
G1 X57.07 Y52.268 E.01674
G1 X122.93 Y118.128 E2.92208
G1 X122.93 Y118.662 E.01674
M73 P9 R72
G1 X57.07 Y52.801 E2.92208
G1 X57.07 Y53.335 E.01674
G1 X122.93 Y119.195 E2.92208
G1 X122.93 Y119.729 E.01674
G1 X57.07 Y53.868 E2.92208
G1 X57.07 Y54.402 E.01674
G1 X122.93 Y120.262 E2.92208
G1 X122.93 Y120.796 E.01674
G1 X57.07 Y54.935 E2.92208
G1 X57.07 Y55.469 E.01674
G1 X122.93 Y121.329 E2.92208
G1 X122.93 Y121.863 E.01674
G1 X57.07 Y56.003 E2.92208
G1 X57.07 Y56.536 E.01674
M73 P9 R71
G1 X122.93 Y122.397 E2.92208
G1 X122.93 Y122.93 E.01674
G1 X57.07 Y57.07 E2.92208
G1 X57.07 Y57.603 E.01674
G1 X122.93 Y123.464 E2.92208
G1 X122.93 Y123.997 E.01674
M73 P10 R71
G1 X57.07 Y58.137 E2.92208
