; generated by PrusaSlicer 2.7.1+win64 on 2024-01-22 at 16:55:38 UTC


;
;

;
;
; 

; external perimeters extrusion width = 0.45mm
; perimeters extrusion width = 0.45mm
; infill extrusion width = 0.45mm
; solid infill extrusion width = 0.45mm
; top infill extrusion width = 0.40mm
; first layer extrusion width = 0.42mm

M73 P0 R126
M201 X2500 Y2500 Z400 E5000 ; sets maximum accelerations, mm/sec^2
M203 X180 Y180 Z12 E80 ; sets maximum feedrates, mm / sec
M204 P1250 R1250 T2500 ; sets acceleration (P, T) and retract acceleration (R), mm/sec^2
M205 X8.00 Y8.00 Z2.00 E10.00 ; sets the jerk limits, mm/sec
M205 S0 T0 ; sets the minimum extruding and travel feed rate, mm/sec

; printing object 9V Battery Holder.STL id:0 copy 0
; stop printing object 9V Battery Holder.STL id:0 copy 0

;TYPE:Custom
M862.3 P "MINI" ; printer model check
G90 ; use absolute coordinates
M83 ; extruder relative mode
M104 S170 ; set extruder temp for bed leveling
M140 S60 ; set bed temp
M109 R170 ; wait for bed leveling temp
M190 S60 ; wait for bed temp
M204 T1250 ; set travel acceleration
G28 ; home all without mesh bed level
G29 ; mesh bed leveling 
M204 T2500 ; restore travel acceleration
M104 S215 ; set extruder temp
G92 E0
G1 Y-2 X179 F2400
G1 Z3 F720
M109 S215 ; wait for extruder temp

; intro line
G1 X170 F1000
G1 Z0.2 F720
G1 X110 E8 F900
G1 X40 E10 F700
G92 E0

M221 S95 ; set flow
G21 ; set units to millimeters
G90 ; use absolute coordinates
M83 ; use relative distances for extrusion
M900 K0.2 ; Filament gcode LA 1.5
; ; Filament gcode LA 1.0
M107
;LAYER_CHANGE
;Z:0.2
;HEIGHT:0.2
;BEFORE_LAYER_CHANGE
G92 E0.0
;0.2


G1 E-3.2 F4200
G1 Z.2 F720
;AFTER_LAYER_CHANGE
;0.2
G1 X52.77 Y52.882 F9000
G1 Z.2 F720
G1 E3.2 F2400
M204 P800
;TYPE:Skirt/Brim
;WIDTH:0.42
G1 F1200
G1 X54.506 Y52.129 E.05933
G1 X125.494 Y52.129 E2.22578
G1 X126.801 Y52.521 E.04278
G1 X127.837 Y54.104 E.05932
G1 X133.752 Y88.595 E1.09723
G1 X133.863 Y89.8 E.03794
G1 X133.752 Y91.405 E.05044
G1 X127.837 Y125.896 E1.09723
G1 X127.23 Y127.118 E.04278
G1 X125.494 Y127.871 E.05933
G1 X54.506 Y127.871 E2.22578
G1 X53.199 Y127.48 E.04277
M73 P0 R125
G1 X52.163 Y125.896 E.05934
G1 X46.248 Y91.405 E1.09723
G1 X46.137 Y90.2 E.03794
G1 X46.248 Y88.595 E.05044
G1 X52.163 Y54.104 E1.09723
G1 X52.743 Y52.936 E.04089
M204 P1000
; printing object 9V Battery Holder.STL id:0 copy 0
G1 E-2.24 F4200
;WIPE_START
G1 F7200
G1 X52.77 Y52.882 E-.03346
G1 X54.304 Y52.217 E-.92654
;WIPE_END
G1 Z.4 F720
G1 X124.975 Y95.03 F9000
G1 Z.2 F720
G1 E3.2 F2400
M204 P800
;TYPE:Perimeter
;WIDTH:0.419999
G1 F1200
G1 X124.785 Y95.093 E.00628
G1 X124.585 Y95.3 E.00902
G1 X124.512 Y95.577 E.00898
G1 X124.513 Y124.513 E.90727
G1 X55.487 Y124.513 E2.16426
G1 X55.484 Y95.514 E.90924
G1 X55.385 Y95.251 E.00881
G1 X55.176 Y95.071 E.00865
G1 X54.928 Y95.011 E.008
G1 X54.228 Y95.003 E.02195
G1 X53.381 Y94.883 E.02682
G1 X52.579 Y94.626 E.02641
G1 X51.832 Y94.24 E.02636
G1 X51.16 Y93.733 E.02639
G1 X50.582 Y93.121 E.02639
G1 X50.115 Y92.421 E.02638
G1 X49.841 Y91.81 E.021
G1 X49.534 Y90.786 E.03352
;WIDTH:0.37334
G1 X49.457 Y90.071 E.01976
;WIDTH:0.341237
G1 X49.482 Y89.63 E.01096
;WIDTH:0.382952
G1 X49.567 Y89.065 E.01615
;WIDTH:0.419999
G1 X49.771 Y88.347 E.0234
G1 X50.088 Y87.639 E.02432
G1 X50.584 Y86.876 E.02853
G1 X51.16 Y86.267 E.02628
G1 X51.832 Y85.76 E.02639
G1 X52.579 Y85.374 E.02636
G1 X53.381 Y85.117 E.02641
G1 X53.904 Y85.043 E.01656
G1 X54.428 Y84.994 E.0165
G1 X54.977 Y84.986 E.01722
G1 X55.216 Y84.907 E.00789
G1 X55.415 Y84.7 E.009
G1 X55.488 Y84.423 E.00898
G1 X55.487 Y55.487 E.90727
G1 X124.513 Y55.487 E2.16426
G1 X124.516 Y84.485 E.90921
G1 X124.615 Y84.748 E.00881
G1 X124.824 Y84.929 E.00867
G1 X125.072 Y84.989 E.008
G1 X125.771 Y84.997 E.02192
G1 X126.619 Y85.117 E.02685
G1 X127.421 Y85.374 E.02641
G1 X128.168 Y85.76 E.02636
G1 X128.84 Y86.267 E.02639
G1 X129.418 Y86.879 E.02639
G1 X129.698 Y87.299 E.01583
G1 X129.971 Y87.772 E.01712
G1 X130.234 Y88.367 E.0204
G1 X130.433 Y89.065 E.02276
;WIDTH:0.38295
G1 X130.505 Y89.512 E.0128
;WIDTH:0.346594
G1 X130.547 Y90.013 E.01269
;WIDTH:0.341951
G1 X130.518 Y90.37 E.00891
;WIDTH:0.382984
G1 X130.433 Y90.935 E.01616
;WIDTH:0.419999
G1 X130.229 Y91.653 E.0234
G1 X129.912 Y92.361 E.02432
G1 X129.416 Y93.124 E.02853
G1 X128.84 Y93.733 E.02628
G1 X128.168 Y94.24 E.02639
G1 X127.421 Y94.626 E.02636
G1 X126.619 Y94.883 E.02641
G1 X126.096 Y94.957 E.01656
G1 X125.573 Y95.006 E.01647
G1 X125.032 Y95.014 E.01696
M204 P1000
G1 X125.076 Y95.388 F9000
M204 P800
;TYPE:External perimeter
G1 F1200
G1 X124.953 Y95.435 E.00413
G1 X124.889 Y95.577 E.00488
G1 X124.89 Y124.89 E.91909
G1 X55.11 Y124.89 E2.1879
G1 X55.111 Y95.576 E.91912
G1 X55.064 Y95.452 E.00416
G1 X54.924 Y95.388 E.00483
G1 X54.2 Y95.38 E.0227
G1 X53.296 Y95.251 E.02863
G1 X52.434 Y94.976 E.02837
G1 X51.63 Y94.56 E.02838
G1 X50.907 Y94.015 E.02839
G1 X50.286 Y93.357 E.02837
G1 X49.784 Y92.604 E.02838
G1 X49.414 Y91.778 E.02838
G1 X49.188 Y90.902 E.02837
G1 X49.112 Y90 E.02838
G1 X49.188 Y89.098 E.02838
G1 X49.414 Y88.222 E.02837
G1 X49.755 Y87.459 E.0262
G1 X50.287 Y86.642 E.03057
G1 X50.907 Y85.985 E.02832
G1 X51.63 Y85.44 E.02839
G1 X52.434 Y85.024 E.02838
G1 X53.296 Y84.749 E.02837
G1 X54.2 Y84.62 E.02863
G1 X54.924 Y84.612 E.0227
G1 X55.047 Y84.565 E.00413
G1 X55.111 Y84.423 E.00488
G1 X55.11 Y55.11 E.91909
G1 X124.89 Y55.11 E2.1879
G1 X124.889 Y84.423 E.91909
G1 X124.936 Y84.547 E.00416
G1 X125.076 Y84.612 E.00484
G1 X125.799 Y84.62 E.02267
G1 X126.704 Y84.749 E.02866
G1 X127.566 Y85.024 E.02837
G1 X128.37 Y85.44 E.02838
G1 X129.093 Y85.985 E.02839
G1 X129.714 Y86.643 E.02837
G1 X130.216 Y87.396 E.02838
G1 X130.586 Y88.222 E.02838
G1 X130.78 Y88.976 E.02441
G1 X130.844 Y89.483 E.01602
G1 X130.884 Y90.041 E.01754
G1 X130.812 Y90.902 E.02709
G1 X130.586 Y91.778 E.02837
G1 X130.245 Y92.541 E.0262
G1 X129.713 Y93.358 E.03057
G1 X129.093 Y94.015 E.02832
G1 X128.37 Y94.56 E.02839
G1 X127.566 Y94.976 E.02838
G1 X126.704 Y95.251 E.02837
G1 X125.799 Y95.38 E.02866
G1 X125.136 Y95.388 E.02079
M204 P1000
G1 E-2.24 F4200
;WIPE_START
G1 F7200
G1 X125.076 Y95.388 E-.03325
G1 X124.953 Y95.435 E-.07297
G1 X124.889 Y95.577 E-.08631
G1 X124.889 Y96.962 E-.76747
;WIPE_END
G1 Z.4 F720
G1 X125.854 Y89.223 F9000
G1 Z.2 F720
G1 E3.2 F2400
M204 P800
;TYPE:Perimeter
G1 F1200
G1 X125.869 Y89.172 E.00167
G1 X126.045 Y88.814 E.01251
G1 X126.281 Y88.493 E.01249
G1 X126.638 Y88.169 E.01512
G1 X126.921 Y87.986 E.01057
G1 X127.309 Y87.825 E.01317
G1 X127.854 Y87.725 E.01737
G1 X128.445 Y87.757 E.01856
G1 X128.828 Y87.869 E.01251
G1 X129.287 Y88.116 E.01634
G1 X129.719 Y88.493 E.01798
G1 X130 Y88.902 E.01556
;WIDTH:0.410875
G1 X130.142 Y89.271 E.0121
;WIDTH:0.373339
G1 X130.246 Y89.954 E.01898
;WIDTH:0.346595
G1 X130.207 Y90.436 E.01221
;WIDTH:0.382984
G1 X130.114 Y90.82 E.01117
;WIDTH:0.419999
G1 X129.955 Y91.186 E.01251
G1 X129.719 Y91.507 E.01249
G1 X129.338 Y91.848 E.01603
G1 X128.828 Y92.131 E.01829
G1 X128.348 Y92.26 E.01558
G1 X127.951 Y92.286 E.01247
G1 X127.555 Y92.242 E.01249
G1 X127.172 Y92.131 E.0125
G1 X126.814 Y91.955 E.01251
G1 X126.493 Y91.719 E.01249
G1 X126.217 Y91.431 E.01251
G1 X125.996 Y91.1 E.01248
G1 X125.835 Y90.735 E.01251
G1 X125.74 Y90.348 E.01249
G1 X125.714 Y89.951 E.01247
G1 X125.758 Y89.555 E.01249
G1 X125.837 Y89.281 E.00894
M204 P1000
G1 X126.257 Y89.235 F9000
M204 P800
;TYPE:External perimeter
G1 F1200
G1 X126.354 Y89.031 E.00708
G1 X126.703 Y88.604 E.01729
G1 X127.081 Y88.328 E.01467
G1 X127.377 Y88.196 E.01016
G1 X127.922 Y88.096 E.01737
G1 X128.348 Y88.122 E.01338
G1 X128.669 Y88.211 E.01044
G1 X129.07 Y88.425 E.01425
G1 X129.453 Y88.76 E.01595
G1 X129.662 Y89.059 E.01144
G1 X129.801 Y89.362 E.01045
G1 X129.884 Y89.684 E.01043
G1 X129.91 Y90.016 E.01044
G1 X129.878 Y90.348 E.01046
G1 X129.789 Y90.669 E.01044
G1 X129.646 Y90.969 E.01042
G1 X129.453 Y91.24 E.01043
G1 X129.122 Y91.539 E.01399
G1 X128.669 Y91.789 E.01622
G1 X128.174 Y91.896 E.01588
G1 X127.652 Y91.878 E.01638
G1 X127.331 Y91.789 E.01044
G1 X126.76 Y91.453 E.02077
G1 X126.526 Y91.215 E.01046
G1 X126.338 Y90.941 E.01042
G1 X126.199 Y90.638 E.01045
G1 X126.116 Y90.316 E.01043
G1 X126.09 Y89.984 E.01044
G1 X126.122 Y89.652 E.01046
G1 X126.211 Y89.331 E.01044
G1 X126.231 Y89.289 E.00146
M204 P1000
G1 E-2.24 F4200
;WIPE_START
G1 F7200
G1 X126.257 Y89.235 E-.03321
G1 X126.354 Y89.031 E-.12518
G1 X126.703 Y88.604 E-.30561
G1 X127.081 Y88.328 E-.25937
G1 X127.377 Y88.196 E-.1796
G1 X127.478 Y88.177 E-.05703
;WIPE_END
G1 Z.4 F720
G1 X50.027 Y91.14 F9000
G1 Z.2 F720
G1 E3.2 F2400
M204 P800
;TYPE:Perimeter
G1 F1200
G1 X50 Y91.098 E.00157
;WIDTH:0.411418
G1 X49.858 Y90.729 E.01211
;WIDTH:0.37334
G1 X49.754 Y90.046 E.01898
;WIDTH:0.346595
G1 X49.793 Y89.564 E.01221
;WIDTH:0.382952
G1 X49.886 Y89.18 E.01117
;WIDTH:0.419999
G1 X50.045 Y88.814 E.01251
G1 X50.281 Y88.493 E.01249
G1 X50.662 Y88.152 E.01603
G1 X51.172 Y87.869 E.01829
G1 X51.854 Y87.725 E.02186
G1 X52.445 Y87.757 E.01856
G1 X52.828 Y87.869 E.01251
G1 X53.186 Y88.045 E.01251
G1 X53.563 Y88.337 E.01495
G1 X53.783 Y88.569 E.01002
G1 X54.004 Y88.9 E.01248
G1 X54.165 Y89.265 E.01251
G1 X54.26 Y89.652 E.01249
G1 X54.286 Y90.049 E.01247
G1 X54.242 Y90.445 E.01249
G1 X54.131 Y90.828 E.0125
G1 X53.955 Y91.186 E.01251
G1 X53.783 Y91.432 E.00941
G1 X53.361 Y91.832 E.01823
G1 X53.079 Y92.014 E.01052
G1 X52.735 Y92.165 E.01178
G1 X52.311 Y92.263 E.01364
G1 X51.793 Y92.272 E.01624
G1 X51.265 Y92.165 E.01689
G1 X50.814 Y91.955 E.0156
G1 X50.493 Y91.719 E.01249
G1 X50.214 Y91.427 E.01266
G1 X50.059 Y91.19 E.00888
M204 P1000
G1 X50.354 Y90.964 F9000
M204 P800
;TYPE:External perimeter
G1 F1200
G1 X50.338 Y90.941 E.00088
G1 X50.199 Y90.638 E.01045
G1 X50.116 Y90.316 E.01043
G1 X50.09 Y89.984 E.01044
G1 X50.122 Y89.652 E.01046
G1 X50.211 Y89.331 E.01044
G1 X50.354 Y89.031 E.01042
G1 X50.547 Y88.76 E.01043
G1 X50.878 Y88.461 E.01399
G1 X51.331 Y88.211 E.01622
G1 X51.922 Y88.096 E.01888
G1 X52.348 Y88.122 E.01338
G1 X52.669 Y88.211 E.01044
G1 X53.146 Y88.477 E.01712
G1 X53.474 Y88.785 E.01411
G1 X53.662 Y89.059 E.01042
G1 X53.801 Y89.362 E.01045
G1 X53.884 Y89.684 E.01043
G1 X53.91 Y90.016 E.01044
G1 X53.878 Y90.348 E.01046
G1 X53.789 Y90.669 E.01044
G1 X53.646 Y90.969 E.01042
G1 X53.474 Y91.215 E.00941
G1 X53.144 Y91.523 E.01415
G1 X52.669 Y91.789 E.01707
G1 X52.278 Y91.887 E.01264
G1 X51.826 Y91.896 E.01417
G1 X51.331 Y91.789 E.01588
G1 X50.929 Y91.575 E.01428
G1 X50.547 Y91.24 E.01593
G1 X50.388 Y91.013 E.00869
M204 P1000
G1 E-2.24 F4200
;WIPE_START
G1 F7200
G1 X50.354 Y90.964 E-.03305
G1 X50.338 Y90.941 E-.01553
G1 X50.199 Y90.638 E-.18474
G1 X50.116 Y90.316 E-.18427
G1 X50.09 Y89.984 E-.18455
G1 X50.122 Y89.652 E-.18484
G1 X50.205 Y89.351 E-.17302
;WIPE_END
G1 Z.4 F720
G1 X123.637 Y55.601 F9000
G1 Z.2 F720
G1 E3.2 F2400
M204 P800
;TYPE:Solid infill
;WIDTH:0.420244
G1 F1200
G1 X124.23 Y56.194 E.02631
G1 X124.23 Y56.728 E.01675
G1 X123.273 Y55.77 E.04248
G1 X122.739 Y55.77 E.01675
G1 X124.23 Y57.262 E.06618
G1 X124.231 Y57.795 E.01672
G1 X122.205 Y55.77 E.08987
G1 X121.672 Y55.77 E.01672
G1 X124.231 Y58.329 E.11354
G1 X124.231 Y58.863 E.01675
G1 X121.138 Y55.77 E.13724
G1 X120.605 Y55.77 E.01672
G1 X124.231 Y59.397 E.16091
G1 X124.231 Y59.931 E.01675
G1 X120.071 Y55.77 E.1846
G1 X119.537 Y55.77 E.01675
G1 X124.232 Y60.465 E.20832
G1 X124.232 Y60.998 E.01672
G1 X119.004 Y55.77 E.23197
G1 X118.47 Y55.77 E.01675
G1 X124.232 Y61.532 E.25566
G1 X124.232 Y62.066 E.01675
G1 X117.937 Y55.77 E.27933
G1 X117.403 Y55.77 E.01675
G1 X124.233 Y62.6 E.30305
G1 X124.233 Y63.134 E.01675
G1 X116.869 Y55.77 E.32674
G1 X116.336 Y55.77 E.01672
G1 X124.233 Y63.667 E.35039
G1 X124.233 Y64.201 E.01675
G1 X115.802 Y55.77 E.37409
G1 X115.268 Y55.77 E.01675
G1 X124.233 Y64.735 E.39778
G1 X124.234 Y65.269 E.01675
G1 X114.735 Y55.77 E.42147
G1 X114.201 Y55.77 E.01675
G1 X124.234 Y65.803 E.44517
G1 X124.234 Y66.337 E.01675
G1 X113.668 Y55.77 E.46884
G1 X113.134 Y55.77 E.01675
G1 X124.234 Y66.87 E.49251
G1 X124.234 Y67.404 E.01675
G1 X112.6 Y55.77 E.51621
G1 X112.067 Y55.77 E.01672
M73 P1 R125
G1 X124.235 Y67.938 E.5399
G1 X124.235 Y68.472 E.01675
G1 X111.533 Y55.77 E.56359
G1 X111 Y55.77 E.01672
G1 X124.235 Y69.006 E.58726
G1 X124.235 Y69.54 E.01675
G1 X110.466 Y55.77 E.61096
G1 X109.932 Y55.77 E.01675
G1 X124.235 Y70.073 E.63463
G1 X124.236 Y70.607 E.01675
G1 X109.399 Y55.77 E.65832
G1 X108.865 Y55.77 E.01675
G1 X124.236 Y71.141 E.68202
G1 X124.236 Y71.675 E.01675
G1 X108.331 Y55.77 E.70571
G1 X107.798 Y55.77 E.01672
G1 X124.236 Y72.209 E.72938
G1 X124.237 Y72.743 E.01675
G1 X107.264 Y55.77 E.7531
G1 X106.731 Y55.77 E.01672
M73 P1 R124
G1 X124.237 Y73.276 E.77675
G1 X124.237 Y73.81 E.01675
G1 X106.197 Y55.77 E.80044
G1 X105.663 Y55.77 E.01675
G1 X124.237 Y74.344 E.82414
G1 X124.237 Y74.878 E.01675
G1 X105.13 Y55.77 E.84781
G1 X104.596 Y55.77 E.01675
G1 X124.238 Y75.412 E.87152
G1 X124.238 Y75.946 E.01675
G1 X104.063 Y55.77 E.8952
G1 X103.529 Y55.77 E.01675
G1 X124.238 Y76.479 E.91887
G1 X124.238 Y77.013 E.01675
G1 X102.995 Y55.77 E.94256
G1 X102.462 Y55.77 E.01672
G1 X124.238 Y77.547 E.96623
G1 X124.239 Y78.081 E.01675
G1 X101.928 Y55.77 E.98995
G1 X101.394 Y55.77 E.01675
G1 X124.239 Y78.615 E1.01364
G1 X124.239 Y79.148 E.01672
G1 X100.861 Y55.77 E1.03729
G1 X100.327 Y55.77 E.01675
G1 X124.239 Y79.682 E1.06099
G1 X124.239 Y80.216 E.01675
G1 X99.794 Y55.77 E1.08466
G1 X99.26 Y55.77 E.01675
G1 X124.24 Y80.75 E1.10837
G1 X124.24 Y81.284 E.01675
G1 X98.726 Y55.77 E1.13207
G1 X98.193 Y55.77 E.01672
G1 X124.24 Y81.818 E1.15574
G1 X124.24 Y82.351 E.01672
G1 X97.659 Y55.77 E1.17941
G1 X97.125 Y55.77 E.01675
G1 X124.241 Y82.885 E1.20313
G1 X124.241 Y83.419 E.01675
G1 X96.592 Y55.77 E1.2268
G1 X96.058 Y55.77 E.01675
G1 X124.411 Y84.123 E1.25803
M204 P1000
G1 E-2.24 F4200
;WIPE_START
G1 F7200
G1 X123.186 Y82.898 E-.96
;WIPE_END
G1 Z.4 F720
G1 X127.363 Y85.474 F9000
G1 Z.2 F720
G1 E3.2 F2400
M204 P800
G1 F1200
G1 X129.663 Y87.774 E.10205
G1 X129.844 Y88.18 E.01395
G1 X129.819 Y88.198 E.00097
G1 X129.599 Y87.99 E.0095
G1 X129.341 Y87.809 E.00989
G1 X129.003 Y87.647 E.01176
G1 X126.84 Y85.485 E.09595
G1 X126.556 Y85.394 E.00936
G1 X126.159 Y85.338 E.01258
G1 X128.274 Y87.452 E.09382
G1 X128.006 Y87.435 E.00843
G1 X127.746 Y87.458 E.00819
G1 X125.392 Y85.104 E.10445
M204 P1000
G1 E-2.24 F4200
;WIPE_START
G1 F7200
G1 X126.617 Y86.329 E-.96
;WIPE_END
G1 Z.4 F720
G1 X127.44 Y87.686 F9000
G1 Z.2 F720
G1 E3.2 F2400
M204 P800
G1 F1200
G1 X125.023 Y85.268 E.10727
G1 X124.771 Y85.215 E.00808
G1 X124.582 Y85.112 E.00675
G1 X124.408 Y84.945 E.00757
G1 X124.304 Y84.772 E.00633
G1 X124.241 Y84.569 E.00667
G1 X124.241 Y84.487 E.00257
G1 X95.525 Y55.77 E1.27416
G1 X94.991 Y55.77 E.01675
G1 X126.903 Y87.682 E1.41595
G1 X126.774 Y87.742 E.00446
G1 X126.567 Y87.88 E.00781
G1 X94.457 Y55.77 E1.42473
G1 X93.924 Y55.77 E.01672
G1 X126.27 Y88.116 E1.43521
G1 X126.004 Y88.384 E.01185
G1 X93.39 Y55.77 E1.4471
G1 X92.857 Y55.77 E.01672
G1 X125.785 Y88.699 E1.46105
G1 X125.617 Y89.064 E.01261
G1 X92.323 Y55.77 E1.47727
G1 X91.789 Y55.77 E.01675
G1 X125.49 Y89.471 E1.49533
G1 X125.466 Y89.567 E.0031
G1 X125.433 Y89.947 E.01197
G1 X91.256 Y55.77 E1.51645
G1 X90.722 Y55.77 E.01675
G1 X125.734 Y90.782 E1.5535
M204 P1000
G1 E-2.24 F4200
M73 P1 R123
;WIPE_START
G1 F7200
G1 X124.509 Y89.557 E-.96
;WIPE_END
G1 Z.4 F720
G1 X129.848 Y92.228 F9000
G1 Z.2 F720
G1 E3.2 F2400
M204 P800
G1 F1200
G1 X129.615 Y91.995 E.01034
G1 X129.297 Y92.211 E.01206
G1 X129.524 Y92.438 E.01007
G1 X129.314 Y92.761 E.01209
G1 X128.942 Y92.39 E.01648
G1 X128.531 Y92.512 E.01345
G1 X129.083 Y93.064 E.02449
G1 X128.824 Y93.338 E.01183
G1 X128.044 Y92.559 E.03459
G1 X127.933 Y92.568 E.00349
G1 X127.462 Y92.51 E.01489
G1 X128.55 Y93.598 E.04828
G1 X128.245 Y93.827 E.01197
G1 X90.188 Y55.77 E1.6886
G1 X89.655 Y55.77 E.01672
G1 X127.929 Y94.045 E1.69826
G1 X127.578 Y94.227 E.0124
M73 P2 R123
G1 X89.121 Y55.77 E1.70635
G1 X88.588 Y55.77 E.01672
G1 X127.213 Y94.396 E1.71383
G1 X126.809 Y94.525 E.01331
G1 X88.054 Y55.77 E1.71958
G1 X87.52 Y55.77 E.01675
G1 X126.381 Y94.631 E1.72428
