; generated by PrusaSlicer 2.5.0+win64 on 2023-03-09 at 19:43:26 UTC


;
;

;
;
; 

; external perimeters extrusion width = 0.45mm
; perimeters extrusion width = 0.45mm
; infill extrusion width = 0.45mm
; solid infill extrusion width = 0.45mm
; top infill extrusion width = 0.40mm
; first layer extrusion width = 0.42mm

; external perimeters extrusion width = 0.45mm
; perimeters extrusion width = 0.45mm
; infill extrusion width = 0.45mm
; solid infill extrusion width = 0.45mm
; top infill extrusion width = 0.40mm
; first layer extrusion width = 0.42mm

; external perimeters extrusion width = 0.45mm
; perimeters extrusion width = 0.45mm
; infill extrusion width = 0.45mm
; solid infill extrusion width = 0.45mm
; top infill extrusion width = 0.40mm
; first layer extrusion width = 0.42mm

; external perimeters extrusion width = 0.45mm
; perimeters extrusion width = 0.45mm
; infill extrusion width = 0.45mm
; solid infill extrusion width = 0.45mm
; top infill extrusion width = 0.40mm
; first layer extrusion width = 0.42mm

; external perimeters extrusion width = 0.45mm
; perimeters extrusion width = 0.45mm
; infill extrusion width = 0.45mm
; solid infill extrusion width = 0.45mm
; top infill extrusion width = 0.40mm
; first layer extrusion width = 0.42mm

; external perimeters extrusion width = 0.45mm
; perimeters extrusion width = 0.45mm
; infill extrusion width = 0.45mm
; solid infill extrusion width = 0.45mm
; top infill extrusion width = 0.40mm
; first layer extrusion width = 0.42mm

; external perimeters extrusion width = 0.45mm
; perimeters extrusion width = 0.45mm
; infill extrusion width = 0.45mm
; solid infill extrusion width = 0.45mm
; top infill extrusion width = 0.40mm
; first layer extrusion width = 0.42mm

; external perimeters extrusion width = 0.45mm
; perimeters extrusion width = 0.45mm
; infill extrusion width = 0.45mm
; solid infill extrusion width = 0.45mm
; top infill extrusion width = 0.40mm
; first layer extrusion width = 0.42mm

; external perimeters extrusion width = 0.45mm
; perimeters extrusion width = 0.45mm
; infill extrusion width = 0.45mm
; solid infill extrusion width = 0.45mm
; top infill extrusion width = 0.40mm
; first layer extrusion width = 0.42mm

; external perimeters extrusion width = 0.45mm
; perimeters extrusion width = 0.45mm
; infill extrusion width = 0.45mm
; solid infill extrusion width = 0.45mm
; top infill extrusion width = 0.40mm
; first layer extrusion width = 0.42mm

; external perimeters extrusion width = 0.45mm
; perimeters extrusion width = 0.45mm
; infill extrusion width = 0.45mm
; solid infill extrusion width = 0.45mm
; top infill extrusion width = 0.40mm
; first layer extrusion width = 0.42mm

; external perimeters extrusion width = 0.45mm
; perimeters extrusion width = 0.45mm
; infill extrusion width = 0.45mm
; solid infill extrusion width = 0.45mm
; top infill extrusion width = 0.40mm
; first layer extrusion width = 0.42mm

; external perimeters extrusion width = 0.45mm
; perimeters extrusion width = 0.45mm
; infill extrusion width = 0.45mm
; solid infill extrusion width = 0.45mm
; top infill extrusion width = 0.40mm
; first layer extrusion width = 0.42mm

; external perimeters extrusion width = 0.45mm
; perimeters extrusion width = 0.45mm
; infill extrusion width = 0.45mm
; solid infill extrusion width = 0.45mm
; top infill extrusion width = 0.40mm
; first layer extrusion width = 0.42mm

; external perimeters extrusion width = 0.45mm
; perimeters extrusion width = 0.45mm
; infill extrusion width = 0.45mm
; solid infill extrusion width = 0.45mm
; top infill extrusion width = 0.40mm
; first layer extrusion width = 0.42mm

M73 P0 R168
M201 X2500 Y2500 Z400 E5000 ; sets maximum accelerations, mm/sec^2
M203 X180 Y180 Z12 E80 ; sets maximum feedrates, mm / sec
M204 P1250 R1250 T2500 ; sets acceleration (P, T) and retract acceleration (R), mm/sec^2
M205 X8.00 Y8.00 Z2.00 E10.00 ; sets the jerk limits, mm/sec
M205 S0 T0 ; sets the minimum extruding and travel feed rate, mm/sec
M107
;TYPE:Custom
M862.3 P "MINI" ; printer model check
G90 ; use absolute coordinates
M83 ; extruder relative mode
M104 S170 ; set extruder temp for bed leveling
M140 S60 ; set bed temp
M109 R170 ; wait for bed leveling temp
M190 S60 ; wait for bed temp
M204 T1250 ; set travel acceleration
G28 ; home all without mesh bed level
G29 ; mesh bed leveling 
M204 T2500 ; restore travel acceleration
M104 S215 ; set extruder temp
G92 E0
G1 Y-2 X179 F2400
G1 Z3 F720
M109 S215 ; wait for extruder temp

; intro line
G1 X170 F1000
G1 Z0.2 F720
G1 X110 E8 F900
G1 X40 E10 F700
G92 E0

M221 S95 ; set flow
G21 ; set units to millimeters
G90 ; use absolute coordinates
M83 ; use relative distances for extrusion
M900 K0.2 ; Filament gcode LA 1.5
; ; Filament gcode LA 1.0
M107
;LAYER_CHANGE
;Z:0.2
;HEIGHT:0.2
;BEFORE_LAYER_CHANGE
G92 E0.0
;0.2


G1 E-3.2 F4200
G1 Z.2 F720
;AFTER_LAYER_CHANGE
;0.2
G1 Z.4
G1 X15.092 Y13.674 F9000
G1 Z.2 F720
G1 E3.2 F2400
M204 P800
;TYPE:Skirt/Brim
;WIDTH:0.42
G1 F1200
G1 X15.498 Y13.226 E.01895
G1 X31.32 Y2.556 E.59834
G1 X32.005 Y2.239 E.02367
G1 X36.184 Y1.062 E.13613
G1 X36.828 Y.974 E.02038
G1 X143.172 Y.974 E3.33433
G1 X143.816 Y1.062 E.02038
G1 X147.995 Y2.239 E.13613
G1 X148.68 Y2.556 E.02367
G1 X164.502 Y13.226 E.59834
G1 X165.265 Y14.068 E.03563
G1 X166.241 Y15.877 E.06446
G1 X166.492 Y16.605 E.02413
G1 X166.839 Y18.631 E.06447
G1 X166.873 Y160.88 E4.46009
G1 X166.525 Y163.279 E.07603
G1 X166.285 Y164.01 E.02413
G1 X165.334 Y165.833 E.06446
G1 X164.558 Y166.702 E.03653
G1 X148.683 Y177.442 E.60095
G1 X147.995 Y177.761 E.02378
G1 X143.816 Y178.938 E.13613
G1 X143.172 Y179.026 E.02038
G1 X36.828 Y179.026 E3.33433
G1 X36.184 Y178.938 E.02038
M73 P0 R167
G1 X32.005 Y177.761 E.13613
G1 X31.317 Y177.442 E.02378
G1 X15.442 Y166.702 E.60095
G1 X14.667 Y165.833 E.03653
G1 X13.716 Y164.01 E.06446
G1 X13.476 Y163.287 E.02388
G1 X13.127 Y160.924 E.07492
G1 X13.127 Y19.024 E4.44915
G1 X13.508 Y16.605 E.0768
G1 X13.759 Y15.877 E.02413
G1 X14.735 Y14.068 E.06447
G1 X15.052 Y13.718 E.0148
M204 P1000
; printing object casterLevel.stl id:11 copy 0
G1 E-2.24 F4200
;WIPE_START
G1 F7200
G1 X15.498 Y13.226 E-.36819
G1 X16.312 Y12.677 E-.54381
;WIPE_END
G1 E-.048 F4200
G1 Z.4 F720
G1 X119.382 Y22.346 F9000
G1 Z.2 F720
G1 E3.2 F2400
M204 P800
;TYPE:Perimeter
;WIDTH:0.419999
G1 F1200
G1 X118.582 Y20.813 E.05421
G1 X118.301 Y19.053 E.05588
G1 X118.607 Y17.266 E.05685
G1 X119.43 Y15.741 E.05434
G1 X134.986 Y5.25 E.5883
G1 X138.939 Y4.138 E.12875
G1 X143.063 Y4.138 E.12931
G1 X147.016 Y5.25 E.12875
G1 X162.572 Y15.741 E.5883
G1 X163.395 Y17.266 E.05434
G1 X163.698 Y19.038 E.05637
G1 X163.42 Y20.814 E.05637
G1 X162.62 Y22.346 E.05418
G1 X147.015 Y32.903 E.59073
G1 X143.063 Y34.015 E.12873
G1 X138.939 Y34.015 E.12931
G1 X134.987 Y32.903 E.12873
G1 X119.432 Y22.38 E.58885
M204 P1000
G1 X119.092 Y22.605 F9000
M204 P800
;TYPE:External perimeter
G1 F1200
G1 X118.219 Y20.933 E.05913
G1 X117.919 Y19.051 E.05976
G1 X118.246 Y17.141 E.06074
G1 X119.142 Y15.48 E.05919
G1 X134.826 Y4.904 E.59311
G1 X138.887 Y3.761 E.13228
G1 X143.115 Y3.761 E.13258
G1 X147.177 Y4.904 E.13228
G1 X162.86 Y15.48 E.59311
G1 X163.756 Y17.141 E.05919
G1 X164.08 Y19.035 E.06025
G1 X163.782 Y20.934 E.06025
G1 X162.91 Y22.605 E.05911
G1 X147.176 Y33.249 E.59563
G1 X143.115 Y34.392 E.13228
G1 X138.887 Y34.392 E.13258
G1 X134.826 Y33.249 E.13227
G1 X119.141 Y22.639 E.59374
M204 P1000
G1 X119.241 Y22.234 F9000
G1 E-2.24 F4200
;WIPE_START
G1 F7200
G1 X118.359 Y21.191 E-.912
;WIPE_END
G1 E-.048 F4200
G1 Z.4 F720
G1 X155.927 Y18.19 F9000
G1 Z.2 F720
G1 E3.2 F2400
M204 P800
;TYPE:Perimeter
G1 F1200
G1 X155.972 Y18.065 E.00416
G1 X156.342 Y17.425 E.02319
G1 X156.468 Y17.274 E.00616
G1 X157.035 Y16.799 E.02319
G1 X157.205 Y16.7 E.00616
G1 X157.9 Y16.447 E.02319
G1 X158.094 Y16.413 E.00616
G1 X158.833 Y16.413 E.02319
G1 X159.027 Y16.447 E.00616
G1 X159.722 Y16.7 E.02319
G1 X159.892 Y16.799 E.00616
G1 X160.459 Y17.274 E.02319
G1 X160.585 Y17.425 E.00616
G1 X160.955 Y18.065 E.02319
G1 X161.022 Y18.25 E.00616
G1 X161.151 Y18.981 E.02328
G1 X161.152 Y19.164 E.00574
G1 X161.022 Y19.903 E.02353
G1 X160.955 Y20.088 E.00616
G1 X160.585 Y20.728 E.02319
G1 X160.459 Y20.879 E.00616
G1 X159.892 Y21.354 E.02319
G1 X159.722 Y21.453 E.00616
G1 X159.027 Y21.706 E.02319
G1 X158.833 Y21.74 E.00616
G1 X158.094 Y21.74 E.02319
G1 X157.9 Y21.706 E.00616
G1 X157.205 Y21.453 E.02319
G1 X157.035 Y21.354 E.00616
G1 X156.468 Y20.879 E.02319
G1 X156.342 Y20.728 E.00616
G1 X155.972 Y20.088 E.02319
G1 X155.905 Y19.903 E.00616
G1 X155.777 Y19.175 E.02319
G1 X155.777 Y18.978 E.00616
G1 X155.906 Y18.246 E.02331
M204 P1000
G1 X156.272 Y18.341 F9000
M204 P800
;TYPE:External perimeter
G1 F1200
G1 X156.669 Y17.613 E.02599
G1 X157.277 Y17.088 E.02522
G1 X158.029 Y16.802 E.02522
G1 X158.833 Y16.79 E.02522
G1 X159.593 Y17.055 E.02522
G1 X160.216 Y17.563 E.02522
G1 X160.628 Y18.254 E.02522
G1 X160.779 Y19.044 E.02522
G1 X160.651 Y19.838 E.02522
G1 X160.258 Y20.54 E.02522
G1 X159.65 Y21.065 E.02522
G1 X158.898 Y21.351 E.02522
G1 X158.094 Y21.363 E.02522
G1 X157.334 Y21.098 E.02522
G1 X156.711 Y20.59 E.02522
G1 X156.299 Y19.899 E.02522
G1 X156.148 Y19.109 E.02522
G1 X156.263 Y18.4 E.02251
M204 P1000
G1 X156.008 Y18.041 F9000
G1 E-2.24 F4200
;WIPE_START
G1 F7200
G1 X156.669 Y17.613 E-.49091
G1 X157.244 Y17.117 E-.42109
;WIPE_END
G1 E-.048 F4200
G1 Z.4 F720
G1 X126.075 Y19.964 F9000
G1 Z.2 F720
G1 E3.2 F2400
M204 P800
;TYPE:Perimeter
G1 F1200
G1 X126.03 Y20.088 E.00414
G1 X125.66 Y20.728 E.02319
G1 X125.534 Y20.879 E.00616
G1 X124.967 Y21.354 E.02319
G1 X124.797 Y21.453 E.00616
G1 X124.102 Y21.706 E.02319
G1 X123.908 Y21.74 E.00616
G1 X123.169 Y21.74 E.02319
G1 X122.975 Y21.706 E.00616
G1 X122.28 Y21.453 E.02319
G1 X122.11 Y21.354 E.00616
G1 X121.543 Y20.879 E.02319
G1 X121.417 Y20.728 E.00616
G1 X121.047 Y20.088 E.02319
G1 X120.98 Y19.903 E.00616
G1 X120.852 Y19.175 E.02319
G1 X120.852 Y18.978 E.00616
G1 X120.98 Y18.25 E.02319
G1 X121.047 Y18.065 E.00616
G1 X121.417 Y17.425 E.02319
G1 X121.543 Y17.274 E.00616
G1 X122.11 Y16.799 E.02319
G1 X122.28 Y16.7 E.00616
G1 X122.975 Y16.447 E.02319
G1 X123.169 Y16.413 E.00616
G1 X123.908 Y16.413 E.02319
G1 X124.102 Y16.447 E.00616
G1 X124.797 Y16.7 E.02319
G1 X124.967 Y16.799 E.00616
G1 X125.534 Y17.274 E.02319
G1 X125.66 Y17.425 E.00616
G1 X126.03 Y18.065 E.02319
G1 X126.097 Y18.25 E.00616
G1 X126.234 Y19.074 E.02619
G1 X126.096 Y19.907 E.02649
M204 P1000
G1 X125.73 Y19.813 F9000
M204 P800
;TYPE:External perimeter
G1 F1200
G1 X125.333 Y20.54 E.02596
G1 X124.725 Y21.065 E.02522
G1 X123.973 Y21.351 E.02522
G1 X123.169 Y21.363 E.02522
G1 X122.409 Y21.098 E.02522
G1 X121.786 Y20.59 E.02522
G1 X121.374 Y19.899 E.02522
G1 X121.223 Y19.109 E.02522
G1 X121.351 Y18.315 E.02522
G1 X121.744 Y17.613 E.02522
G1 X122.352 Y17.088 E.02522
G1 X123.104 Y16.802 E.02522
G1 X123.908 Y16.79 E.02522
G1 X124.668 Y17.055 E.02522
G1 X125.291 Y17.563 E.02522
G1 X125.703 Y18.254 E.02522
G1 X125.857 Y19.076 E.02622
G1 X125.74 Y19.754 E.02158
M204 P1000
G1 X125.994 Y20.114 F9000
G1 E-2.24 F4200
;WIPE_START
G1 F7200
G1 X125.333 Y20.54 E-.49045
G1 X124.758 Y21.037 E-.42155
;WIPE_END
G1 E-.048 F4200
G1 Z.4 F720
G1 X160.09 Y14.203 F9000
G1 Z.2 F720
G1 E3.2 F2400
M204 P800
;TYPE:Solid infill
;WIDTH:0.423536
G1 F1200
G1 X162.981 Y17.094 E.12938
G1 X163.124 Y17.36 E.00954
G1 X163.21 Y17.862 E.01612
G1 X159.066 Y13.717 E.18549
G1 X157.413 Y12.603 E.0631
G1 X163.321 Y18.511 E.26445
G1 X163.412 Y19.04 E.01699
G1 X163.398 Y19.126 E.00276
G1 X155.76 Y11.488 E.34188
G1 X154.107 Y10.373 E.0631
G1 X163.325 Y19.592 E.4126
G1 X163.252 Y20.057 E.0149
G1 X161.263 Y18.067 E.08904
G1 X160.826 Y17.276 E.02859
G1 X160.647 Y17.063 E.00883
G1 X160.068 Y16.577 E.02393
G1 X159.826 Y16.438 E.00881
G1 X159.522 Y16.327 E.01025
G1 X152.454 Y9.258 E.31637
G1 X150.801 Y8.144 E.0631
G1 X158.788 Y16.131 E.35748
G1 X158.249 Y16.131 E.01704
G1 X149.148 Y7.029 E.40737
G1 X147.495 Y5.914 E.0631
G1 X157.773 Y16.193 E.46005
G1 X157.379 Y16.336 E.01329
G1 X146.418 Y5.376 E.49057
G1 X145.669 Y5.165 E.02463
G1 X157 Y16.496 E.50715
G1 X156.859 Y16.577 E.00515
G1 X156.689 Y16.724 E.00709
G1 X144.92 Y4.954 E.52678
G1 X144.171 Y4.743 E.02463
G1 X156.401 Y16.973 E.5474
G1 X156.174 Y17.169 E.00948
G1 X156.131 Y17.242 E.00267
G1 X143.422 Y4.532 E.56886
G1 X143.024 Y4.42 E.01307
G1 X142.771 Y4.42 E.008
G1 X155.931 Y17.58 E.58899
G1 X155.731 Y17.918 E.01243
G1 X142.233 Y4.42 E.60412
G1 X141.695 Y4.42 E.01704
G1 X155.609 Y18.335 E.62278
G1 X155.525 Y18.788 E.0146
G1 X141.157 Y4.42 E.64307
G1 X140.618 Y4.42 E.01704
G1 X155.725 Y19.527 E.67612
M204 P1000
G1 E-2.24 F4200
;WIPE_START
G1 F7200
G1 X154.561 Y18.363 E-.912
;WIPE_END
G1 E-.048 F4200
G1 Z.4 F720
G1 X161.177 Y18.52 F9000
G1 Z.2 F720
G1 E3.2 F2400
M204 P800
G1 F1200
G1 X163.179 Y20.522 E.0896
G1 X163.147 Y20.724 E.00648
G1 X163.043 Y20.924 E.00713
G1 X161.415 Y19.296 E.07287
G1 X161.33 Y19.749 E.01459
G1 X162.859 Y21.278 E.06842
G1 X162.674 Y21.632 E.01263
G1 X161.217 Y20.175 E.0652
G1 X161.025 Y20.521 E.01252
G1 X162.489 Y21.985 E.06556
G1 X162.403 Y22.152 E.00594
G1 X162.233 Y22.267 E.00649
G1 X160.832 Y20.866 E.06269
G1 X160.687 Y21.054 E.00749
G1 X160.575 Y21.148 E.00463
G1 X161.912 Y22.484 E.05982
G1 X161.59 Y22.701 E.01227
G1 X160.282 Y21.392 E.05858
G1 X159.985 Y21.634 E.01211
G1 X161.269 Y22.918 E.05748
G1 X160.948 Y23.136 E.01227
G1 X159.608 Y21.795 E.06
G1 X159.213 Y21.939 E.01329
G1 X160.627 Y23.353 E.0633
G1 X160.306 Y23.57 E.01227
G1 X158.759 Y22.022 E.06927
G1 X158.22 Y22.022 E.01704
G1 X159.985 Y23.787 E.07899
G1 X159.664 Y24.004 E.01227
G1 X157.532 Y21.872 E.09543
G1 X157.101 Y21.715 E.01453
G1 X156.86 Y21.576 E.00881
G1 X156.28 Y21.09 E.02393
G1 X156.101 Y20.877 E.00882
G1 X155.687 Y20.151 E.02646
G1 X155.632 Y19.972 E.0059
G1 X140.08 Y4.42 E.69607
G1 X139.542 Y4.42 E.01704
G1 X159.343 Y24.222 E.88625
G1 X159.022 Y24.439 E.01227
G1 X139.004 Y4.42 E.89598
G1 X138.978 Y4.42 E.00081
G1 X138.578 Y4.533 E.01315
G1 X158.701 Y24.656 E.90066
G1 X158.38 Y24.873 E.01227
G1 X138.158 Y4.651 E.90509
G1 X137.738 Y4.77 E.01381
G1 X158.059 Y25.091 E.90952
G1 X157.738 Y25.308 E.01227
G1 X137.318 Y4.888 E.91395
G1 X136.898 Y5.006 E.01381
G1 X157.417 Y25.525 E.91838
G1 X157.096 Y25.742 E.01227
G1 X136.478 Y5.124 E.92281
G1 X136.058 Y5.242 E.01381
G1 X156.774 Y25.959 E.92724
G1 X156.453 Y26.177 E.01227
M73 P0 R166
G1 X135.637 Y5.361 E.93167
G1 X135.217 Y5.479 E.01381
G1 X156.132 Y26.394 E.9361
G1 X155.811 Y26.611 E.01227
G1 X134.87 Y5.67 E.93728
G1 X134.548 Y5.886 E.01227
G1 X155.49 Y26.828 E.9373
G1 X155.169 Y27.045 E.01227
M73 P1 R166
G1 X134.227 Y6.103 E.93732
G1 X133.906 Y6.32 E.01227
G1 X154.848 Y27.263 E.93734
G1 X154.527 Y27.48 E.01227
G1 X133.584 Y6.537 E.93736
G1 X133.263 Y6.754 E.01227
G1 X154.206 Y27.697 E.93738
G1 X153.885 Y27.914 E.01227
G1 X132.941 Y6.97 E.93739
G1 X132.62 Y7.187 E.01227
G1 X153.564 Y28.131 E.93741
G1 X153.243 Y28.349 E.01227
G1 X132.298 Y7.404 E.93743
G1 X131.977 Y7.621 E.01227
G1 X152.922 Y28.566 E.93745
G1 X152.601 Y28.783 E.01227
G1 X131.655 Y7.838 E.93747
G1 X131.334 Y8.054 E.01227
G1 X152.28 Y29 E.93749
G1 X151.959 Y29.217 E.01227
G1 X131.012 Y8.271 E.9375
G1 X130.691 Y8.488 E.01227
G1 X151.637 Y29.435 E.93752
G1 X151.316 Y29.652 E.01227
G1 X130.369 Y8.705 E.93754
G1 X130.048 Y8.922 E.01227
G1 X150.995 Y29.869 E.93756
G1 X150.674 Y30.086 E.01227
G1 X129.726 Y9.138 E.93758
G1 X129.405 Y9.355 E.01227
G1 X150.353 Y30.303 E.9376
G1 X150.032 Y30.521 E.01227
G1 X129.083 Y9.572 E.93761
G1 X128.762 Y9.789 E.01227
G1 X149.711 Y30.738 E.93763
G1 X149.39 Y30.955 E.01227
G1 X128.44 Y10.006 E.93765
G1 X128.119 Y10.222 E.01227
G1 X149.069 Y31.172 E.93767
G1 X148.748 Y31.39 E.01227
G1 X127.797 Y10.439 E.93769
G1 X127.476 Y10.656 E.01227
G1 X148.427 Y31.607 E.93771
G1 X148.106 Y31.824 E.01227
G1 X127.154 Y10.873 E.93773
G1 X126.833 Y11.089 E.01227
G1 X147.785 Y32.041 E.93774
G1 X147.464 Y32.258 E.01227
G1 X126.512 Y11.306 E.93776
G1 X126.19 Y11.523 E.01227
G1 X147.143 Y32.476 E.93778
G1 X146.895 Y32.643 E.00947
G1 X146.799 Y32.67 E.00315
