; generated by PrusaSlicer 2.5.0+win64 on 2023-03-28 at 20:00:59 UTC


;
;

;
;
; 

; external perimeters extrusion width = 0.45mm
; perimeters extrusion width = 0.45mm
; infill extrusion width = 0.45mm
; solid infill extrusion width = 0.45mm
; top infill extrusion width = 0.40mm
; first layer extrusion width = 0.42mm

; external perimeters extrusion width = 0.45mm
; perimeters extrusion width = 0.45mm
; infill extrusion width = 0.45mm
; solid infill extrusion width = 0.45mm
; top infill extrusion width = 0.40mm
; first layer extrusion width = 0.42mm

; external perimeters extrusion width = 0.45mm
; perimeters extrusion width = 0.45mm
; infill extrusion width = 0.45mm
; solid infill extrusion width = 0.45mm
; top infill extrusion width = 0.40mm
; first layer extrusion width = 0.42mm

; external perimeters extrusion width = 0.45mm
; perimeters extrusion width = 0.45mm
; infill extrusion width = 0.45mm
; solid infill extrusion width = 0.45mm
; top infill extrusion width = 0.40mm
; first layer extrusion width = 0.42mm

; external perimeters extrusion width = 0.45mm
; perimeters extrusion width = 0.45mm
; infill extrusion width = 0.45mm
; solid infill extrusion width = 0.45mm
; top infill extrusion width = 0.40mm
; first layer extrusion width = 0.42mm

M73 P0 R40
M201 X2500 Y2500 Z400 E5000 ; sets maximum accelerations, mm/sec^2
M203 X180 Y180 Z12 E80 ; sets maximum feedrates, mm / sec
M204 P1250 R1250 T2500 ; sets acceleration (P, T) and retract acceleration (R), mm/sec^2
M205 X8.00 Y8.00 Z2.00 E10.00 ; sets the jerk limits, mm/sec
M205 S0 T0 ; sets the minimum extruding and travel feed rate, mm/sec
M107
;TYPE:Custom
M862.3 P "MINI" ; printer model check
G90 ; use absolute coordinates
M83 ; extruder relative mode
M104 S170 ; set extruder temp for bed leveling
M140 S60 ; set bed temp
M109 R170 ; wait for bed leveling temp
M190 S60 ; wait for bed temp
M204 T1250 ; set travel acceleration
G28 ; home all without mesh bed level
G29 ; mesh bed leveling 
M204 T2500 ; restore travel acceleration
M104 S215 ; set extruder temp
G92 E0
G1 Y-2 X179 F2400
G1 Z3 F720
M109 S215 ; wait for extruder temp

; intro line
G1 X170 F1000
G1 Z0.2 F720
G1 X110 E8 F900
G1 X40 E10 F700
G92 E0

M221 S95 ; set flow
G21 ; set units to millimeters
G90 ; use absolute coordinates
M83 ; use relative distances for extrusion
M900 K0.2 ; Filament gcode LA 1.5
; ; Filament gcode LA 1.0
M107
;LAYER_CHANGE
;Z:0.2
;HEIGHT:0.2
;BEFORE_LAYER_CHANGE
G92 E0.0
;0.2


G1 E-3.2 F4200
G1 Z.2 F720
;AFTER_LAYER_CHANGE
;0.2
G1 Z.4
G1 X78.489 Y51.72 F9000
G1 Z.2 F720
G1 E3.2 F2400
M204 P800
;TYPE:Skirt/Brim
;WIDTH:0.42
G1 F1200
G1 X79.282 Y50.833 E.03732
G1 X86.889 Y45.753 E.28681
G1 X88.209 Y45.352 E.04325
G1 X91.791 Y45.352 E.11229
G1 X93.111 Y45.753 E.04325
G1 X100.718 Y50.833 E.28681
G1 X101.511 Y51.72 E.03732
G1 X117.801 Y83.321 E1.11473
G1 X119.504 Y87.645 E.14572
G1 X119.667 Y88.511 E.0276
G1 X119.667 Y132.271 E1.37206
G1 X119.275 Y133.578 E.04278
G1 X118.23 Y134.454 E.04278
G1 X117.29 Y134.648 E.03008
G1 X62.71 Y134.648 E1.71132
G1 X61.403 Y134.256 E.04278
M73 P1 R40
G1 X60.527 Y133.21 E.04278
G1 X60.333 Y132.271 E.03008
G1 X60.333 Y88.511 E1.37206
G1 X60.496 Y87.645 E.0276
G1 X62.199 Y83.321 E.14572
G1 X78.462 Y51.774 E1.11285
M204 P1000
; printing object Tof sensor attachment.STL id:4 copy 0
G1 E-2.24 F4200
;WIPE_START
G1 F7200
G1 X79.282 Y50.833 E-.69179
G1 X79.612 Y50.612 E-.22021
;WIPE_END
G1 E-.048 F4200
G1 Z.4 F720
G1 X80.306 Y57.655 F9000
G1 Z.2 F720
G1 E3.2 F2400
M204 P800
;TYPE:Perimeter
;WIDTH:0.371171
G1 F1200
G1 X80.049 Y57.935 E.01037
G1 X79.941 Y58.109 E.0056
G1 X79.759 Y58.696 E.01676
;WIDTH:0.36791
G1 X79.761 Y58.5 E.00528
;WIDTH:0.371171
G1 X79.763 Y57.663 E.02285
G1 X80.246 Y57.656 E.01319
M204 P1000
G1 E-2.24 F4200
;WIPE_START
G1 F7200
G1 X80.049 Y57.935 E-.18914
G1 X79.941 Y58.109 E-.11369
G1 X79.759 Y58.696 E-.34021
G1 X79.761 Y58.5 E-.10826
G1 X79.762 Y58.21 E-.16071
;WIPE_END
G1 E-.048 F4200
G1 Z.4 F720
G1 X97.245 Y57.685 F9000
G1 Z.2 F720
G1 E3.2 F2400
M204 P800
;WIDTH:0.419999
G1 F1200
G1 X96.918 Y58.101 E.01657
G1 X96.768 Y58.497 E.01328
G1 X96.731 Y58.911 E.01303
G1 X96.772 Y59.336 E.01338
;WIDTH:0.465957
G1 X96.873 Y59.625 E.01076
;WIDTH:0.511914
G1 X96.973 Y59.914 E.01193
G1 X97.26 Y60.227 E.01657
;WIDTH:0.474617
G1 X97.53 Y60.387 E.01126
;WIDTH:0.447308
G1 X97.799 Y60.548 E.01055
;WIDTH:0.419999
G1 X98.402 Y60.689 E.01941
G1 X98.598 Y60.689 E.00616
G1 X99.201 Y60.548 E.0194
G1 X99.719 Y60.209 E.01941
G1 X100.09 Y59.714 E.01941
G1 X100.237 Y59.215 E.0163
G1 X100.213 Y59.736 E.01633
G1 X100.213 Y68.122 E.26296
G1 X96.787 Y68.122 E.10741
G1 X96.787 Y61.132 E.21917
;WIDTH:0.447308
G1 X96.785 Y60.814 E.01069
;WIDTH:0.474617
G1 X96.783 Y60.496 E.01141
;WIDTH:0.508316
G1 X96.689 Y60.296 E.00856
G1 X96.565 Y60.226 E.00549
;WIDTH:0.473772
G1 X96.442 Y60.157 E.00508
;WIDTH:0.439227
G1 X96.221 Y60.122 E.00734
;WIDTH:0.419999
G1 X84.274 Y60.122 E.3746
;WIDTH:0.439219
G1 X83.558 Y60.157 E.02361
;WIDTH:0.475566
G1 X83.462 Y60.197 E.00376
;WIDTH:0.511913
G1 X83.365 Y60.237 E.00408
;WIDTH:0.514702
G1 X83.248 Y60.381 E.00728
G1 X83.23 Y60.534 E.00606
;WIDTH:0.467351
G1 X83.213 Y60.688 E.00545
;WIDTH:0.419999
G1 X83.213 Y68.122 E.2331
G1 X79.787 Y68.122 E.10741
G1 X79.787 Y59.736 E.26296
G1 X79.763 Y59.215 E.01633
G1 X79.91 Y59.714 E.0163
G1 X80.281 Y60.209 E.01941
G1 X80.799 Y60.548 E.0194
G1 X81.402 Y60.689 E.01941
G1 X81.598 Y60.689 E.00616
G1 X82.201 Y60.548 E.0194
;WIDTH:0.447306
G1 X82.47 Y60.387 E.01055
;WIDTH:0.474612
G1 X82.74 Y60.227 E.01126
;WIDTH:0.511913
G1 X83.027 Y59.914 E.01657
G1 X83.131 Y59.614 E.01236
;WIDTH:0.465956
G1 X83.235 Y59.315 E.01115
;WIDTH:0.419999
G1 X83.268 Y58.696 E.01944
G1 X83.082 Y58.101 E.01955
G1 X82.755 Y57.685 E.01657
G1 X88.43 Y57.697 E.17794
G1 X88.669 Y57.644 E.00765
G1 X88.849 Y57.512 E.007
G1 X88.945 Y57.366 E.00551
G1 X88.996 Y57.131 E.00754
G1 X88.996 Y52.588 E.14244
G1 X88.968 Y52.412 E.00558
G1 X88.834 Y52.192 E.00808
G1 X88.565 Y52.038 E.00972
G1 X88.43 Y52.022 E.00425
G1 X83.49 Y52.026 E.1549
G1 X83.111 Y52.056 E.01193
G1 X83.439 Y51.857 E.01203
G1 X88.448 Y48.516 E.18878
G1 X91.552 Y48.516 E.09734
G1 X96.861 Y52.041 E.19979
G1 X96.546 Y52.026 E.00988
G1 X91.57 Y52.022 E.15604
G1 X91.435 Y52.038 E.00425
G1 X91.226 Y52.139 E.00728
G1 X91.096 Y52.278 E.00598
G1 X91.004 Y52.588 E.01013
G1 X91.004 Y57.131 E.14244
G1 X91.055 Y57.366 E.00754
G1 X91.151 Y57.512 E.00551
G1 X91.331 Y57.644 E.007
G1 X91.569 Y57.697 E.00763
G1 X97.185 Y57.686 E.17608
M204 P1000
G1 E-2.24 F4200
;WIPE_START
G1 F7200
G1 X96.918 Y58.101 E-.27322
G1 X96.768 Y58.497 E-.2348
G1 X96.731 Y58.911 E-.23029
G1 X96.761 Y59.223 E-.17368
;WIPE_END
G1 E-.048 F4200
G1 Z.4 F720
G1 X99.694 Y57.655 F9000
G1 Z.2 F720
G1 E3.2 F2400
M204 P800
;WIDTH:0.37117
G1 F1200
G1 X100.237 Y57.663 E.01483
G1 X100.241 Y58.696 E.02818
G1 X100.059 Y58.109 E.01676
G1 X99.952 Y57.936 E.00556
G1 X99.735 Y57.699 E.00877
M204 P1000
G1 E-2.24 F4200
;WIPE_START
G1 F7200
G1 X100.237 Y57.663 E-.27921
G1 X100.241 Y58.696 E-.5721
G1 X100.208 Y58.591 E-.0607
;WIPE_END
G1 E-.048 F4200
G1 Z.4 F720
G1 X91.381 Y52.588 F9000
G1 Z.2 F720
G1 E3.2 F2400
M204 P800
;TYPE:External perimeter
;WIDTH:0.419999
G1 F1200
G1 X91.381 Y57.131 E.14244
G1 X91.43 Y57.258 E.00427
G1 X91.569 Y57.319 E.00477
G1 X97.325 Y57.302 E.18046
;WIDTH:0.424483
G1 X98.438 Y57.23 E.03539
;WIDTH:0.424344
G1 X99.542 Y57.3 E.0351
;WIDTH:0.419999
G1 X100.59 Y57.316 E.03286
G1 X100.59 Y57.825 E.01596
G1 X100.59 Y68.499 E.33469
G1 X96.41 Y68.499 E.13106
G1 X96.41 Y60.708 E.24431
G1 X96.366 Y60.567 E.00463
G1 X96.221 Y60.499 E.005
G1 X83.801 Y60.499 E.38944
G1 X83.651 Y60.549 E.00494
G1 X83.59 Y60.688 E.00476
G1 X83.59 Y68.499 E.24492
G1 X79.41 Y68.499 E.13106
G1 X79.41 Y57.316 E.35064
G1 X80.47 Y57.3 E.03325
;WIDTH:0.42723
G1 X81.532 Y57.228 E.03402
;WIDTH:0.421805
G1 X82.877 Y57.315 E.04244
;WIDTH:0.419999
G1 X88.431 Y57.319 E.17414
G1 X88.57 Y57.258 E.00478
M73 P1 R39
G1 X88.619 Y57.131 E.00427
G1 X88.619 Y52.588 E.14244
G1 X88.565 Y52.456 E.00447
G1 X88.431 Y52.399 E.00458
G1 X83.436 Y52.404 E.15659
G1 X82.482 Y52.494 E.03005
G1 X82.005 Y52.599 E.01531
G1 X81.296 Y52.599 E.02225
G1 X81.905 Y52.195 E.02294
G1 X82.787 Y51.81 E.03017
G1 X83.229 Y51.543 E.0162
G1 X88.334 Y48.139 E.19236
G1 X91.666 Y48.139 E.1045
G1 X96.918 Y51.638 E.19787
G1 X97.365 Y51.895 E.01615
G1 X98.261 Y52.303 E.03089
G1 X98.705 Y52.599 E.01674
G1 X97.991 Y52.599 E.0224
G1 X97.056 Y52.429 E.02978
G1 X96.546 Y52.403 E.01603
G1 X91.569 Y52.399 E.15604
G1 X91.455 Y52.438 E.00379
G1 X91.407 Y52.534 E.00336
M204 P1000
G1 X90.994 Y52.691 F9000
G1 E-2.24 F4200
;WIPE_START
G1 F7200
G1 X91.398 Y54.18 E-.912
;WIPE_END
G1 E-.048 F4200
G1 Z.4 F720
G1 X98.458 Y57.61 F9000
G1 Z.2 F720
G1 E3.2 F2400
M204 P800
;WIDTH:0.422679
G1 F1200
G1 X98.556 Y57.603 E.00311
;WIDTH:0.422977
G1 X98.969 Y57.651 E.01313
G1 X99.407 Y57.864 E.01541
;WIDTH:0.419999
G1 X99.729 Y58.234 E.01538
G1 X99.891 Y58.697 E.01537
G1 X99.889 Y59.154 E.01434
G1 X99.703 Y59.642 E.01636
G1 X99.38 Y60.009 E.01534
G1 X98.951 Y60.244 E.01534
G1 X98.467 Y60.317 E.01534
G1 X97.988 Y60.221 E.01534
G1 X97.57 Y59.967 E.01534
G1 X97.264 Y59.585 E.01534
G1 X97.108 Y59.121 E.01535
G1 X97.121 Y58.63 E.01539
G1 X97.309 Y58.173 E.01549
G1 X97.655 Y57.819 E.01554
;WIDTH:0.422679
G1 X98.09 Y57.635 E.01489
G1 X98.398 Y57.614 E.00975
M204 P1000
G1 X98.495 Y57.519 F9000
G1 E-2.24 F4200
;WIPE_START
G1 F7200
G1 X98.556 Y57.603 E-.0878
G1 X98.969 Y57.651 E-.23031
G1 X99.407 Y57.864 E-.27023
G1 X99.729 Y58.234 E-.27187
G1 X99.76 Y58.322 E-.0518
;WIPE_END
G1 E-.048 F4200
G1 Z.4 F720
G1 X100.241 Y58.696 F9000
G1 Z.2 F720
G1 E3.2 F2400
M204 P800
;TYPE:Perimeter
;WIDTH:0.371804
G1 F1200
G1 X100.237 Y59.215 E.0142
M204 P1000
G1 E-2.24 F4200
;WIPE_START
G1 F7200
G1 X100.241 Y58.696 E-.28784
;WIPE_END
G1 E-.67216 F4200
G1 Z.4 F720
G1 X81.459 Y57.604 F9000
G1 Z.2 F720
G1 E3.2 F2400
M204 P800
;TYPE:External perimeter
;WIDTH:0.424371
G1 F1200
G1 X81.503 Y57.601 E.00141
;WIDTH:0.421805
G1 X81.968 Y57.651 E.01473
G1 X82.407 Y57.864 E.01536
;WIDTH:0.419999
G1 X82.536 Y58.004 E.00596
G1 X82.729 Y58.234 E.00943
G1 X82.891 Y58.697 E.01537
G1 X82.873 Y59.207 E.01601
G1 X82.703 Y59.642 E.01464
G1 X82.38 Y60.009 E.01534
G1 X81.951 Y60.244 E.01534
G1 X81.467 Y60.317 E.01534
G1 X80.988 Y60.221 E.01534
G1 X80.57 Y59.967 E.01534
G1 X80.264 Y59.585 E.01534
G1 X80.108 Y59.121 E.01535
G1 X80.121 Y58.631 E.01539
G1 X80.309 Y58.173 E.01549
G1 X80.655 Y57.819 E.01554
;WIDTH:0.424371
G1 X81.09 Y57.635 E.01497
G1 X81.399 Y57.609 E.00986
M204 P1000
G1 X81.476 Y57.563 F9000
G1 E-2.24 F4200
;WIPE_START
G1 F7200
G1 X81.503 Y57.601 E-.05785
G1 X81.968 Y57.651 E-.25917
G1 X82.407 Y57.864 E-.27022
G1 X82.536 Y58.004 E-.10528
G1 X82.729 Y58.234 E-.16665
G1 X82.76 Y58.324 E-.05283
;WIPE_END
G1 E-.048 F4200
G1 Z.4 F720
G1 X79.763 Y59.215 F9000
G1 Z.2 F720
G1 E3.2 F2400
M204 P800
;TYPE:Perimeter
;WIDTH:0.371806
G1 F1200
G1 X79.759 Y58.696 E.0142
M204 P1000
G1 E-2.24 F4200
;WIPE_START
G1 F7200
G1 X79.763 Y59.215 E-.28784
;WIPE_END
G1 E-.67216 F4200
G1 Z.4 F720
G1 X99.713 Y60.358 F9000
G1 Z.2 F720
G1 E3.2 F2400
M204 P800
;TYPE:Solid infill
;WIDTH:0.420526
G1 F1200
G1 X99.93 Y60.575 E.00963
G1 X99.93 Y61.109 E.01677
G1 X99.514 Y60.693 E.01846
G1 X99.335 Y60.797 E.0065
G1 X99.151 Y60.864 E.00615
G1 X99.93 Y61.643 E.0346
G1 X99.93 Y62.177 E.01677
G1 X98.703 Y60.95 E.0545
G1 X98.5 Y60.981 E.00644
G1 X98.145 Y60.926 E.01127
G1 X99.93 Y62.711 E.07926
G1 X99.93 Y63.245 E.01677
G1 X97.243 Y60.558 E.11933
G1 X97.081 Y60.466 E.00583
G1 X97.08 Y60.929 E.01454
G1 X99.93 Y63.779 E.12654
G1 X99.93 Y64.313 E.01677
G1 X97.08 Y61.463 E.12658
G1 X97.079 Y61.996 E.01674
G1 X99.93 Y64.847 E.12661
G1 X99.93 Y65.381 E.01677
G1 X97.078 Y62.529 E.12665
G1 X97.077 Y63.062 E.01674
G1 X99.93 Y65.915 E.12668
G1 X99.93 Y66.449 E.01677
G1 X97.076 Y63.595 E.12672
G1 X97.076 Y64.129 E.01674
G1 X99.93 Y66.983 E.12675
G1 X99.93 Y67.517 E.01677
M73 P2 R39
G1 X97.075 Y64.662 E.12679
G1 X97.074 Y65.195 E.01674
G1 X99.718 Y67.84 E.11742
G1 X99.184 Y67.84 E.01677
G1 X97.073 Y65.728 E.09374
G1 X97.072 Y66.262 E.01674
G1 X98.65 Y67.84 E.07007
G1 X98.116 Y67.84 E.01677
G1 X97.072 Y66.795 E.04639
G1 X97.071 Y67.328 E.01674
G1 X97.752 Y68.009 E.03025
M204 P1000
G1 E-2.24 F4200
;WIPE_START
G1 F7200
G1 X97.071 Y67.328 E-.53388
G1 X97.072 Y66.795 E-.29549
G1 X97.177 Y66.9 E-.08262
;WIPE_END
G1 E-.048 F4200
G1 Z.4 F720
G1 X96.685 Y58.398 F9000
G1 Z.2 F720
G1 E3.2 F2400
M204 P800
G1 F1200
G1 X96.262 Y57.975 E.01876
G1 X95.729 Y57.976 E.01675
G1 X96.449 Y58.696 E.03198
G1 X96.448 Y59.128 E.01355
G1 X96.469 Y59.25 E.00391
G1 X95.195 Y57.976 E.05657
G1 X94.662 Y57.977 E.01675
G1 X96.58 Y59.895 E.08517
G1 X96.228 Y59.84 E.01119
G1 X95.991 Y59.84 E.00745
G1 X94.128 Y57.977 E.08269
G1 X93.595 Y57.978 E.01675
G1 X95.456 Y59.84 E.08267
G1 X94.922 Y59.84 E.01677
G1 X93.061 Y57.978 E.08266
G1 X92.527 Y57.979 E.01675
G1 X94.388 Y59.84 E.08264
G1 X93.854 Y59.84 E.01677
G1 X91.824 Y57.809 E.09014
M204 P1000
G1 E-2.24 F4200
;WIPE_START
G1 F7200
G1 X92.988 Y58.973 E-.912
;WIPE_END
G1 E-.048 F4200
G1 Z.4 F720
G1 X93.732 Y50.105 F9000
G1 Z.2 F720
G1 E3.2 F2400
M204 P800
G1 F1200
G1 X95.37 Y51.743 E.07272
G1 X94.835 Y51.742 E.01678
G1 X92.743 Y49.649 E.09292
G1 X91.467 Y48.799 E.04814
G1 X91.358 Y48.799 E.0034
G1 X94.301 Y51.742 E.13065
G1 X93.766 Y51.741 E.01678
G1 X90.824 Y48.799 E.13064
G1 X90.29 Y48.799 E.01677
G1 X93.232 Y51.741 E.13062
G1 X92.698 Y51.74 E.01678
G1 X89.756 Y48.799 E.1306
G1 X89.222 Y48.799 E.01677
G1 X92.163 Y51.74 E.13058
G1 X91.629 Y51.74 E.01678
G1 X88.688 Y48.799 E.13056
G1 X88.533 Y48.799 E.00487
G1 X88.306 Y48.951 E.00858
G1 X91.198 Y51.843 E.12841
G1 X91.059 Y51.909 E.00484
G1 X90.897 Y52.076 E.00729
G1 X87.986 Y49.165 E.12927
G1 X87.665 Y49.378 E.01209
G1 X90.741 Y52.454 E.13657
G1 X90.721 Y52.58 E.00402
G1 X90.721 Y52.968 E.01216
G1 X87.345 Y49.592 E.1499
G1 X87.025 Y49.806 E.01209
G1 X90.721 Y53.502 E.16413
G1 X90.721 Y54.036 E.01677
G1 X89.279 Y52.594 E.06401
G1 X89.238 Y52.325 E.00855
G1 X89.142 Y52.124 E.00699
G1 X89.037 Y51.994 E.00524
G1 X88.941 Y51.909 E.00403
G1 X88.636 Y51.764 E.01061
G1 X88.425 Y51.74 E.00669
G1 X86.704 Y50.019 E.07639
G1 X86.384 Y50.233 E.01209
G1 X87.891 Y51.74 E.06692
G1 X87.357 Y51.74 E.01675
G1 X86.063 Y50.447 E.05745
G1 X85.743 Y50.66 E.01209
G1 X86.824 Y51.741 E.04798
G1 X86.29 Y51.741 E.01675
G1 X85.423 Y50.874 E.03852
G1 X85.102 Y51.087 E.01209
G1 X85.757 Y51.742 E.02905
G1 X85.223 Y51.742 E.01675
G1 X84.782 Y51.301 E.01958
G1 X84.462 Y51.515 E.01209
G1 X84.859 Y51.912 E.01764
M204 P1000
G1 E-2.24 F4200
;WIPE_START
G1 F7200
G1 X84.462 Y51.515 E-.31136
G1 X84.782 Y51.301 E-.21339
G1 X85.223 Y51.742 E-.34558
G1 X85.298 Y51.742 E-.04167
;WIPE_END
G1 E-.048 F4200
G1 Z.4 F720
G1 X89.109 Y52.959 F9000
G1 Z.2 F720
G1 E3.2 F2400
M204 P800
G1 F1200
G1 X90.721 Y54.57 E.07155
G1 X90.721 Y55.104 E.01677
G1 X89.279 Y53.662 E.06401
G1 X89.279 Y54.196 E.01677
G1 X90.721 Y55.638 E.06401
G1 X90.721 Y56.172 E.01677
G1 X89.279 Y54.73 E.06401
G1 X89.279 Y55.264 E.01677
G1 X90.891 Y56.876 E.07155
M204 P1000
G1 E-2.24 F4200
;WIPE_START
G1 F7200
G1 X89.727 Y55.712 E-.912
;WIPE_END
G1 E-.048 F4200
G1 Z.4 F720
G1 X89.109 Y55.629 F9000
G1 Z.2 F720
G1 E3.2 F2400
M204 P800
G1 F1200
G1 X93.32 Y59.84 E.18698
G1 X92.786 Y59.84 E.01677
G1 X89.279 Y56.332 E.15573
G1 X89.279 Y56.866 E.01677
G1 X92.252 Y59.84 E.13202
G1 X91.718 Y59.84 E.01677
G1 X89.233 Y57.354 E.11037
G1 X89.205 Y57.481 E.00409
G1 X89.053 Y57.708 E.00858
G1 X91.184 Y59.84 E.09464
G1 X90.65 Y59.84 E.01677
G1 X88.73 Y57.919 E.08526
G1 X88.579 Y57.967 E.00496
G1 X88.256 Y57.979 E.01016
G1 X90.116 Y59.84 E.08261
G1 X89.582 Y59.84 E.01677
G1 X87.722 Y57.979 E.08263
G1 X87.187 Y57.978 E.01678
G1 X89.048 Y59.84 E.08265
G1 X88.514 Y59.84 E.01677
G1 X86.653 Y57.978 E.08267
G1 X86.118 Y57.977 E.01678
G1 X87.98 Y59.84 E.08269
G1 X87.446 Y59.84 E.01677
G1 X85.584 Y57.977 E.08271
G1 X85.049 Y57.977 E.01678
G1 X86.912 Y59.84 E.08272
G1 X86.378 Y59.84 E.01677
G1 X84.515 Y57.976 E.08274
G1 X83.98 Y57.976 E.01678
