; generated by PrusaSlicer 2.5.0+win64 on 2023-02-01 at 20:50:35 UTC


;
;

;
;
; 

; external perimeters extrusion width = 0.45mm
; perimeters extrusion width = 0.45mm
; infill extrusion width = 0.45mm
; solid infill extrusion width = 0.45mm
; top infill extrusion width = 0.40mm
; first layer extrusion width = 0.42mm

M73 P0 R109
M201 X2500 Y2500 Z400 E5000 ; sets maximum accelerations, mm/sec^2
M203 X180 Y180 Z12 E80 ; sets maximum feedrates, mm / sec
M204 P1250 R1250 T2500 ; sets acceleration (P, T) and retract acceleration (R), mm/sec^2
M205 X8.00 Y8.00 Z2.00 E10.00 ; sets the jerk limits, mm/sec
M205 S0 T0 ; sets the minimum extruding and travel feed rate, mm/sec
M107
;TYPE:Custom
M862.3 P "MINI" ; printer model check
G90 ; use absolute coordinates
M83 ; extruder relative mode
M104 S170 ; set extruder temp for bed leveling
M140 S60 ; set bed temp
M109 R170 ; wait for bed leveling temp
M190 S60 ; wait for bed temp
M204 T1250 ; set travel acceleration
G28 ; home all without mesh bed level
G29 ; mesh bed leveling 
M204 T2500 ; restore travel acceleration
M104 S215 ; set extruder temp
G92 E0
G1 Y-2 X179 F2400
G1 Z3 F720
M109 S215 ; wait for extruder temp

; intro line
G1 X170 F1000
G1 Z0.2 F720
G1 X110 E8 F900
G1 X40 E10 F700
G92 E0

M221 S95 ; set flow
G21 ; set units to millimeters
G90 ; use absolute coordinates
M83 ; use relative distances for extrusion
M900 K0.2 ; Filament gcode LA 1.5
; ; Filament gcode LA 1.0
M107
;LAYER_CHANGE
;Z:0.2
;HEIGHT:0.2
;BEFORE_LAYER_CHANGE
G92 E0.0
;0.2


G1 E-3.2 F4200
G1 Z.2 F720
;AFTER_LAYER_CHANGE
;0.2
G1 Z.4
G1 X25.773 Y26.258 F9000
G1 Z.2 F720
G1 E3.2 F2400
M204 P800
;TYPE:Skirt/Brim
;WIDTH:0.42
G1 F1200
G1 X27.121 Y25.065 E.05645
G1 X28.743 Y24.127 E.05873
G1 X30.456 Y23.554 E.05664
G1 X32.312 Y23.325 E.05863
G1 X147.521 Y23.323 E3.6123
G1 X149.271 Y23.496 E.05516
G1 X150.952 Y23.997 E.055
G1 X152.476 Y24.789 E.05383
G1 X153.857 Y25.881 E.05521
G1 X154.936 Y27.123 E.05158
G1 X155.826 Y28.641 E.05518
G1 X156.409 Y30.3 E.05514
G1 X156.665 Y32.039 E.0551
G1 X156.675 Y147.681 E3.62589
G1 X156.481 Y149.385 E.05378
M73 P0 R108
G1 X156.001 Y150.957 E.05153
G1 X155.208 Y152.48 E.05384
G1 X154.226 Y153.743 E.05017
G1 X152.877 Y154.937 E.05646
G1 X152.072 Y155.457 E.03006
G1 X151.214 Y155.892 E.03018
G1 X150.321 Y156.233 E.02995
G1 X149.388 Y156.481 E.03028
G1 X147.501 Y156.677 E.05947
G1 X32.319 Y156.675 E3.61146
G1 X30.615 Y156.481 E.05378
G1 X29.082 Y156.017 E.05023
G1 X27.619 Y155.272 E.05146
G1 X26.26 Y154.229 E.05373
G1 X25.065 Y152.879 E.05653
G1 X24.543 Y152.072 E.03012
G1 X24.11 Y151.218 E.03001
G1 X23.766 Y150.318 E.03022
G1 X23.519 Y149.388 E.03018
G1 X23.323 Y147.501 E.05946
G1 X23.325 Y32.319 E3.61146
G1 X23.519 Y30.614 E.05382
G1 X23.996 Y29.05 E.05125
G1 X24.729 Y27.619 E.05041
G1 X25.736 Y26.306 E.05192
M204 P1000
; printing object M3_Tray_v1-0_LID.STL id:0 copy 0
G1 E-2.24 F4200
;WIPE_START
G1 F7200
G1 X26.962 Y25.207 E-.912
;WIPE_END
G1 E-.048 F4200
G1 Z.4 F720
G1 X28.297 Y28.212 F9000
G1 Z.2 F720
G1 E3.2 F2400
M204 P800
;TYPE:Perimeter
;WIDTH:0.419999
G1 F1200
G1 X28.556 Y27.963 E.01128
G1 X29.052 Y27.575 E.01973
G1 X29.587 Y27.24 E.01981
G1 X30.052 Y27.009 E.01628
G1 X30.642 Y26.782 E.01981
G1 X31.25 Y26.619 E.01973
G1 X31.874 Y26.52 E.01981
G1 X32.403 Y26.488 E.01661
G1 X147.596 Y26.488 E3.61179
G1 X148.129 Y26.521 E.01673
G1 X148.647 Y26.598 E.01644
G1 X149.155 Y26.72 E.01637
G1 X149.752 Y26.926 E.01981
G1 X150.325 Y27.193 E.01981
G1 X150.775 Y27.458 E.01637
G1 X151.199 Y27.761 E.01636
G1 X151.676 Y28.175 E.01981
G1 X152.107 Y28.637 E.01981
G1 X152.423 Y29.049 E.01628
G1 X152.76 Y29.587 E.01989
G1 X152.991 Y30.052 E.01628
G1 X153.218 Y30.643 E.01985
G1 X153.404 Y31.392 E.02419
G1 X153.486 Y32.031 E.02021
G1 X153.509 Y32.56 E.0166
G1 X153.512 Y147.597 E3.6069
G1 X153.479 Y148.129 E.01669
G1 X153.402 Y148.647 E.01644
G1 X153.28 Y149.155 E.01637
G1 X153.074 Y149.752 E.01981
G1 X152.808 Y150.324 E.01977
G1 X152.542 Y150.775 E.01641
G1 X152.238 Y151.202 E.01645
G1 X151.897 Y151.6 E.01644
G1 X151.525 Y151.966 E.01637
G1 X151.034 Y152.364 E.01981
G1 X150.506 Y152.707 E.01973
G1 X149.945 Y152.992 E.01973
G1 X149.358 Y153.218 E.01973
G1 X148.75 Y153.381 E.01973
G1 X148.128 Y153.479 E.01973
G1 X147.484 Y153.513 E.02024
G1 X32.403 Y153.512 E3.60828
G1 X31.872 Y153.479 E.01669
G1 X31.355 Y153.402 E.01636
G1 X30.74 Y153.249 E.01989
G1 X30.25 Y153.075 E.01629
G1 X29.676 Y152.808 E.01985
G1 X29.225 Y152.542 E.01641
G1 X28.798 Y152.238 E.01645
G1 X28.401 Y151.899 E.01637
G1 X27.963 Y151.444 E.01981
G1 X27.575 Y150.948 E.01973
G1 X27.242 Y150.415 E.01973
G1 X26.965 Y149.848 E.01977
G1 X26.783 Y149.36 E.01633
G1 X26.619 Y148.75 E.01981
G1 X26.521 Y148.128 E.01973
G1 X26.487 Y147.484 E.02024
G1 X26.488 Y32.403 E3.60828
G1 X26.52 Y31.874 E.01661
M73 P1 R108
G1 X26.619 Y31.249 E.01985
G1 X26.75 Y30.742 E.01641
G1 X26.925 Y30.248 E.01644
G1 X27.143 Y29.77 E.01644
G1 X27.4 Y29.316 E.01637
G1 X27.764 Y28.796 E.01989
G1 X28.101 Y28.402 E.01628
G1 X28.254 Y28.254 E.00666
M204 P1000
G1 X28.035 Y27.941 F9000
M204 P800
;TYPE:External perimeter
G1 F1200
G1 X28.308 Y27.678 E.0119
G1 X28.835 Y27.266 E.02097
G1 X29.403 Y26.911 E.021
G1 X29.9 Y26.663 E.01742
G1 X30.525 Y26.423 E.021
G1 X31.172 Y26.25 E.02097
G1 X31.833 Y26.145 E.021
G1 X32.391 Y26.111 E.01754
G1 X147.41 Y26.111 E3.60632
G1 X147.894 Y26.129 E.0152
G1 X148.457 Y26.188 E.01774
G1 X148.977 Y26.289 E.01661
G1 X149.577 Y26.467 E.01963
G1 X150.236 Y26.735 E.02231
G1 X150.752 Y27.007 E.01826
G1 X151.196 Y27.295 E.0166
G1 X151.686 Y27.684 E.01963
G1 X152.206 Y28.19 E.02274
G1 X152.565 Y28.614 E.0174
G1 X152.942 Y29.167 E.021
G1 X153.213 Y29.652 E.01741
G1 X153.472 Y30.253 E.02051
G1 X153.655 Y30.807 E.01831
G1 X153.774 Y31.323 E.01661
G1 X153.861 Y31.999 E.02135
G1 X153.886 Y32.56 E.01763
G1 X153.889 Y147.609 E3.60726
G1 X153.855 Y148.168 E.01757
G1 X153.772 Y148.719 E.01747
G1 X153.642 Y149.26 E.01745
G1 X153.424 Y149.894 E.021
G1 X153.142 Y150.499 E.02096
G1 X152.859 Y150.98 E.01749
G1 X152.535 Y151.434 E.01748
G1 X152.173 Y151.858 E.01748
G1 X151.776 Y152.248 E.01745
G1 X151.256 Y152.669 E.021
G1 X150.695 Y153.034 E.02097
G1 X150.099 Y153.337 E.02097
G1 X149.475 Y153.577 E.02097
G1 X148.828 Y153.75 E.02097
G1 X148.168 Y153.855 E.02097
G1 X147.494 Y153.89 E.02117
G1 X32.391 Y153.889 E3.60895
G1 X31.832 Y153.855 E.01756
G1 X31.282 Y153.773 E.01745
G1 X30.631 Y153.61 E.02103
G1 X30.107 Y153.425 E.01742
G1 X29.501 Y153.142 E.02098
G1 X29.02 Y152.859 E.01749
G1 X28.566 Y152.535 E.01748
G1 X28.143 Y152.174 E.01745
G1 X27.678 Y151.692 E.021
G1 X27.266 Y151.165 E.02097
G1 X26.911 Y150.598 E.02097
G1 X26.618 Y149.997 E.02096
G1 X26.423 Y149.475 E.01746
G1 X26.25 Y148.828 E.021
G1 X26.145 Y148.168 E.02097
G1 X26.11 Y147.494 E.02117
G1 X26.111 Y32.391 E3.60895
G1 X26.145 Y31.833 E.01754
M73 P1 R107
G1 X26.25 Y31.172 E.02098
G1 X26.389 Y30.632 E.01749
G1 X26.575 Y30.106 E.01748
G1 X26.807 Y29.599 E.01748
G1 X27.081 Y29.115 E.01745
G1 X27.465 Y28.565 E.02103
G1 X27.826 Y28.143 E.01742
G1 X27.992 Y27.983 E.00722
M204 P1000
G1 X28.402 Y28.038 F9000
G1 E-2.24 F4200
;WIPE_START
G1 F7200
G1 X28.308 Y27.678 E-.24352
G1 X28.835 Y27.266 E-.37064
G1 X29.291 Y26.981 E-.29784
;WIPE_END
G1 E-.048 F4200
G1 Z.4 F720
G1 X150.567 Y27.467 F9000
G1 Z.2 F720
G1 E3.2 F2400
M204 P800
;TYPE:Solid infill
;WIDTH:0.420551
G1 F1200
G1 X151.482 Y28.381 E.04059
G1 X151.891 Y28.82 E.01886
G1 X152.191 Y29.211 E.01545
G1 X152.513 Y29.726 E.01907
G1 X152.732 Y30.165 E.01542
G1 X149.85 Y27.283 E.12798
G1 X149.646 Y27.188 E.00705
G1 X149.008 Y26.976 E.02112
G1 X153.021 Y30.988 E.17818
G1 X153.082 Y31.211 E.00727
G1 X153.167 Y31.669 E.01461
G1 X148.336 Y26.838 E.21454
G1 X148.099 Y26.802 E.00752
G1 X147.746 Y26.782 E.01109
G1 X153.222 Y32.257 E.24315
G1 X153.226 Y32.796 E.01691
G1 X147.212 Y26.782 E.26706
G1 X146.678 Y26.782 E.01677
G1 X153.226 Y33.33 E.29078
G1 X153.226 Y33.864 E.01677
G1 X146.144 Y26.782 E.3145
G1 X145.61 Y26.782 E.01677
G1 X153.226 Y34.398 E.33822
G1 X153.226 Y34.932 E.01677
G1 X145.076 Y26.782 E.36193
G1 X144.542 Y26.782 E.01677
G1 X153.226 Y35.466 E.38565
G1 X153.226 Y36 E.01677
G1 X144.007 Y26.782 E.40937
G1 X143.473 Y26.781 E.01677
G1 X153.226 Y36.534 E.43309
G1 X153.226 Y37.068 E.01677
G1 X142.939 Y26.781 E.45681
G1 X142.405 Y26.781 E.01677
G1 X153.226 Y37.602 E.48053
G1 X153.226 Y38.136 E.01677
G1 X141.871 Y26.781 E.50424
G1 X141.337 Y26.781 E.01677
G1 X153.226 Y38.671 E.52796
G1 X153.226 Y39.205 E.01677
G1 X140.803 Y26.781 E.55168
G1 X140.269 Y26.781 E.01677
G1 X153.226 Y39.739 E.5754
G1 X153.226 Y40.273 E.01677
G1 X139.735 Y26.781 E.59912
G1 X139.201 Y26.781 E.01677
G1 X153.226 Y40.807 E.62283
G1 X153.226 Y41.341 E.01677
G1 X138.666 Y26.781 E.64655
G1 X138.132 Y26.781 E.01677
G1 X153.226 Y41.875 E.67027
G1 X153.226 Y42.409 E.01677
G1 X137.598 Y26.781 E.69399
G1 X137.064 Y26.781 E.01677
G1 X153.226 Y42.943 E.71771
G1 X153.226 Y43.477 E.01677
G1 X136.53 Y26.781 E.74143
G1 X135.996 Y26.781 E.01677
G1 X153.226 Y44.011 E.76514
G1 X153.226 Y44.545 E.01677
G1 X135.462 Y26.781 E.78886
G1 X134.928 Y26.781 E.01677
G1 X153.226 Y45.079 E.81258
G1 X153.226 Y45.613 E.01677
G1 X134.394 Y26.781 E.8363
G1 X133.86 Y26.781 E.01677
G1 X153.226 Y46.147 E.86002
G1 X153.226 Y46.682 E.01677
G1 X133.325 Y26.78 E.88373
G1 X132.791 Y26.78 E.01677
G1 X153.226 Y47.216 E.90745
G1 X153.226 Y47.75 E.01677
G1 X132.257 Y26.78 E.93117
G1 X131.723 Y26.78 E.01677
G1 X153.227 Y48.284 E.95489
G1 X153.227 Y48.818 E.01677
G1 X131.189 Y26.78 E.97861
G1 X130.655 Y26.78 E.01677
G1 X153.227 Y49.352 E1.00233
G1 X153.227 Y49.886 E.01677
G1 X130.121 Y26.78 E1.02604
G1 X129.587 Y26.78 E.01677
G1 X153.227 Y50.42 E1.04976
G1 X153.227 Y50.954 E.01677
M73 P2 R107
G1 X129.053 Y26.78 E1.07348
G1 X128.519 Y26.78 E.01677
G1 X153.227 Y51.488 E1.0972
G1 X153.227 Y52.022 E.01677
G1 X127.984 Y26.78 E1.12092
G1 X127.45 Y26.78 E.01677
G1 X153.227 Y52.556 E1.14464
G1 X153.227 Y53.09 E.01677
G1 X126.916 Y26.78 E1.16835
G1 X126.382 Y26.78 E.01677
G1 X153.227 Y53.624 E1.19207
G1 X153.227 Y54.158 E.01677
G1 X125.848 Y26.78 E1.21579
G1 X125.314 Y26.78 E.01677
G1 X153.227 Y54.692 E1.23951
G1 X153.227 Y55.227 E.01677
G1 X124.78 Y26.78 E1.26323
G1 X124.246 Y26.78 E.01677
M73 P2 R106
G1 X153.227 Y55.761 E1.28694
G1 X153.227 Y56.295 E.01677
G1 X123.712 Y26.78 E1.31066
G1 X123.178 Y26.78 E.01677
G1 X153.227 Y56.829 E1.33438
G1 X153.227 Y57.363 E.01677
G1 X122.643 Y26.779 E1.3581
G1 X122.109 Y26.779 E.01677
G1 X153.227 Y57.897 E1.38182
G1 X153.227 Y58.431 E.01677
G1 X121.575 Y26.779 E1.40554
G1 X121.041 Y26.779 E.01677
G1 X153.227 Y58.965 E1.42925
G1 X153.227 Y59.499 E.01677
G1 X120.507 Y26.779 E1.45297
G1 X119.973 Y26.779 E.01677
G1 X153.227 Y60.033 E1.47669
G1 X153.227 Y60.567 E.01677
G1 X119.439 Y26.779 E1.50041
G1 X118.905 Y26.779 E.01677
G1 X153.227 Y61.101 E1.52413
G1 X153.227 Y61.635 E.01677
G1 X118.371 Y26.779 E1.54784
G1 X117.837 Y26.779 E.01677
G1 X153.227 Y62.169 E1.57156
G1 X153.227 Y62.703 E.01677
G1 X117.302 Y26.779 E1.59528
G1 X116.768 Y26.779 E.01677
G1 X153.227 Y63.238 E1.619
G1 X153.227 Y63.772 E.01677
G1 X116.234 Y26.779 E1.64272
G1 X115.7 Y26.779 E.01677
G1 X153.227 Y64.306 E1.66644
G1 X153.227 Y64.84 E.01677
G1 X115.166 Y26.779 E1.69015
G1 X114.632 Y26.779 E.01677
G1 X153.227 Y65.374 E1.71387
G1 X153.227 Y65.908 E.01677
G1 X114.098 Y26.779 E1.73759
G1 X113.564 Y26.779 E.01677
M73 P3 R106
G1 X153.227 Y66.442 E1.76131
G1 X153.227 Y66.976 E.01677
G1 X113.03 Y26.779 E1.78503
G1 X112.495 Y26.779 E.01677
G1 X153.227 Y67.51 E1.80875
G1 X153.227 Y68.044 E.01677
G1 X111.961 Y26.778 E1.83246
G1 X111.427 Y26.778 E.01677
M73 P3 R105
G1 X153.227 Y68.578 E1.85618
G1 X153.227 Y69.112 E.01677
G1 X110.893 Y26.778 E1.8799
G1 X110.359 Y26.778 E.01677
G1 X153.227 Y69.646 E1.90362
G1 X153.227 Y70.18 E.01677
G1 X109.825 Y26.778 E1.92734
G1 X109.291 Y26.778 E.01677
G1 X153.227 Y70.714 E1.95105
G1 X153.227 Y71.248 E.01677
G1 X108.757 Y26.778 E1.97477
G1 X108.223 Y26.778 E.01677
G1 X153.227 Y71.783 E1.99849
G1 X153.227 Y72.317 E.01677
G1 X107.689 Y26.778 E2.02221
G1 X107.154 Y26.778 E.01677
G1 X153.227 Y72.851 E2.04593
G1 X153.227 Y73.385 E.01677
G1 X106.62 Y26.778 E2.06965
G1 X106.086 Y26.778 E.01677
G1 X153.227 Y73.919 E2.09336
G1 X153.227 Y74.453 E.01677
G1 X105.552 Y26.778 E2.11708
G1 X105.018 Y26.778 E.01677
G1 X153.227 Y74.987 E2.1408
G1 X153.227 Y75.521 E.01677
G1 X104.484 Y26.778 E2.16452
G1 X103.95 Y26.778 E.01677
G1 X153.227 Y76.055 E2.18824
G1 X153.227 Y76.589 E.01677
G1 X103.416 Y26.778 E2.21195
G1 X102.882 Y26.778 E.01677
G1 X153.227 Y77.123 E2.23567
G1 X153.227 Y77.657 E.01677
M73 P4 R105
G1 X102.348 Y26.778 E2.25939
G1 X101.813 Y26.777 E.01677
M73 P4 R104
G1 X153.227 Y78.191 E2.28311
G1 X153.227 Y78.725 E.01677
G1 X101.279 Y26.777 E2.30683
G1 X100.745 Y26.777 E.01677
G1 X153.227 Y79.259 E2.33055
G1 X153.227 Y79.794 E.01677
G1 X100.211 Y26.777 E2.35426
G1 X99.677 Y26.777 E.01677
G1 X153.227 Y80.328 E2.37798
G1 X153.227 Y80.862 E.01677
G1 X99.143 Y26.777 E2.4017
G1 X98.609 Y26.777 E.01677
G1 X153.227 Y81.396 E2.42542
G1 X153.227 Y81.93 E.01677
G1 X98.075 Y26.777 E2.44914
G1 X97.541 Y26.777 E.01677
G1 X153.227 Y82.464 E2.47286
G1 X153.227 Y82.998 E.01677
G1 X97.007 Y26.777 E2.49657
G1 X96.472 Y26.777 E.01677
G1 X153.227 Y83.532 E2.52029
G1 X153.227 Y84.066 E.01677
G1 X95.938 Y26.777 E2.54401
G1 X95.404 Y26.777 E.01677
G1 X153.227 Y84.6 E2.56773
G1 X153.227 Y85.134 E.01677
G1 X94.87 Y26.777 E2.59145
G1 X94.336 Y26.777 E.01677
G1 X153.227 Y85.668 E2.61516
G1 X153.228 Y86.202 E.01677
M73 P5 R103
G1 X93.802 Y26.777 E2.63888
G1 X93.268 Y26.777 E.01677
G1 X153.228 Y86.736 E2.6626
G1 X153.228 Y87.27 E.01677
G1 X92.734 Y26.777 E2.68632
G1 X92.2 Y26.777 E.01677
G1 X153.228 Y87.805 E2.71004
G1 X153.228 Y88.339 E.01677
G1 X91.666 Y26.777 E2.73376
G1 X91.131 Y26.776 E.01677
G1 X153.228 Y88.873 E2.75747
G1 X153.228 Y89.407 E.01677
G1 X90.597 Y26.776 E2.78119
G1 X90.063 Y26.776 E.01677
G1 X153.228 Y89.941 E2.80491
G1 X153.228 Y90.475 E.01677
G1 X89.529 Y26.776 E2.82863
G1 X88.995 Y26.776 E.01677
G1 X153.228 Y91.009 E2.85235
G1 X153.228 Y91.543 E.01677
G1 X88.461 Y26.776 E2.87606
G1 X87.927 Y26.776 E.01677
G1 X153.228 Y92.077 E2.89978
G1 X153.228 Y92.611 E.01677
G1 X87.393 Y26.776 E2.9235
G1 X86.859 Y26.776 E.01677
G1 X153.228 Y93.145 E2.94722
G1 X153.228 Y93.679 E.01677
M73 P5 R102
G1 X86.325 Y26.776 E2.97094
G1 X85.79 Y26.776 E.01677
M73 P6 R102
G1 X153.228 Y94.213 E2.99466
G1 X153.228 Y94.747 E.01677
G1 X85.256 Y26.776 E3.01837
G1 X84.722 Y26.776 E.01677
G1 X153.228 Y95.281 E3.04209
G1 X153.228 Y95.815 E.01677
G1 X84.188 Y26.776 E3.06581
G1 X83.654 Y26.776 E.01677
G1 X153.228 Y96.35 E3.08953
G1 X153.228 Y96.884 E.01677
G1 X83.12 Y26.776 E3.11325
G1 X82.586 Y26.776 E.01677
G1 X153.228 Y97.418 E3.13697
G1 X153.228 Y97.952 E.01677
G1 X82.052 Y26.776 E3.16068
G1 X81.518 Y26.776 E.01677
G1 X153.228 Y98.486 E3.1844
G1 X153.228 Y99.02 E.01677
G1 X80.983 Y26.776 E3.20812
G1 X80.449 Y26.775 E.01677
G1 X153.228 Y99.554 E3.23184
G1 X153.228 Y100.088 E.01677
M73 P6 R101
G1 X79.915 Y26.775 E3.25556
G1 X79.381 Y26.775 E.01677
G1 X153.228 Y100.622 E3.27927
G1 X153.228 Y101.156 E.01677
M73 P7 R101
G1 X78.847 Y26.775 E3.30299
G1 X78.313 Y26.775 E.01677
G1 X153.228 Y101.69 E3.32671
G1 X153.228 Y102.224 E.01677
G1 X77.779 Y26.775 E3.35043
G1 X77.245 Y26.775 E.01677
G1 X153.228 Y102.758 E3.37415
G1 X153.228 Y103.292 E.01677
G1 X76.711 Y26.775 E3.39787
G1 X76.177 Y26.775 E.01677
G1 X153.228 Y103.826 E3.42158
G1 X153.228 Y104.361 E.01677
G1 X75.642 Y26.775 E3.4453
G1 X75.108 Y26.775 E.01677
G1 X153.228 Y104.895 E3.46902
G1 X153.228 Y105.429 E.01677
G1 X74.574 Y26.775 E3.49274
G1 X74.04 Y26.775 E.01677
M73 P7 R100
G1 X153.228 Y105.963 E3.51646
G1 X153.228 Y106.497 E.01677
G1 X73.506 Y26.775 E3.54018
G1 X72.972 Y26.775 E.01677
G1 X153.228 Y107.031 E3.56389
G1 X153.228 Y107.565 E.01677
M73 P8 R100
G1 X72.438 Y26.775 E3.58761
G1 X71.904 Y26.775 E.01677
G1 X153.228 Y108.099 E3.61133
G1 X153.228 Y108.633 E.01677
G1 X71.37 Y26.775 E3.63505
G1 X70.836 Y26.775 E.01677
G1 X153.228 Y109.167 E3.65877
G1 X153.228 Y109.701 E.01677
