; generated by PrusaSlicer 2.5.0+win64 on 2023-01-18 at 20:09:06 UTC


;
;

;
;
; 

; external perimeters extrusion width = 0.45mm
; perimeters extrusion width = 0.45mm
; infill extrusion width = 0.45mm
; solid infill extrusion width = 0.45mm
; top infill extrusion width = 0.40mm
; first layer extrusion width = 0.42mm

; external perimeters extrusion width = 0.45mm
; perimeters extrusion width = 0.45mm
; infill extrusion width = 0.45mm
; solid infill extrusion width = 0.45mm
; top infill extrusion width = 0.40mm
; first layer extrusion width = 0.42mm

M73 P0 R47
M201 X2500 Y2500 Z400 E5000 ; sets maximum accelerations, mm/sec^2
M203 X180 Y180 Z12 E80 ; sets maximum feedrates, mm / sec
M204 P1250 R1250 T2500 ; sets acceleration (P, T) and retract acceleration (R), mm/sec^2
M205 X8.00 Y8.00 Z2.00 E10.00 ; sets the jerk limits, mm/sec
M205 S0 T0 ; sets the minimum extruding and travel feed rate, mm/sec
M107
;TYPE:Custom
M862.3 P "MINI" ; printer model check
G90 ; use absolute coordinates
M83 ; extruder relative mode
M104 S170 ; set extruder temp for bed leveling
M140 S60 ; set bed temp
M109 R170 ; wait for bed leveling temp
M190 S60 ; wait for bed temp
M204 T1250 ; set travel acceleration
G28 ; home all without mesh bed level
G29 ; mesh bed leveling 
M204 T2500 ; restore travel acceleration
M104 S215 ; set extruder temp
G92 E0
G1 Y-2 X179 F2400
G1 Z3 F720
M109 S215 ; wait for extruder temp

; intro line
G1 X170 F1000
G1 Z0.2 F720
G1 X110 E8 F900
G1 X40 E10 F700
G92 E0

M221 S95 ; set flow
G21 ; set units to millimeters
G90 ; use absolute coordinates
M83 ; use relative distances for extrusion
M900 K0.2 ; Filament gcode LA 1.5
; ; Filament gcode LA 1.0
M107
;LAYER_CHANGE
;Z:0.2
;HEIGHT:0.2
;BEFORE_LAYER_CHANGE
G92 E0.0
;0.2


G1 E-3.2 F4200
G1 Z.2 F720
;AFTER_LAYER_CHANGE
;0.2
G1 Z.4
G1 X68.076 Y54.108 F9000
G1 Z.2 F720
G1 E3.2 F2400
M204 P800
;TYPE:Skirt/Brim
;WIDTH:0.42
G1 F1200
G1 X69.121 Y53.232 E.04278
G1 X70.061 Y53.038 E.03008
G1 X85.939 Y53.038 E.49784
G1 X87.137 Y53.362 E.0389
G1 X111.137 Y67.362 E.87118
G1 X112.068 Y68.359 E.04278
G1 X112.316 Y69.415 E.03402
G1 X112.316 Y124.585 E1.72982
G1 X111.924 Y125.892 E.04278
G1 X110.879 Y126.768 E.04278
G1 X109.939 Y126.962 E.03008
G1 X70.061 Y126.962 E1.25035
G1 X68.754 Y126.57 E.04278
G1 X67.878 Y125.525 E.04278
G1 X67.684 Y124.585 E.03008
G1 X67.684 Y55.415 E2.16878
G1 X68.058 Y54.165 E.0409
M204 P1000
; printing object Motor mount fix.STL id:0 copy 0
G1 E-2.24 F4200
;WIPE_START
G1 F7200
G1 X69.121 Y53.232 E-.78411
G1 X69.347 Y53.185 E-.12789
;WIPE_END
G1 E-.048 F4200
G1 Z.4 F720
G1 X85.63 Y70.18 F9000
G1 Z.2 F720
G1 E3.2 F2400
M204 P800
;TYPE:Perimeter
;WIDTH:0.419999
G1 F1200
G1 X85.718 Y70.202 E.00282
G1 X109.152 Y70.202 E.73477
G1 X109.152 Y74.415 E.13209
M73 P1 R47
G1 X109.152 Y78.628 E.13209
G1 X78.366 Y78.628 E.96527
;WIDTH:0.458503
G1 X77.847 Y78.609 E.01795
G1 X77.343 Y78.617 E.0174
;WIDTH:0.440933
G1 X76.605 Y78.628 E.02446
;WIDTH:0.419999
G1 X70.848 Y78.628 E.18049
G1 X70.848 Y56.202 E.70315
G1 X76.456 Y56.202 E.17583
;WIDTH:0.458503
G1 X76.975 Y56.221 E.01795
G1 X77.479 Y56.213 E.0174
;WIDTH:0.440934
G1 X78.217 Y56.202 E.02446
;WIDTH:0.419999
G1 X85.152 Y56.202 E.21743
G1 X85.154 Y69.689 E.42288
G1 X85.236 Y69.932 E.00804
G1 X85.444 Y70.131 E.00902
G1 X85.572 Y70.165 E.00417
M204 P1000
G1 X85.718 Y69.825 F9000
M204 P800
;TYPE:External perimeter
G1 F1200
G1 X109.529 Y69.825 E.74659
G1 X109.529 Y79.005 E.28783
G1 X70.471 Y79.005 E1.22463
G1 X70.471 Y55.825 E.72679
G1 X85.529 Y55.825 E.47213
G1 X85.529 Y69.636 E.43305
G1 X85.569 Y69.753 E.00386
G1 X85.664 Y69.799 E.00329
M204 P1000
G1 X85.821 Y70.211 F9000
G1 E-2.24 F4200
;WIPE_START
G1 F7200
G1 X87.309 Y69.801 E-.912
;WIPE_END
G1 E-.048 F4200
G1 Z.4 F720
G1 X75.953 Y77.677 F9000
G1 Z.2 F720
G1 E3.2 F2400
M204 P800
;TYPE:Perimeter
G1 F1200
G1 X75.628 Y77.356 E.01433
G1 X75.407 Y77.024 E.0125
G1 X75.246 Y76.659 E.0125
G1 X75.151 Y76.272 E.0125
G1 X75.125 Y75.875 E.0125
G1 X75.169 Y75.479 E.0125
G1 X75.28 Y75.096 E.0125
G1 X75.456 Y74.738 E.0125
G1 X75.692 Y74.417 E.0125
G1 X75.979 Y74.141 E.0125
G1 X76.311 Y73.92 E.0125
G1 X76.676 Y73.759 E.0125
G1 X77.063 Y73.664 E.0125
G1 X77.46 Y73.638 E.0125
G1 X77.856 Y73.682 E.0125
G1 X78.239 Y73.793 E.0125
G1 X78.597 Y73.969 E.0125
G1 X78.918 Y74.205 E.0125
G1 X79.194 Y74.492 E.0125
G1 X79.415 Y74.824 E.0125
G1 X79.625 Y75.373 E.01843
G1 X79.697 Y75.875 E.0159
G1 X79.653 Y76.369 E.01557
G1 X79.542 Y76.752 E.0125
G1 X79.366 Y77.11 E.0125
G1 X79.13 Y77.431 E.0125
G1 X78.843 Y77.707 E.0125
G1 X78.511 Y77.928 E.0125
;WIDTH:0.451706
G1 X77.861 Y78.182 E.02374
G1 X77.361 Y78.22 E.01704
;WIDTH:0.442213
G1 X76.963 Y78.177 E.0133
G1 X76.311 Y77.928 E.02317
;WIDTH:0.419999
G1 X76.002 Y77.712 E.01183
M204 P1000
G1 X76.022 Y77.225 F9000
M204 P800
;TYPE:External perimeter
G1 F1200
G1 X75.937 Y77.139 E.00379
G1 X75.749 Y76.865 E.01044
G1 X75.61 Y76.562 E.01044
G1 X75.527 Y76.24 E.01044
G1 X75.501 Y75.908 E.01044
G1 X75.533 Y75.576 E.01044
G1 X75.622 Y75.255 E.01044
G1 X75.765 Y74.955 E.01044
G1 X75.958 Y74.684 E.01044
G1 X76.196 Y74.45 E.01044
G1 X76.47 Y74.262 E.01044
G1 X76.773 Y74.123 E.01044
G1 X77.095 Y74.04 E.01044
G1 X77.427 Y74.014 E.01044
G1 X77.759 Y74.046 E.01044
G1 X78.08 Y74.135 E.01044
G1 X78.38 Y74.278 E.01044
G1 X78.651 Y74.471 E.01044
G1 X78.885 Y74.709 E.01044
G1 X79.073 Y74.983 E.01044
G1 X79.261 Y75.47 E.01636
G1 X79.321 Y75.908 E.01384
G1 X79.289 Y76.272 E.01147
G1 X79.2 Y76.593 E.01044
G1 X79.057 Y76.893 E.01044
G1 X78.864 Y77.164 E.01044
G1 X78.626 Y77.398 E.01044
G1 X78.352 Y77.586 E.01044
G1 X78.049 Y77.725 E.01044
G1 X77.727 Y77.808 E.01044
G1 X77.395 Y77.834 E.01044
G1 X77.063 Y77.802 E.01044
G1 X76.742 Y77.713 E.01044
G1 X76.442 Y77.57 E.01044
G1 X76.171 Y77.377 E.01044
G1 X76.064 Y77.268 E.00477
M204 P1000
G1 X75.906 Y77.26 F9000
G1 E-2.24 F4200
;WIPE_START
G1 F7200
G1 X75.937 Y77.139 E-.10022
G1 X75.749 Y76.865 E-.18452
G1 X75.61 Y76.562 E-.18453
G1 X75.527 Y76.24 E-.18451
G1 X75.501 Y75.908 E-.18452
G1 X75.514 Y75.775 E-.0737
;WIPE_END
G1 E-.048 F4200
G1 Z.4 F720
G1 X78.87 Y57.153 F9000
G1 Z.2 F720
G1 E3.2 F2400
M204 P800
;TYPE:Perimeter
G1 F1200
G1 X79.194 Y57.474 E.01431
G1 X79.415 Y57.806 E.0125
G1 X79.576 Y58.171 E.0125
G1 X79.671 Y58.558 E.0125
G1 X79.697 Y58.955 E.0125
G1 X79.653 Y59.351 E.0125
G1 X79.542 Y59.734 E.0125
G1 X79.366 Y60.092 E.0125
G1 X79.13 Y60.413 E.0125
G1 X78.843 Y60.689 E.0125
G1 X78.511 Y60.91 E.0125
G1 X78.146 Y61.071 E.0125
G1 X77.78 Y61.163 E.01185
G1 X77.362 Y61.192 E.01315
G1 X76.966 Y61.148 E.0125
G1 X76.583 Y61.037 E.0125
G1 X76.225 Y60.861 E.0125
G1 X75.904 Y60.625 E.0125
G1 X75.628 Y60.338 E.0125
G1 X75.407 Y60.006 E.0125
G1 X75.246 Y59.641 E.0125
G1 X75.151 Y59.254 E.0125
G1 X75.125 Y58.857 E.0125
G1 X75.169 Y58.461 E.0125
G1 X75.28 Y58.078 E.0125
G1 X75.456 Y57.72 E.0125
G1 X75.692 Y57.399 E.0125
G1 X75.979 Y57.123 E.0125
G1 X76.311 Y56.902 E.0125
;WIDTH:0.451707
G1 X76.961 Y56.648 E.02374
G1 X77.461 Y56.61 E.01704
;WIDTH:0.442213
G1 X77.859 Y56.653 E.0133
G1 X78.511 Y56.902 E.02317
;WIDTH:0.419999
G1 X78.821 Y57.118 E.01184
M204 P1000
G1 X78.327 Y57.235 F9000
M204 P800
;TYPE:External perimeter
G1 F1200
G1 X78.651 Y57.453 E.01227
G1 X78.885 Y57.691 E.01044
G1 X79.073 Y57.965 E.01044
G1 X79.212 Y58.268 E.01044
G1 X79.295 Y58.59 E.01044
G1 X79.321 Y58.922 E.01044
G1 X79.289 Y59.254 E.01044
G1 X79.2 Y59.575 E.01044
G1 X79.057 Y59.875 E.01044
G1 X78.864 Y60.146 E.01044
G1 X78.626 Y60.38 E.01044
G1 X78.352 Y60.568 E.01044
G1 X78.049 Y60.707 E.01044
G1 X77.733 Y60.789 E.01022
G1 X77.395 Y60.816 E.01066
G1 X77.063 Y60.784 E.01044
G1 X76.742 Y60.695 E.01044
G1 X76.442 Y60.552 E.01044
G1 X76.171 Y60.359 E.01044
G1 X75.937 Y60.121 E.01044
G1 X75.749 Y59.847 E.01044
G1 X75.61 Y59.544 E.01044
G1 X75.527 Y59.222 E.01044
G1 X75.501 Y58.89 E.01044
G1 X75.533 Y58.558 E.01044
G1 X75.622 Y58.237 E.01044
G1 X75.765 Y57.937 E.01044
G1 X75.958 Y57.666 E.01044
G1 X76.196 Y57.432 E.01044
G1 X76.47 Y57.244 E.01044
G1 X76.773 Y57.105 E.01044
G1 X77.095 Y57.022 E.01044
G1 X77.427 Y56.996 E.01044
G1 X77.759 Y57.028 E.01044
G1 X78.08 Y57.117 E.01044
G1 X78.273 Y57.209 E.0067
M204 P1000
G1 X78.664 Y57.035 F9000
G1 E-2.24 F4200
;WIPE_START
G1 F7200
G1 X78.651 Y57.453 E-.24982
G1 X78.885 Y57.691 E-.18452
G1 X79.073 Y57.965 E-.18452
G1 X79.212 Y58.268 E-.18453
G1 X79.261 Y58.458 E-.10861
;WIPE_END
G1 E-.048 F4200
G1 Z.4 F720
G1 X108.268 Y70.315 F9000
G1 Z.2 F720
G1 E3.2 F2400
M204 P800
;TYPE:Solid infill
;WIDTH:0.424039
G1 F1200
G1 X108.869 Y70.916 E.02694
G1 X108.869 Y71.455 E.01708
G1 X107.899 Y70.485 E.04349
G1 X107.36 Y70.485 E.01708
G1 X108.869 Y71.994 E.06765
G1 X108.869 Y72.533 E.01708
G1 X106.821 Y70.485 E.0918
G1 X106.282 Y70.485 E.01708
G1 X108.869 Y73.072 E.11596
G1 X108.869 Y73.611 E.01708
G1 X105.743 Y70.485 E.14011
G1 X105.204 Y70.485 E.01708
G1 X108.869 Y74.15 E.16427
G1 X108.869 Y74.689 E.01708
G1 X104.665 Y70.485 E.18843
G1 X104.126 Y70.485 E.01708
G1 X108.869 Y75.228 E.21258
G1 X108.869 Y75.767 E.01708
G1 X103.587 Y70.485 E.23674
G1 X103.048 Y70.485 E.01708
G1 X108.869 Y76.306 E.26089
G1 X108.869 Y76.845 E.01708
G1 X102.509 Y70.485 E.28505
G1 X101.97 Y70.485 E.01708
G1 X108.869 Y77.384 E.3092
G1 X108.869 Y77.923 E.01708
G1 X101.431 Y70.485 E.33336
G1 X100.892 Y70.485 E.01708
G1 X108.752 Y78.345 E.35227
G1 X108.213 Y78.345 E.01708
G1 X100.353 Y70.485 E.35227
G1 X99.814 Y70.485 E.01708
G1 X107.674 Y78.345 E.35227
G1 X107.135 Y78.345 E.01708
G1 X99.275 Y70.485 E.35227
G1 X98.736 Y70.485 E.01708
M73 P1 R46
G1 X106.596 Y78.345 E.35227
G1 X106.057 Y78.345 E.01708
G1 X98.197 Y70.485 E.35227
G1 X97.658 Y70.485 E.01708
G1 X105.518 Y78.345 E.35227
G1 X104.979 Y78.345 E.01708
G1 X97.119 Y70.485 E.35227
G1 X96.58 Y70.485 E.01708
G1 X104.44 Y78.345 E.35227
G1 X103.901 Y78.345 E.01708
G1 X96.041 Y70.485 E.35227
G1 X95.502 Y70.485 E.01708
G1 X103.362 Y78.345 E.35227
G1 X102.823 Y78.345 E.01708
G1 X94.963 Y70.485 E.35227
G1 X94.424 Y70.485 E.01708
G1 X102.284 Y78.345 E.35227
G1 X101.745 Y78.345 E.01708
G1 X93.885 Y70.485 E.35227
G1 X93.346 Y70.485 E.01708
G1 X101.206 Y78.345 E.35227
G1 X100.667 Y78.345 E.01708
M73 P2 R46
G1 X92.807 Y70.485 E.35227
G1 X92.268 Y70.485 E.01708
G1 X100.128 Y78.345 E.35227
G1 X99.589 Y78.345 E.01708
G1 X91.729 Y70.485 E.35227
G1 X91.19 Y70.485 E.01708
G1 X99.05 Y78.345 E.35227
G1 X98.511 Y78.345 E.01708
G1 X90.651 Y70.485 E.35227
G1 X90.112 Y70.485 E.01708
G1 X97.972 Y78.345 E.35227
G1 X97.433 Y78.345 E.01708
G1 X89.573 Y70.485 E.35227
G1 X89.034 Y70.485 E.01708
G1 X96.894 Y78.345 E.35227
G1 X96.356 Y78.345 E.01708
G1 X88.495 Y70.485 E.35227
G1 X87.956 Y70.485 E.01708
G1 X95.817 Y78.345 E.35227
G1 X95.278 Y78.345 E.01708
G1 X87.417 Y70.485 E.35227
G1 X86.878 Y70.485 E.01708
G1 X94.739 Y78.345 E.35227
G1 X94.2 Y78.345 E.01708
G1 X86.17 Y70.315 E.35987
M204 P1000
G1 E-2.24 F4200
;WIPE_START
G1 F7200
G1 X87.333 Y71.479 E-.912
;WIPE_END
G1 E-.048 F4200
G1 Z.4 F720
G1 X84.566 Y56.315 F9000
G1 Z.2 F720
G1 E3.2 F2400
M204 P800
G1 F1200
G1 X84.869 Y56.618 E.01357
G1 X84.869 Y57.157 E.01708
G1 X84.197 Y56.485 E.03012
G1 X83.658 Y56.485 E.01708
G1 X84.869 Y57.696 E.05428
G1 X84.869 Y58.235 E.01708
G1 X83.119 Y56.485 E.07844
G1 X82.58 Y56.485 E.01708
G1 X84.869 Y58.774 E.10259
G1 X84.869 Y59.313 E.01708
G1 X82.041 Y56.485 E.12675
G1 X81.502 Y56.485 E.01708
G1 X84.869 Y59.852 E.1509
G1 X84.869 Y60.391 E.01708
G1 X80.963 Y56.485 E.17506
G1 X80.424 Y56.485 E.01708
G1 X84.869 Y60.93 E.19921
G1 X84.869 Y61.469 E.01708
G1 X79.885 Y56.485 E.22337
G1 X79.346 Y56.485 E.01708
G1 X84.869 Y62.008 E.24752
G1 X84.869 Y62.547 E.01708
G1 X78.807 Y56.485 E.27168
G1 X78.356 Y56.485 E.01429
G1 X78.349 Y56.514 E.00095
G1 X78.754 Y56.716 E.01434
G1 X79.114 Y56.983 E.01419
G1 X79.422 Y57.307 E.01419
G1 X79.669 Y57.681 E.01419
G1 X79.827 Y58.043 E.01252
G1 X84.869 Y63.086 E.22599
G1 X84.869 Y63.625 E.01708
G1 X79.964 Y58.719 E.21985
G1 X79.979 Y58.974 E.00809
G1 X79.948 Y59.243 E.00858
G1 X84.869 Y64.164 E.22053
G1 X84.869 Y64.703 E.01708
G1 X79.85 Y59.684 E.22495
G1 X79.801 Y59.847 E.00541
G1 X79.697 Y60.07 E.00779
G1 X84.869 Y65.242 E.23178
G1 X84.869 Y65.781 E.01708
G1 X79.49 Y60.402 E.24107
G1 X79.422 Y60.505 E.0039
G1 X79.243 Y60.694 E.00826
G1 X84.869 Y66.32 E.25215
G1 X84.869 Y66.859 E.01708
G1 X78.957 Y60.946 E.26498
G1 X78.754 Y61.096 E.00798
G1 X78.63 Y61.158 E.00441
G1 X84.869 Y67.398 E.27964
G1 X84.869 Y67.937 E.01708
G1 X78.256 Y61.324 E.29637
G1 X77.834 Y61.441 E.01387
G1 X84.869 Y68.476 E.31528
G1 X84.869 Y69.015 E.01708
G1 X77.131 Y61.277 E.3468
M204 P1000
G1 E-2.24 F4200
;WIPE_START
G1 F7200
G1 X78.295 Y62.44 E-.912
;WIPE_END
G1 E-.048 F4200
G1 Z.4 F720
G1 X76.378 Y56.751 F9000
G1 Z.2 F720
G1 E3.2 F2400
M204 P800
G1 F1200
G1 X76.112 Y56.485 E.01192
G1 X75.573 Y56.485 E.01708
G1 X75.916 Y56.828 E.01538
G1 X75.708 Y56.983 E.00822
G1 X75.622 Y57.073 E.00395
G1 X75.034 Y56.485 E.02635
G1 X74.495 Y56.485 E.01708
G1 X75.367 Y57.357 E.03908
G1 X75.153 Y57.681 E.01233
G1 X73.956 Y56.485 E.05362
G1 X73.417 Y56.485 E.01708
G1 X74.989 Y58.057 E.07046
G1 X74.879 Y58.486 E.01403
G1 X72.878 Y56.485 E.08968
G1 X72.339 Y56.485 E.01708
G1 X75.034 Y59.179 E.12075
M204 P1000
G1 E-2.24 F4200
;WIPE_START
G1 F7200
G1 X73.87 Y58.015 E-.912
;WIPE_END
G1 E-.048 F4200
G1 Z.4 F720
G1 X71.631 Y56.315 F9000
G1 Z.2 F720
G1 E3.2 F2400
M204 P800
G1 F1200
G1 X74.955 Y59.64 E.14899
G1 X75.153 Y60.131 E.01679
G1 X75.4 Y60.505 E.01419
G1 X75.708 Y60.829 E.01419
G1 X76.068 Y61.096 E.01419
G1 X76.469 Y61.296 E.01419
G1 X76.672 Y61.356 E.00672
G1 X84.869 Y69.554 E.36738
G1 X84.914 Y69.913 E.01146
G1 X85.007 Y70.102 E.00668
G1 X85.194 Y70.306 E.00877
G1 X85.399 Y70.423 E.00748
G1 X85.555 Y70.47 E.00516
G1 X85.8 Y70.485 E.0078
G1 X93.661 Y78.345 E.35227
G1 X93.122 Y78.345 E.01708
G1 X71.261 Y56.485 E.9797
G1 X71.131 Y56.485 E.00413
G1 X71.131 Y56.893 E.01295
G1 X92.583 Y78.345 E.9614
G1 X92.044 Y78.345 E.01708
G1 X71.131 Y57.432 E.93724
G1 X71.131 Y57.971 E.01708
G1 X91.505 Y78.345 E.91308
G1 X90.966 Y78.345 E.01708
G1 X71.131 Y58.51 E.88893
G1 X71.131 Y59.049 E.01708
G1 X90.427 Y78.345 E.86477
G1 X89.888 Y78.345 E.01708
M73 P3 R46
G1 X71.131 Y59.588 E.84062
G1 X71.131 Y60.127 E.01708
G1 X89.349 Y78.345 E.81646
G1 X88.81 Y78.345 E.01708
G1 X71.131 Y60.666 E.79231
G1 X71.131 Y61.205 E.01708
G1 X88.271 Y78.345 E.76815
G1 X87.732 Y78.345 E.01708
G1 X71.131 Y61.744 E.744
G1 X71.131 Y62.283 E.01708
G1 X87.193 Y78.345 E.71984
G1 X86.654 Y78.345 E.01708
G1 X71.131 Y62.822 E.69569
G1 X71.131 Y63.361 E.01708
G1 X86.115 Y78.345 E.67153
G1 X85.576 Y78.345 E.01708
G1 X71.131 Y63.9 E.64737
G1 X71.131 Y64.439 E.01708
G1 X85.037 Y78.345 E.62322
G1 X84.498 Y78.345 E.01708
G1 X71.131 Y64.978 E.59906
G1 X71.131 Y65.517 E.01708
G1 X83.959 Y78.345 E.57491
G1 X83.42 Y78.345 E.01708
G1 X71.131 Y66.056 E.55075
G1 X71.131 Y66.595 E.01708
G1 X77.957 Y73.421 E.30593
G1 X77.848 Y73.39 E.00359
G1 X77.357 Y73.36 E.0156
G1 X71.131 Y67.134 E.27902
G1 X71.131 Y67.673 E.01708
G1 X76.872 Y73.414 E.2573
G1 X76.458 Y73.539 E.01371
G1 X71.131 Y68.212 E.23875
G1 X71.131 Y68.751 E.01708
G1 X76.099 Y73.719 E.22263
G1 X75.785 Y73.944 E.01224
G1 X71.131 Y69.29 E.20856
G1 X71.131 Y69.829 E.01708
G1 X75.511 Y74.209 E.19628
G1 X75.4 Y74.325 E.0051
G1 X75.276 Y74.513 E.00712
G1 X71.131 Y70.368 E.18576
G1 X71.131 Y70.907 E.01708
G1 X75.083 Y74.859 E.17713
G1 X74.975 Y75.109 E.00862
G1 X74.937 Y75.252 E.00469
G1 X71.131 Y71.446 E.17056
G1 X71.131 Y71.985 E.01708
G1 X74.859 Y75.713 E.16709
G1 X74.843 Y75.856 E.00455
G1 X74.868 Y76.261 E.01285
G1 X71.131 Y72.524 E.16746
G1 X71.131 Y73.063 E.01708
G1 X76.413 Y78.345 E.23673
G1 X75.874 Y78.345 E.01708
G1 X71.131 Y73.602 E.21258
G1 X71.131 Y74.141 E.01708
G1 X75.335 Y78.345 E.18842
G1 X74.796 Y78.345 E.01708
G1 X71.131 Y74.68 E.16427
G1 X71.131 Y75.219 E.01708
G1 X74.257 Y78.345 E.14011
G1 X73.718 Y78.345 E.01708
G1 X71.131 Y75.758 E.11595
G1 X71.131 Y76.297 E.01708
G1 X73.179 Y78.345 E.0918
G1 X72.64 Y78.345 E.01708
G1 X71.131 Y76.836 E.06764
G1 X71.131 Y77.375 E.01708
G1 X72.101 Y78.345 E.04349
G1 X71.562 Y78.345 E.01708
G1 X70.961 Y77.744 E.02694
