; generated by PrusaSlicer 2.5.0+win64 on 2022-10-26 at 16:08:52 UTC


;
;

;
;
; 

; external perimeters extrusion width = 0.45mm
; perimeters extrusion width = 0.45mm
; infill extrusion width = 0.45mm
; solid infill extrusion width = 0.45mm
; top infill extrusion width = 0.40mm
; first layer extrusion width = 0.42mm

M73 P0 R64
M201 X2500 Y2500 Z400 E5000 ; sets maximum accelerations, mm/sec^2
M203 X180 Y180 Z12 E80 ; sets maximum feedrates, mm / sec
M204 P1250 R1250 T2500 ; sets acceleration (P, T) and retract acceleration (R), mm/sec^2
M205 X8.00 Y8.00 Z2.00 E10.00 ; sets the jerk limits, mm/sec
M205 S0 T0 ; sets the minimum extruding and travel feed rate, mm/sec
M107
;TYPE:Custom
M862.3 P "MINI" ; printer model check
G90 ; use absolute coordinates
M83 ; extruder relative mode
M104 S170 ; set extruder temp for bed leveling
M140 S60 ; set bed temp
M109 R170 ; wait for bed leveling temp
M190 S60 ; wait for bed temp
M204 T1250 ; set travel acceleration
G28 ; home all without mesh bed level
G29 ; mesh bed leveling 
M204 T2500 ; restore travel acceleration
M104 S215 ; set extruder temp
G92 E0
G1 Y-2 X179 F2400
G1 Z3 F720
M109 S215 ; wait for extruder temp

; intro line
G1 X170 F1000
G1 Z0.2 F720
G1 X110 E8 F900
G1 X40 E10 F700
G92 E0

M221 S95 ; set flow
G21 ; set units to millimeters
G90 ; use absolute coordinates
M83 ; use relative distances for extrusion
M900 K0.2 ; Filament gcode LA 1.5
; ; Filament gcode LA 1.0
M107
;LAYER_CHANGE
;Z:0.2
;HEIGHT:0.2
;BEFORE_LAYER_CHANGE
G92 E0.0
;0.2


G1 E-3.2 F4200
G1 Z.2 F720
;AFTER_LAYER_CHANGE
;0.2
G1 Z.4
G1 X98.008 Y60.238 F9000
G1 Z.2 F720
G1 E3.2 F2400
M204 P800
;TYPE:Skirt/Brim
;WIDTH:0.42
G1 F1200
G1 X99.054 Y59.362 E.04278
G1 X99.994 Y59.168 E.03008
G1 X150.006 Y59.168 E1.56811
G1 X151.313 Y59.56 E.04278
G1 X152.19 Y60.605 E.04278
G1 X152.383 Y61.545 E.03008
G1 X152.383 Y148.455 E2.725
G1 X151.992 Y149.762 E.04278
G1 X150.946 Y150.638 E.04278
G1 X150.006 Y150.832 E.03008
G1 X99.994 Y150.832 E1.56811
G1 X98.687 Y150.44 E.04278
G1 X97.81 Y149.395 E.04278
G1 X97.617 Y148.455 E.03008
G1 X97.617 Y61.545 E2.725
G1 X97.991 Y60.295 E.0409
M204 P1000
; printing object Motor Attachment .STL id:0 copy 0
G1 E-2.24 F4200
;WIPE_START
G1 F7200
G1 X99.054 Y59.362 E-.78411
G1 X99.28 Y59.315 E-.12789
;WIPE_END
G1 E-.048 F4200
G1 Z.4 F720
G1 X111.77 Y119.795 F9000
G1 Z.2 F720
G1 E3.2 F2400
M204 P800
;TYPE:Perimeter
;WIDTH:0.419999
G1 F1200
G1 X111.752 Y119.683 E.00356
G1 X111.618 Y119.462 E.00808
G1 X111.349 Y119.309 E.00972
G1 X111.214 Y119.293 E.00425
G1 X106.274 Y119.297 E.1549
G1 X105.894 Y119.327 E.01193
G1 X106.222 Y119.128 E.01203
G1 X111.231 Y115.787 E.18878
G1 X114.336 Y115.787 E.09734
G1 X119.645 Y119.311 E.19979
G1 X119.33 Y119.297 E.00988
G1 X114.353 Y119.293 E.15604
G1 X114.219 Y119.309 E.00425
G1 X114.009 Y119.409 E.00728
G1 X113.88 Y119.549 E.00598
G1 X113.787 Y119.859 E.01013
G1 X113.787 Y124.676 E.15106
G1 X113.846 Y124.928 E.0081
G1 X113.952 Y125.075 E.00567
G1 X114.099 Y125.182 E.00569
G1 X114.353 Y125.242 E.00819
G1 X141.708 Y125.242 E.85769
;WIDTH:0.451655
G1 X141.966 Y125.258 E.0088
;WIDTH:0.483311
G1 X142.225 Y125.274 E.00948
G1 X142.726 Y125.265 E.01836
;WIDTH:0.46598
G1 X143.452 Y125.242 E.02554
;WIDTH:0.419999
G1 X149.219 Y125.242 E.18083
G1 X149.219 Y127.422 E.06836
G1 X149.219 Y147.668 E.63479
G1 X143.605 Y147.668 E.17604
;WIDTH:0.451654
G1 X143.346 Y147.652 E.0088
;WIDTH:0.483308
G1 X143.088 Y147.636 E.00948
G1 X142.587 Y147.645 E.01836
;WIDTH:0.46598
G1 X141.861 Y147.668 E.02554
;WIDTH:0.419999
G1 X100.781 Y147.668 E1.28803
G1 X100.781 Y125.242 E.70315
G1 X111.254 Y125.241 E.32837
M73 P1 R64
G1 X111.53 Y125.146 E.00915
G1 X111.721 Y124.928 E.0091
G1 X111.78 Y124.676 E.0081
G1 X111.779 Y119.854 E.1512
M204 P1000
G1 X111.403 Y119.859 F9000
M204 P800
;TYPE:External perimeter
G1 F1200
G1 X111.349 Y119.726 E.00447
G1 X111.214 Y119.67 E.00458
G1 X106.274 Y119.674 E.1549
G1 X105.266 Y119.765 E.03174
G1 X104.789 Y119.87 E.01531
G1 X104.079 Y119.87 E.02225
G1 X104.689 Y119.465 E.02294
G1 X105.57 Y119.08 E.03017
G1 X106.013 Y118.814 E.0162
G1 X111.117 Y115.41 E.19236
G1 X114.45 Y115.41 E.1045
G1 X119.702 Y118.909 E.19787
G1 X120.148 Y119.166 E.01615
G1 X121.045 Y119.574 E.03089
G1 X121.489 Y119.87 E.01674
G1 X120.775 Y119.87 E.0224
G1 X119.84 Y119.7 E.02978
G1 X119.33 Y119.674 E.01603
G1 X114.353 Y119.67 E.15604
G1 X114.238 Y119.709 E.00379
G1 X114.164 Y119.859 E.00524
G1 X114.164 Y124.676 E.15106
G1 X114.219 Y124.809 E.00451
G1 X114.353 Y124.865 E.00454
G1 X149.596 Y124.865 E1.10503
G1 X149.596 Y148.045 E.72679
M73 P1 R63
G1 X100.404 Y148.045 E1.5424
G1 X100.404 Y124.865 E.72679
G1 X111.214 Y124.865 E.33896
G1 X111.348 Y124.809 E.00454
G1 X111.403 Y124.676 E.00451
G1 X111.403 Y119.919 E.14918
M204 P1000
G1 X111.505 Y119.758 F9000
G1 E-2.24 F4200
;WIPE_START
G1 F7200
G1 X111.349 Y119.726 E-.11055
G1 X111.214 Y119.67 E-.08096
G1 X109.914 Y119.671 E-.72049
;WIPE_END
G1 E-.048 F4200
G1 Z.4 F720
G1 X143.439 Y125.869 F9000
G1 Z.2 F720
G1 E3.2 F2400
M204 P800
;TYPE:Perimeter
;WIDTH:0.457676
G1 F1200
G1 X143.732 Y125.985 E.01086
;WIDTH:0.419999
G1 X144.131 Y126.265 E.0153
G1 X144.401 Y126.547 E.01222
G1 X144.617 Y126.871 E.01222
G1 X144.774 Y127.228 E.01222
G1 X144.867 Y127.612 E.01241
G1 X144.894 Y127.946 E.0105
G1 X144.85 Y128.383 E.01377
G1 X144.74 Y128.757 E.01222
G1 X144.568 Y129.107 E.01222
G1 X144.337 Y129.421 E.01222
G1 X144.056 Y129.69 E.01222
G1 X143.731 Y129.907 E.01222
G1 X143.375 Y130.064 E.01222
G1 X142.996 Y130.156 E.01222
G1 X142.607 Y130.182 E.01222
G1 X142.22 Y130.139 E.01222
G1 X141.845 Y130.03 E.01223
G1 X141.476 Y129.843 E.01298
G1 X141.103 Y129.549 E.01488
G1 X140.785 Y129.164 E.01568
G1 X140.538 Y128.664 E.01746
G1 X140.446 Y128.286 E.01222
G1 X140.421 Y127.897 E.01222
G1 X140.463 Y127.509 E.01222
G1 X140.572 Y127.135 E.01222
G1 X140.745 Y126.785 E.01222
G1 X140.975 Y126.471 E.01222
G1 X141.257 Y126.202 E.01222
G1 X141.581 Y125.985 E.01222
;WIDTH:0.445893
G1 X141.897 Y125.856 E.01143
;WIDTH:0.471787
G1 X142.213 Y125.728 E.01216
G1 X142.708 Y125.687 E.0177
;WIDTH:0.46598
G1 X143.098 Y125.735 E.01383
;WIDTH:0.457676
G1 X143.383 Y125.847 E.01057
M204 P1000
G1 X143.076 Y126.139 F9000
M204 P800
;TYPE:External perimeter
;WIDTH:0.419999
G1 F1200
G1 X143.308 Y126.204 E.00755
G1 X143.601 Y126.343 E.01017
G1 X143.865 Y126.532 E.01017
G1 X144.092 Y126.763 E.01017
G1 X144.275 Y127.03 E.01017
G1 X144.41 Y127.325 E.01017
G1 X144.492 Y127.645 E.01035
G1 X144.517 Y127.946 E.00947
G1 X144.485 Y128.285 E.01068
G1 X144.399 Y128.598 E.01017
G1 X144.259 Y128.89 E.01017
G1 X144.071 Y129.154 E.01017
G1 X143.839 Y129.381 E.01017
G1 X143.572 Y129.565 E.01017
G1 X143.277 Y129.7 E.01017
G1 X142.963 Y129.781 E.01017
G1 X142.64 Y129.806 E.01017
G1 X142.317 Y129.775 E.01017
G1 X142.005 Y129.688 E.01017
G1 X141.692 Y129.535 E.01093
G1 X141.37 Y129.282 E.01282
G1 X141.054 Y128.89 E.0158
G1 X140.903 Y128.567 E.01119
G1 X140.822 Y128.253 E.01017
G1 X140.796 Y127.93 E.01017
G1 X140.827 Y127.607 E.01017
G1 X140.914 Y127.294 E.01017
G1 X141.054 Y127.002 E.01017
G1 X141.242 Y126.738 E.01017
G1 X141.473 Y126.51 E.01017
G1 X141.74 Y126.327 E.01017
G1 X142.036 Y126.192 E.01017
G1 X142.349 Y126.111 E.01017
G1 X142.673 Y126.086 E.01017
G1 X143.018 Y126.123 E.01089
M204 P1000
G1 X143.234 Y125.958 F9000
G1 E-2.24 F4200
;WIPE_START
G1 F7200
G1 X143.308 Y126.204 E-.16669
G1 X143.601 Y126.343 E-.17969
G1 X143.865 Y126.532 E-.17969
G1 X144.092 Y126.763 E-.17969
G1 X144.275 Y127.03 E-.17969
G1 X144.295 Y127.074 E-.02655
;WIPE_END
G1 E-.048 F4200
G1 Z.4 F720
G1 X143.417 Y142.865 F9000
G1 Z.2 F720
G1 E3.2 F2400
M204 P800
;TYPE:Perimeter
G1 F1200
G1 X143.817 Y143.052 E.01384
G1 X144.131 Y143.283 E.01222
G1 X144.401 Y143.565 E.01222
G1 X144.617 Y143.889 E.01222
G1 X144.774 Y144.246 E.01222
G1 X144.867 Y144.624 E.01222
G1 X144.892 Y145.013 E.01222
G1 X144.85 Y145.401 E.01222
G1 X144.74 Y145.775 E.01222
G1 X144.568 Y146.125 E.01222
G1 X144.337 Y146.439 E.01222
G1 X144.056 Y146.708 E.01222
G1 X143.731 Y146.925 E.01222
;WIDTH:0.445892
G1 X143.416 Y147.054 E.01143
;WIDTH:0.471784
G1 X143.1 Y147.182 E.01216
G1 X142.605 Y147.223 E.0177
;WIDTH:0.46598
G1 X142.215 Y147.175 E.01383
;WIDTH:0.457671
G1 X141.581 Y146.925 E.0235
;WIDTH:0.419999
G1 X141.181 Y146.645 E.0153
G1 X140.912 Y146.363 E.01222
G1 X140.695 Y146.039 E.01222
G1 X140.538 Y145.682 E.01222
G1 X140.446 Y145.304 E.01222
G1 X140.421 Y144.915 E.01222
G1 X140.463 Y144.527 E.01222
G1 X140.572 Y144.153 E.01222
G1 X140.745 Y143.803 E.01222
G1 X141.061 Y143.403 E.01599
G1 X141.466 Y143.073 E.01637
G1 X141.581 Y143.003 E.00424
G1 X141.938 Y142.846 E.01222
G1 X142.317 Y142.754 E.01222
G1 X142.706 Y142.728 E.01222
G1 X143.093 Y142.771 E.01222
G1 X143.36 Y142.848 E.0087
M204 P1000
G1 X143.066 Y143.155 F9000
M204 P800
;TYPE:External perimeter
G1 F1200
G1 X143.308 Y143.222 E.00786
G1 X143.601 Y143.361 E.01017
G1 X143.865 Y143.55 E.01017
G1 X144.092 Y143.781 E.01017
G1 X144.275 Y144.048 E.01017
G1 X144.41 Y144.343 E.01017
G1 X144.491 Y144.657 E.01017
G1 X144.516 Y144.98 E.01017
G1 X144.485 Y145.303 E.01017
G1 X144.399 Y145.616 E.01017
G1 X144.259 Y145.908 E.01017
G1 X144.071 Y146.172 E.01017
G1 X143.839 Y146.4 E.01017
G1 X143.572 Y146.583 E.01017
G1 X143.277 Y146.718 E.01017
G1 X142.963 Y146.799 E.01017
G1 X142.64 Y146.824 E.01017
G1 X142.317 Y146.793 E.01017
G1 X142.005 Y146.706 E.01017
G1 X141.712 Y146.567 E.01017
G1 X141.448 Y146.378 E.01017
G1 X141.221 Y146.147 E.01017
G1 X141.037 Y145.88 E.01017
G1 X140.903 Y145.585 E.01017
G1 X140.822 Y145.271 E.01017
G1 X140.796 Y144.948 E.01017
G1 X140.827 Y144.625 E.01017
G1 X140.914 Y144.312 E.01017
G1 X141.054 Y144.02 E.01017
G1 X141.328 Y143.67 E.01393
G1 X141.725 Y143.353 E.01594
G1 X142.036 Y143.21 E.01071
G1 X142.35 Y143.129 E.01017
G1 X142.673 Y143.104 E.01017
G1 X143.009 Y143.139 E.01059
M204 P1000
G1 X143.231 Y142.965 F9000
G1 E-2.24 F4200
;WIPE_START
G1 F7200
G1 X143.308 Y143.222 E-.17219
G1 X143.601 Y143.361 E-.1797
G1 X143.865 Y143.55 E-.17968
G1 X144.092 Y143.781 E-.17969
G1 X144.275 Y144.048 E-.17969
G1 X144.291 Y144.083 E-.02105
;WIPE_END
G1 E-.048 F4200
G1 Z.4 F720
G1 X115.9 Y132.21 F9000
G1 Z.2 F720
G1 E3.2 F2400
M204 P800
;TYPE:Perimeter
G1 F1200
G1 X116.45 Y132.06 E.01788
G1 X117.851 Y131.807 E.04464
G1 X119.262 Y131.684 E.04439
G1 X120.693 Y131.683 E.04487
G1 X122.107 Y131.803 E.04451
G1 X123.424 Y132.036 E.04193
G1 X124.681 Y132.381 E.04088
G1 X125.83 Y132.839 E.03879
G1 X126.828 Y133.4 E.03588
G1 X127.608 Y134.016 E.03118
G1 X128.119 Y134.587 E.02403
G1 X128.451 Y135.119 E.01963
G1 X128.655 Y135.624 E.01709
G1 X128.759 Y136.115 E.01575
G1 X128.776 Y136.619 E.01581
G1 X128.695 Y137.147 E.01674
G1 X128.529 Y137.628 E.01596
G1 X128.25 Y138.136 E.01817
G1 X127.793 Y138.71 E.023
G1 X127.08 Y139.334 E.02971
G1 X126.109 Y139.932 E.03575
G1 X124.92 Y140.447 E.04064
G1 X123.673 Y140.818 E.04079
G1 X122.381 Y141.069 E.04126
G1 X120.925 Y141.216 E.04587
G1 X119.495 Y141.234 E.04485
G1 X118.126 Y141.137 E.04304
G1 X116.705 Y140.907 E.04513
G1 X115.904 Y140.696 E.02596
G1 X115.5 Y141.058 E.01698
G1 X114.749 Y141.543 E.02806
G1 X113.839 Y141.939 E.03108
G1 X112.876 Y142.173 E.03108
G1 X111.887 Y142.24 E.03108
G1 X110.931 Y142.14 E.03014
G1 X109.95 Y141.868 E.03192
G1 X109.053 Y141.438 E.03118
G1 X108.246 Y140.863 E.03108
G1 X107.548 Y140.158 E.03108
G1 X106.981 Y139.345 E.03108
G1 X106.561 Y138.447 E.03108
G1 X106.301 Y137.49 E.03108
G1 X106.208 Y136.503 E.03108
G1 X106.285 Y135.515 E.03108
G1 X106.528 Y134.559 E.03092
G1 X106.935 Y133.646 E.03134
G1 X107.487 Y132.827 E.03098
G1 X108.246 Y132.047 E.03411
G1 X108.97 Y131.522 E.02806
G1 X109.857 Y131.078 E.03108
G1 X110.806 Y130.792 E.03108
G1 X111.842 Y130.674 E.03269
G1 X112.776 Y130.722 E.02933
G1 X113.839 Y130.971 E.03425
G1 X114.663 Y131.321 E.02806
G1 X115.492 Y131.847 E.03078
G1 X115.855 Y132.17 E.01523
M204 P1000
G1 X115.798 Y132.629 F9000
M204 P800
;TYPE:External perimeter
G1 F1200
G1 X116.549 Y132.424 E.02443
G1 X117.884 Y132.183 E.04254
G1 X119.263 Y132.061 E.04338
G1 X120.646 Y132.058 E.04336
G1 X122.025 Y132.173 E.04342
G1 X123.307 Y132.396 E.04077
G1 X124.602 Y132.752 E.04212
G1 X125.689 Y133.189 E.03675
G1 X126.642 Y133.728 E.03431
G1 X127.372 Y134.31 E.02929
G1 X127.836 Y134.836 E.02197
G1 X128.128 Y135.314 E.01756
G1 X128.312 Y135.791 E.01605
G1 X128.394 Y136.33 E.01709
G1 X128.361 Y136.867 E.01688
G1 X128.194 Y137.446 E.01887
G1 X127.921 Y137.952 E.01804
G1 X127.501 Y138.471 E.02093
G1 X126.809 Y139.066 E.02862
G1 X125.913 Y139.61 E.03285
G1 X124.811 Y140.086 E.03764
G1 X123.601 Y140.448 E.03961
G1 X122.306 Y140.699 E.04137
G1 X120.92 Y140.839 E.04367
G1 X119.522 Y140.858 E.04384
G1 X118.152 Y140.76 E.04304
G1 X116.702 Y140.516 E.04613
G1 X115.8 Y140.279 E.02924
G1 X115.321 Y140.721 E.02042
G1 X114.635 Y141.167 E.02566
G1 X113.692 Y141.592 E.03243
G1 X112.79 Y141.806 E.02907
G1 X111.865 Y141.864 E.02907
G1 X110.973 Y141.766 E.02812
G1 X110.054 Y141.505 E.02996
G1 X109.219 Y141.1 E.0291
G1 X108.467 Y140.558 E.02907
G1 X107.818 Y139.895 E.02907
G1 X107.292 Y139.132 E.02906
G1 X106.904 Y138.29 E.02907
G1 X106.666 Y137.395 E.02907
G1 X106.584 Y136.471 E.02907
G1 X106.66 Y135.547 E.02907
G1 X106.892 Y134.655 E.0289
G1 X107.278 Y133.803 E.02933
G1 X107.798 Y133.04 E.02896
G1 X108.467 Y132.352 E.03007
G1 X109.192 Y131.827 E.02806
G1 X110.023 Y131.417 E.02907
G1 X110.912 Y131.154 E.02907
G1 X111.822 Y131.051 E.02874
G1 X112.757 Y131.099 E.02933
G1 X113.692 Y131.318 E.03012
G1 X114.515 Y131.668 E.02806
G1 X115.287 Y132.164 E.02876
G1 X115.753 Y132.588 E.01976
M204 P1000
G1 X116.01 Y132.29 F9000
G1 E-2.24 F4200
;WIPE_START
G1 F7200
G1 X116.549 Y132.424 E-.45044
G1 X117.369 Y132.276 E-.46156
;WIPE_END
G1 E-.048 F4200
G1 Z.4 F720
G1 X141.803 Y125.757 F9000
G1 Z.2 F720
G1 E3.2 F2400
M204 P800
;TYPE:Solid infill
;WIDTH:0.420511
G1 F1200
G1 X141.571 Y125.525 E.01031
G1 X141.037 Y125.525 E.01677
G1 X141.323 Y125.811 E.0127
G1 X141.016 Y126.038 E.01199
G1 X140.503 Y125.525 E.02279
G1 X139.969 Y125.525 E.01677
G1 X140.751 Y126.308 E.03476
G1 X140.683 Y126.38 E.00311
G1 X140.527 Y126.617 E.00893
G1 X139.435 Y125.525 E.04849
G1 X138.901 Y125.525 E.01677
G1 X140.345 Y126.969 E.06412
G1 X140.267 Y127.149 E.00616
G1 X140.213 Y127.372 E.00719
G1 X138.367 Y125.525 E.082
G1 X137.833 Y125.525 E.01677
G1 X140.149 Y127.841 E.10284
G1 X140.138 Y128.013 E.00541
G1 X140.188 Y128.414 E.0127
G1 X137.129 Y125.355 E.13583
M204 P1000
G1 E-2.24 F4200
;WIPE_START
G1 F7200
G1 X138.293 Y126.519 E-.912
;WIPE_END
G1 E-.048 F4200
G1 Z.4 F720
G1 X149.106 Y126.119 F9000
G1 Z.2 F720
G1 E3.2 F2400
M204 P800
G1 F1200
G1 X148.512 Y125.525 E.02636
G1 X147.978 Y125.525 E.01677
G1 X148.936 Y126.483 E.04254
G1 X148.936 Y127.017 E.01677
G1 X147.444 Y125.525 E.06625
G1 X146.91 Y125.525 E.01677
G1 X148.936 Y127.551 E.08996
G1 X148.936 Y128.085 E.01677
G1 X146.376 Y125.525 E.11367
G1 X145.842 Y125.525 E.01677
G1 X148.936 Y128.619 E.13738
G1 X148.936 Y129.153 E.01677
G1 X145.308 Y125.525 E.16109
G1 X144.774 Y125.525 E.01677
G1 X148.936 Y129.687 E.1848
G1 X148.936 Y130.221 E.01677
G1 X144.24 Y125.525 E.20851
G1 X143.707 Y125.525 E.01677
G1 X148.936 Y130.755 E.23222
G1 X148.936 Y131.289 E.01677
G1 X145.124 Y127.477 E.16926
G1 X145.148 Y127.576 E.00321
G1 X145.17 Y128.057 E.01511
G1 X148.936 Y131.823 E.16722
G1 X148.936 Y132.357 E.01677
G1 X145.1 Y128.52 E.17034
G1 X144.973 Y128.927 E.01339
G1 X148.936 Y132.891 E.17598
G1 X148.936 Y133.425 E.01677
G1 X144.786 Y129.275 E.18428
G1 X144.629 Y129.512 E.00895
G1 X144.562 Y129.584 E.00309
G1 X148.936 Y133.959 E.19425
G1 X148.936 Y134.493 E.01677
G1 X144.297 Y129.853 E.20599
G1 X143.99 Y130.081 E.01199
G1 X148.936 Y135.027 E.21961
G1 X148.936 Y135.561 E.01677
G1 X143.637 Y130.261 E.2353
G1 X143.234 Y130.392 E.0133
G1 X148.936 Y136.095 E.2532
G1 X148.936 Y136.629 E.01677
G1 X142.762 Y130.455 E.27415
G1 X142.64 Y130.467 E.00387
G1 X142.197 Y130.423 E.01397
G1 X148.936 Y137.163 E.29926
G1 X148.936 Y137.697 E.01677
G1 X136.765 Y125.525 E.54045
G1 X136.231 Y125.525 E.01677
G1 X148.936 Y138.231 E.56416
G1 X148.936 Y138.765 E.01677
