; generated by PrusaSlicer 2.5.2+win64 on 2023-05-11 at 20:02:08 UTC


;
;

;
;
; 

; external perimeters extrusion width = 0.45mm
; perimeters extrusion width = 0.45mm
; infill extrusion width = 0.45mm
; solid infill extrusion width = 0.45mm
; top infill extrusion width = 0.40mm
; first layer extrusion width = 0.42mm

M73 P0 R84
M201 X2500 Y2500 Z400 E5000 ; sets maximum accelerations, mm/sec^2
M203 X180 Y180 Z12 E80 ; sets maximum feedrates, mm / sec
M204 P1250 R1250 T2500 ; sets acceleration (P, T) and retract acceleration (R), mm/sec^2
M205 X8.00 Y8.00 Z2.00 E10.00 ; sets the jerk limits, mm/sec
M205 S0 T0 ; sets the minimum extruding and travel feed rate, mm/sec
M107
;TYPE:Custom
M862.3 P "MINI" ; printer model check
G90 ; use absolute coordinates
M83 ; extruder relative mode
M104 S170 ; set extruder temp for bed leveling
M140 S60 ; set bed temp
M109 R170 ; wait for bed leveling temp
M190 S60 ; wait for bed temp
M204 T1250 ; set travel acceleration
G28 ; home all without mesh bed level
G29 ; mesh bed leveling 
M204 T2500 ; restore travel acceleration
M104 S215 ; set extruder temp
G92 E0
G1 Y-2 X179 F2400
G1 Z3 F720
M109 S215 ; wait for extruder temp

; intro line
G1 X170 F1000
G1 Z0.2 F720
G1 X110 E8 F900
G1 X40 E10 F700
G92 E0

M221 S95 ; set flow
G21 ; set units to millimeters
G90 ; use absolute coordinates
M83 ; use relative distances for extrusion
M900 K0.2 ; Filament gcode LA 1.5
; ; Filament gcode LA 1.0
M107
;LAYER_CHANGE
;Z:0.2
;HEIGHT:0.2
;BEFORE_LAYER_CHANGE
G92 E0.0
;0.2


G1 E-3.2 F4200
G1 Z.2 F720
;AFTER_LAYER_CHANGE
;0.2
G1 Z.4
G1 X57.165 Y50.845 F9000
G1 Z.2 F720
G1 E3.2 F2400
M204 P800
;TYPE:Skirt/Brim
;WIDTH:0.42
G1 F1200
G1 X58.735 Y49.812 E.05893
G1 X88.735 Y44.483 E.95537
G1 X90.202 Y44.382 E.0461
G1 X91.265 Y44.483 E.03347
G1 X121.265 Y49.812 E.95537
G1 X122.484 Y50.426 E.04278
G1 X123.227 Y52.153 E.05893
G1 X123.227 Y127.849 E2.3734
G1 X122.835 Y129.156 E.04278
G1 X121.265 Y130.189 E.05893
G1 X91.265 Y135.517 E.95537
G1 X90.202 Y135.618 E.03346
G1 X88.735 Y135.517 E.0461
G1 X58.735 Y130.189 E.95537
G1 X57.516 Y129.575 E.04278
G1 X56.773 Y127.849 E.05893
G1 X56.773 Y52.153 E2.3734
G1 X57.148 Y50.903 E.0409
M204 P1000
; printing object Nano_Top.STL id:0 copy 0
G1 E-2.24 F4200
;WIPE_START
G1 F7200
G1 X58.504 Y49.971 E-.912
;WIPE_END
G1 E-.048 F4200
G1 Z.4 F720
G1 X85.892 Y52.896 F9000
G1 Z.2 F720
G1 E3.2 F2400
M204 P800
;TYPE:Perimeter
;WIDTH:0.419999
G1 F1200
G1 X85.904 Y52.826 E.00222
G1 X85.823 Y52.296 E.01681
G1 X85.791 Y51.616 E.02133
G1 X85.878 Y50.888 E.023
G1 X86.084 Y50.202 E.02246
G1 X86.403 Y49.56 E.02247
G1 X86.802 Y49.017 E.02113
G1 X87.185 Y48.638 E.01688
G1 X87.576 Y48.326 E.01569
G1 X88.033 Y48.034 E.01701
G1 X87.872 Y48.419 E.0131
G1 X87.769 Y48.761 E.01118
G1 X87.715 Y49.204 E.01398
G1 X87.74 Y49.597 E.01236
G1 X87.836 Y49.986 E.01256
G1 X87.995 Y50.349 E.01242
G1 X88.218 Y50.683 E.01257
G1 X88.492 Y50.97 E.01246
G1 X88.818 Y51.206 E.01261
G1 X89.172 Y51.38 E.01238
G1 X89.552 Y51.492 E.01243
G1 X89.949 Y51.537 E.01253
G1 X90.352 Y51.509 E.01266
G1 X90.778 Y51.401 E.01378
G1 X91.226 Y51.175 E.01572
G1 X91.683 Y50.791 E.01871
G1 X91.952 Y50.441 E.01386
G1 X92.097 Y50.15 E.01019
G1 X92.226 Y49.757 E.01296
G1 X92.287 Y49.303 E.01436
G1 X92.259 Y48.898 E.01273
G1 X92.163 Y48.512 E.01246
G1 X91.91 Y48.007 E.01772
G1 X92.058 Y48.077 E.00514
G1 X92.655 Y48.484 E.02266
G1 X93.172 Y48.981 E.02249
G1 X93.597 Y49.56 E.0225
G1 X93.916 Y50.201 E.02244
G1 X94.119 Y50.887 E.02244
G1 X94.208 Y51.63 E.02348
G1 X94.169 Y52.354 E.02272
G1 X94.099 Y52.924 E.018
G1 X94.187 Y53.164 E.00802
G1 X94.394 Y53.354 E.0088
G1 X94.661 Y53.42 E.00861
G1 X119.576 Y53.425 E.78119
G1 X119.576 Y126.575 E2.29359
G1 X94.561 Y126.589 E.78433
G1 X94.299 Y126.711 E.00905
G1 X94.14 Y126.926 E.00838
G1 X94.096 Y127.177 E.008
G1 X94.176 Y127.706 E.01676
G1 X94.208 Y128.37 E.02085
G1 X94.12 Y129.113 E.02347
G1 X93.916 Y129.799 E.02245
G1 X93.597 Y130.44 E.02244
G1 X93.172 Y131.019 E.0225
G1 X92.81 Y131.367 E.01576
G1 X92.424 Y131.674 E.01545
G1 X91.964 Y131.967 E.01711
G1 X92.128 Y131.581 E.01317
G1 X92.231 Y131.239 E.01118
G1 X92.287 Y130.801 E.01385
G1 X92.259 Y130.398 E.01266
G1 X92.164 Y130.014 E.0124
G1 X92.005 Y129.651 E.01242
G1 X91.782 Y129.317 E.01257
G1 X91.508 Y129.031 E.01244
G1 X91.187 Y128.795 E.01249
G1 X90.826 Y128.619 E.01258
G1 X90.387 Y128.495 E.01431
G1 X89.861 Y128.474 E.01649
G1 X89.308 Y128.576 E.01764
G1 X88.901 Y128.746 E.01382
G1 X88.604 Y128.942 E.01118
G1 X88.281 Y129.242 E.01382
G1 X88.049 Y129.558 E.01228
G1 X87.904 Y129.848 E.01019
G1 X87.774 Y130.243 E.01302
G1 X87.715 Y130.701 E.01449
G1 X87.74 Y131.097 E.01243
G1 X87.837 Y131.488 E.01262
G1 X88.091 Y131.993 E.01773
G1 X87.942 Y131.923 E.00515
G1 X87.345 Y131.516 E.02266
G1 X86.828 Y131.019 E.02249
G1 X86.403 Y130.44 E.0225
G1 X86.084 Y129.798 E.02247
G1 X85.878 Y129.112 E.02246
G1 X85.792 Y128.386 E.02293
G1 X85.829 Y127.657 E.02287
G1 X85.901 Y127.078 E.01832
G1 X85.801 Y126.819 E.00868
G1 X85.606 Y126.646 E.00819
G1 X85.339 Y126.58 E.00862
G1 X60.424 Y126.575 E.78119
G1 X60.424 Y53.425 E2.29359
G1 X85.339 Y53.42 E.78118
M73 P0 R83
G1 X85.439 Y53.411 E.00315
G1 X85.7 Y53.29 E.00903
G1 X85.86 Y53.074 E.0084
G1 X85.881 Y52.955 E.00381
M204 P1000
G1 X85.527 Y52.845 F9000
M204 P800
;TYPE:External perimeter
G1 F1200
G1 X85.448 Y52.334 E.01621
G1 X85.413 Y51.603 E.02296
G1 X85.508 Y50.811 E.025
G1 X85.732 Y50.062 E.02449
G1 X86.08 Y49.363 E.0245
G1 X86.543 Y48.732 E.02453
G1 X87.106 Y48.19 E.02451
G1 X87.714 Y47.776 E.02307
G1 X88.145 Y47.565 E.01506
;WIDTH:0.422583
G1 X88.625 Y47.362 E.01644
G1 X89.365 Y47.144 E.02436
;WIDTH:0.419747
G1 X89.9 Y47.075 E.0169
;WIDTH:0.417126
G1 X90.397 Y47.111 E.0155
;WIDTH:0.428308
G1 X91.017 Y47.248 E.02036
G1 X91.524 Y47.409 E.01704
;WIDTH:0.419999
G1 X92.246 Y47.749 E.02501
G1 X92.894 Y48.19 E.02459
G1 X93.457 Y48.732 E.02451
G1 X93.92 Y49.363 E.02453
G1 X94.268 Y50.062 E.02448
G1 X94.49 Y50.81 E.02448
G1 X94.587 Y51.618 E.02551
G1 X94.55 Y52.29 E.02108
G1 X94.475 Y52.825 E.01694
G1 X94.518 Y52.978 E.00499
G1 X94.661 Y53.043 E.00493
G1 X119.953 Y53.048 E.79301
G1 X119.953 Y78.34 E.79301
G1 X119.953 Y126.952 E1.52422
G1 X94.661 Y126.957 E.79301
M73 P1 R83
G1 X94.53 Y127.01 E.00443
G1 X94.473 Y127.156 E.00492
G1 X94.551 Y127.667 E.01621
G1 X94.587 Y128.383 E.02246
G1 X94.49 Y129.189 E.02547
G1 X94.268 Y129.938 E.02448
G1 X93.92 Y130.637 E.02448
G1 X93.457 Y131.268 E.02453
G1 X92.894 Y131.81 E.02451
G1 X92.285 Y132.224 E.02308
G1 X91.854 Y132.436 E.01507
;WIDTH:0.422498
G1 X91.378 Y132.637 E.01632
;WIDTH:0.435998
G1 X90.748 Y132.834 E.02157
G1 X90.025 Y132.927 E.02381
;WIDTH:0.430899
G1 X89.603 Y132.889 E.01368
;WIDTH:0.428761
G1 X88.984 Y132.753 E.02033
G1 X88.476 Y132.591 E.01711
;WIDTH:0.419999
G1 X87.754 Y132.251 E.02501
G1 X87.106 Y131.81 E.02459
G1 X86.543 Y131.268 E.02451
G1 X86.08 Y130.637 E.02453
G1 X85.732 Y129.938 E.0245
G1 X85.508 Y129.189 E.02449
G1 X85.413 Y128.399 E.02496
G1 X85.448 Y127.726 E.02112
G1 X85.525 Y127.176 E.01744
G1 X85.486 Y127.027 E.0048
G1 X85.339 Y126.957 E.00512
G1 X60.047 Y126.952 E.79301
G1 X60.047 Y53.048 E2.31723
G1 X85.339 Y53.043 E.793
G1 X85.47 Y52.99 E.00442
G1 X85.505 Y52.901 E.00302
M204 P1000
G1 X85.9 Y52.699 F9000
G1 E-2.24 F4200
;WIPE_START
G1 F7200
G1 X85.448 Y52.334 E-.3156
G1 X85.413 Y51.603 E-.40587
G1 X85.454 Y51.261 E-.19052
;WIPE_END
G1 E-.048 F4200
G1 Z.4 F720
G1 X89.063 Y47.637 F9000
G1 Z.2 F720
G1 E3.2 F2400
M204 P800
;WIDTH:0.428766
G1 F1200
G1 X89.414 Y47.518 E.01191
;WIDTH:0.419747
G1 X89.949 Y47.446 E.0169
;WIDTH:0.417126
G1 X90.327 Y47.474 E.01181
;WIDTH:0.428703
G1 X90.886 Y47.61 E.01843
G1 X91.254 Y47.837 E.0139
;WIDTH:0.419999
G1 X91.465 Y48.037 E.00908
G1 X91.66 Y48.311 E.01055
G1 X91.799 Y48.611 E.01039
G1 X91.883 Y48.933 E.01041
G1 X91.912 Y49.262 E.01038
G1 X91.862 Y49.659 E.01253
G1 X91.663 Y50.191 E.01781
G1 X91.44 Y50.502 E.012
G1 X90.983 Y50.886 E.01871
G1 X90.638 Y51.05 E.01198
G1 X90.318 Y51.134 E.01038
G1 X89.984 Y51.161 E.0105
G1 X89.651 Y51.128 E.0105
G1 X89.331 Y51.039 E.0104
G1 X88.827 Y50.754 E.01817
G1 X88.526 Y50.466 E.01303
G1 X88.246 Y49.993 E.01723
G1 X88.116 Y49.565 E.01402
G1 X88.091 Y49.235 E.01038
G1 X88.133 Y48.86 E.01184
G1 X88.212 Y48.58 E.00911
G1 X88.358 Y48.28 E.01046
G1 X88.56 Y48.009 E.01059
;WIDTH:0.422583
G1 X88.812 Y47.781 E.01074
;WIDTH:0.428766
G1 X89.011 Y47.667 E.00734
M204 P1000
G1 E-2.24 F4200
;WIPE_START
G1 F7200
G1 X89.414 Y47.518 E-.23841
G1 X89.949 Y47.446 E-.29894
G1 X90.327 Y47.474 E-.21037
G1 X90.615 Y47.544 E-.16428
;WIPE_END
G1 E-.048 F4200
G1 Z.4 F720
G1 X88.449 Y131.841 F9000
G1 Z.2 F720
G1 E3.2 F2400
M204 P800
;WIDTH:0.419999
G1 F1200
G1 X88.34 Y131.69 E.00584
G1 X88.201 Y131.389 E.01041
G1 X88.116 Y131.065 E.01048
G1 X88.091 Y130.733 E.01045
G1 X88.138 Y130.341 E.01238
G1 X88.337 Y129.809 E.01781
G1 X88.547 Y129.509 E.01149
G1 X88.819 Y129.252 E.01172
G1 X89.061 Y129.087 E.00917
G1 X89.377 Y128.947 E.01084
G1 X89.93 Y128.845 E.01764
G1 X90.349 Y128.872 E.01318
G1 X90.668 Y128.961 E.01037
G1 X91.161 Y129.237 E.01771
G1 X91.474 Y129.534 E.01352
G1 X91.755 Y130.008 E.01729
G1 X91.884 Y130.432 E.01389
G1 X91.911 Y130.766 E.0105
G1 X91.867 Y131.14 E.0118
G1 X91.788 Y131.42 E.00911
G1 X91.641 Y131.721 E.0105
G1 X91.441 Y131.988 E.01047
G1 X91.253 Y132.163 E.00806
;WIDTH:0.428886
G1 X90.886 Y132.39 E.01385
G1 X90.327 Y132.526 E.01844
;WIDTH:0.413357
G1 X89.719 Y132.532 E.01875
;WIDTH:0.429156
G1 X89.116 Y132.39 E.01988
G1 X88.747 Y132.163 E.01392
;WIDTH:0.419999
G1 X88.536 Y131.962 E.00915
G1 X88.484 Y131.89 E.00278
M204 P1000
G1 X88.265 Y131.867 F9000
G1 E-2.24 F4200
;WIPE_START
G1 F7200
G1 X88.34 Y131.69 E-.13647
G1 X88.201 Y131.389 E-.18395
G1 X88.116 Y131.065 E-.18521
G1 X88.091 Y130.733 E-.18463
G1 X88.138 Y130.341 E-.21876
G1 X88.14 Y130.336 E-.00298
;WIPE_END
G1 E-.048 F4200
G1 Z.4 F720
G1 X93.939 Y50.676 F9000
G1 Z.2 F720
G1 E3.2 F2400
M204 P800
;TYPE:Solid infill
;WIDTH:0.420592
G1 F1200
G1 X92.57 Y49.307 E.0608
G1 X92.54 Y49.635 E.01035
G1 X92.506 Y49.777 E.00458
G1 X93.864 Y51.136 E.06034
G1 X93.925 Y51.64 E.01594
G1 X93.92 Y51.725 E.00269
G1 X92.383 Y50.188 E.06826
G1 X92.259 Y50.474 E.00978
G1 X92.209 Y50.548 E.00282
G1 X94.049 Y52.389 E.08174
M204 P1000
G1 E-2.24 F4200
;WIPE_START
G1 F7200
G1 X92.885 Y51.225 E-.912
;WIPE_END
G1 E-.048 F4200
G1 Z.4 F720
G1 X87.606 Y49.15 F9000
G1 Z.2 F720
G1 E3.2 F2400
M204 P800
G1 F1200
G1 X87.338 Y48.883 E.01189
G1 X87.066 Y49.144 E.01186
G1 X87.65 Y49.728 E.02594
M204 P1000
G1 E-2.24 F4200
;WIPE_START
G1 F7200
G1 X87.066 Y49.144 E-.45768
G1 X87.338 Y48.883 E-.20933
G1 X87.606 Y49.15 E-.20979
;WIPE_END
G1 E-.0832 F4200
G1 Z.4 F720
G1 X119.463 Y54.301 F9000
G1 Z.2 F720
G1 E3.2 F2400
M204 P800
G1 F1200
G1 X118.869 Y53.707 E.02638
G1 X118.334 Y53.707 E.01678
G1 X119.293 Y54.666 E.04257
G1 X119.293 Y55.2 E.01677
G1 X117.8 Y53.707 E.06629
G1 X117.266 Y53.707 E.01678
G1 X119.293 Y55.734 E.09002
G1 X119.293 Y56.268 E.01677
G1 X116.732 Y53.707 E.11374
G1 X116.198 Y53.707 E.01678
G1 X119.293 Y56.802 E.13746
G1 X119.293 Y57.336 E.01677
G1 X115.663 Y53.707 E.16119
G1 X115.129 Y53.707 E.01678
G1 X119.293 Y57.87 E.18491
G1 X119.293 Y58.404 E.01677
G1 X114.595 Y53.707 E.20864
G1 X114.061 Y53.706 E.01678
G1 X119.293 Y58.938 E.23236
G1 X119.293 Y59.473 E.01677
G1 X113.527 Y53.706 E.25609
G1 X112.992 Y53.706 E.01678
G1 X119.293 Y60.007 E.27981
G1 X119.293 Y60.541 E.01677
G1 X112.458 Y53.706 E.30354
G1 X111.924 Y53.706 E.01678
G1 X119.293 Y61.075 E.32726
G1 X119.293 Y61.609 E.01677
G1 X111.39 Y53.706 E.35098
G1 X110.856 Y53.706 E.01678
G1 X119.293 Y62.143 E.37471
G1 X119.293 Y62.677 E.01677
G1 X110.321 Y53.706 E.39843
G1 X109.787 Y53.706 E.01678
G1 X119.293 Y63.211 E.42216
G1 X119.293 Y63.745 E.01677
G1 X109.253 Y53.706 E.44588
G1 X108.719 Y53.706 E.01678
G1 X119.293 Y64.28 E.46961
G1 X119.293 Y64.814 E.01677
G1 X108.185 Y53.705 E.49333
G1 X107.65 Y53.705 E.01678
G1 X119.293 Y65.348 E.51706
G1 X119.293 Y65.882 E.01677
G1 X107.116 Y53.705 E.54078
G1 X106.582 Y53.705 E.01678
G1 X119.293 Y66.416 E.56451
G1 X119.293 Y66.95 E.01677
G1 X106.048 Y53.705 E.58823
G1 X105.514 Y53.705 E.01678
G1 X119.293 Y67.484 E.61195
G1 X119.293 Y68.018 E.01677
G1 X104.979 Y53.705 E.63568
G1 X104.445 Y53.705 E.01678
G1 X119.293 Y68.552 E.6594
G1 X119.293 Y69.087 E.01677
G1 X103.911 Y53.705 E.68313
G1 X103.377 Y53.705 E.01678
G1 X119.293 Y69.621 E.70685
G1 X119.293 Y70.155 E.01677
G1 X102.843 Y53.705 E.73058
G1 X102.308 Y53.704 E.01678
G1 X119.293 Y70.689 E.7543
G1 X119.293 Y71.223 E.01677
G1 X101.774 Y53.704 E.77803
G1 X101.24 Y53.704 E.01678
G1 X119.293 Y71.757 E.80175
G1 X119.293 Y72.291 E.01677
G1 X100.706 Y53.704 E.82547
G1 X100.172 Y53.704 E.01678
G1 X119.293 Y72.825 E.8492
G1 X119.293 Y73.359 E.01677
G1 X99.637 Y53.704 E.87292
G1 X99.103 Y53.704 E.01678
G1 X119.293 Y73.894 E.89665
G1 X119.293 Y74.428 E.01677
G1 X98.569 Y53.704 E.92037
G1 X98.035 Y53.704 E.01678
G1 X119.293 Y74.962 E.9441
G1 X119.293 Y75.496 E.01677
G1 X97.501 Y53.704 E.96782
G1 X96.966 Y53.704 E.01678
G1 X119.293 Y76.03 E.99155
G1 X119.293 Y76.564 E.01677
G1 X96.432 Y53.703 E1.01527
G1 X95.898 Y53.703 E.01678
M73 P2 R83
G1 X119.293 Y77.098 E1.039
G1 X119.293 Y77.632 E.01677
M73 P2 R82
G1 X95.194 Y53.534 E1.07026
M204 P1000
G1 E-2.24 F4200
;WIPE_START
G1 F7200
G1 X96.358 Y54.697 E-.912
;WIPE_END
G1 E-.048 F4200
G1 Z.4 F720
G1 X91.87 Y50.744 F9000
G1 Z.2 F720
G1 E3.2 F2400
M204 P800
G1 F1200
G1 X93.833 Y52.706 E.08716
G1 X93.812 Y52.853 E.00467
G1 X93.834 Y53.049 E.00618
G1 X93.909 Y53.25 E.00674
G1 X94.07 Y53.465 E.00846
G1 X94.261 Y53.604 E.00742
G1 X94.503 Y53.689 E.00804
G1 X94.83 Y53.703 E.01027
G1 X119.293 Y78.166 E1.08644
G1 X119.293 Y78.7 E.01677
G1 X91.715 Y51.123 E1.22475
G1 X91.425 Y51.367 E.01191
G1 X119.293 Y79.235 E1.23765
G1 X119.293 Y79.769 E.01677
G1 X91.092 Y51.568 E1.25245
G1 X90.939 Y51.641 E.00533
G1 X90.699 Y51.709 E.00782
G1 X119.293 Y80.303 E1.26988
G1 X119.293 Y80.837 E.01677
G1 X90.255 Y51.799 E1.2896
G1 X90.001 Y51.822 E.00802
G1 X89.719 Y51.797 E.00889
G1 X119.293 Y81.371 E1.31342
G1 X119.293 Y81.905 E.01677
G1 X88.999 Y51.612 E1.34537
G1 X88.72 Y51.479 E.0097
G1 X88.403 Y51.263 E.01207
G1 X88.044 Y50.919 E.01559
G1 X87.741 Y50.475 E.01689
G1 X87.637 Y50.25 E.0078
G1 X86.836 Y49.448 E.03559
G1 X86.618 Y49.764 E.01206
G1 X119.293 Y82.439 E1.45114
G1 X119.293 Y82.973 E.01677
G1 X86.44 Y50.121 E1.45904
G1 X86.348 Y50.306 E.0065
G1 X86.289 Y50.503 E.00647
G1 X119.293 Y83.507 E1.46576
G1 X119.293 Y84.042 E.01677
G1 X86.166 Y50.914 E1.47122
G1 X86.104 Y51.386 E.01495
G1 X119.293 Y84.576 E1.47398
G1 X119.293 Y85.11 E.01677
G1 X86.088 Y51.905 E1.47467
G1 X86.105 Y52.267 E.01139
G1 X86.138 Y52.489 E.00706
G1 X119.293 Y85.644 E1.47243
G1 X119.293 Y86.178 E.01677
G1 X86.165 Y53.05 E1.47126
G1 X86.091 Y53.25 E.00669
G1 X85.979 Y53.399 E.00584
G1 X119.293 Y86.712 E1.4795
G1 X119.293 Y87.246 E.01677
G1 X85.676 Y53.629 E1.49299
G1 X85.47 Y53.694 E.00677
G1 X85.206 Y53.694 E.00828
G1 X119.293 Y87.78 E1.51382
G1 X119.293 Y88.314 E.01677
G1 X84.673 Y53.694 E1.53753
G1 X84.139 Y53.695 E.01676
G1 X119.293 Y88.849 E1.56124
G1 X119.293 Y89.383 E.01677
M73 P3 R82
G1 X83.605 Y53.695 E1.58495
G1 X83.071 Y53.695 E.01676
G1 X119.293 Y89.917 E1.60865
G1 X119.293 Y90.451 E.01677
G1 X82.537 Y53.695 E1.63236
G1 X82.004 Y53.696 E.01676
G1 X119.293 Y90.985 E1.65607
G1 X119.293 Y91.519 E.01677
M73 P3 R81
G1 X81.47 Y53.696 E1.67978
G1 X80.936 Y53.696 E.01676
G1 X119.293 Y92.053 E1.70348
G1 X119.293 Y92.587 E.01677
G1 X80.402 Y53.697 E1.72719
G1 X79.868 Y53.697 E.01676
G1 X119.293 Y93.121 E1.7509
G1 X119.293 Y93.656 E.01677
G1 X79.334 Y53.697 E1.77461
G1 X78.801 Y53.697 E.01676
G1 X119.293 Y94.19 E1.79831
G1 X119.293 Y94.724 E.01677
G1 X78.267 Y53.698 E1.82202
G1 X77.733 Y53.698 E.01676
G1 X119.293 Y95.258 E1.84573
G1 X119.293 Y95.792 E.01677
G1 X77.199 Y53.698 E1.86944
G1 X76.665 Y53.699 E.01676
G1 X119.293 Y96.326 E1.89314
G1 X119.293 Y96.86 E.01677
G1 X76.132 Y53.699 E1.91685
G1 X75.598 Y53.699 E.01676
G1 X119.293 Y97.394 E1.94056
G1 X119.293 Y97.928 E.01677
G1 X75.064 Y53.699 E1.96427
