; generated by PrusaSlicer 2.5.0+win64 on 2023-03-23 at 18:22:42 UTC


;
;

;
;
; 

; external perimeters extrusion width = 0.45mm
; perimeters extrusion width = 0.45mm
; infill extrusion width = 0.45mm
; solid infill extrusion width = 0.45mm
; top infill extrusion width = 0.40mm
; first layer extrusion width = 0.42mm

M73 P0 R170
M201 X2500 Y2500 Z400 E5000 ; sets maximum accelerations, mm/sec^2
M203 X180 Y180 Z12 E80 ; sets maximum feedrates, mm / sec
M204 P1250 R1250 T2500 ; sets acceleration (P, T) and retract acceleration (R), mm/sec^2
M205 X8.00 Y8.00 Z2.00 E10.00 ; sets the jerk limits, mm/sec
M205 S0 T0 ; sets the minimum extruding and travel feed rate, mm/sec
M107
;TYPE:Custom
M862.3 P "MINI" ; printer model check
G90 ; use absolute coordinates
M83 ; extruder relative mode
M104 S170 ; set extruder temp for bed leveling
M140 S60 ; set bed temp
M109 R170 ; wait for bed leveling temp
M190 S60 ; wait for bed temp
M204 T1250 ; set travel acceleration
G28 ; home all without mesh bed level
G29 ; mesh bed leveling 
M204 T2500 ; restore travel acceleration
M104 S215 ; set extruder temp
G92 E0
G1 Y-2 X179 F2400
G1 Z3 F720
M109 S215 ; wait for extruder temp

; intro line
G1 X170 F1000
G1 Z0.2 F720
G1 X110 E8 F900
G1 X40 E10 F700
G92 E0

M221 S95 ; set flow
G21 ; set units to millimeters
G90 ; use absolute coordinates
M83 ; use relative distances for extrusion
M900 K0.2 ; Filament gcode LA 1.5
; ; Filament gcode LA 1.0
M107
;LAYER_CHANGE
;Z:0.2
;HEIGHT:0.2
;BEFORE_LAYER_CHANGE
G92 E0.0
;0.2


G1 E-3.2 F4200
G1 Z.2 F720
;AFTER_LAYER_CHANGE
;0.2
G1 Z.4
G1 X60.949 Y73.84 F9000
G1 Z.2 F720
G1 E3.2 F2400
M204 P800
;TYPE:Skirt/Brim
;WIDTH:0.42
G1 F1200
G1 X61.53 Y73.409 E.0227
G1 X62.213 Y73.118 E.02327
G1 X63.126 Y72.982 E.02894
G1 X117.126 Y72.995 E1.69312
G1 X117.787 Y73.118 E.02109
G1 X118.394 Y73.366 E.02056
G1 X119.196 Y73.983 E.03174
G1 X119.811 Y74.911 E.03491
G1 X120.008 Y75.54 E.02067
G1 X120.068 Y76.036 E.01564
G1 X120.073 Y104.835 E.90298
G1 X119.681 Y106.142 E.04278
G1 X118.636 Y107.018 E.04278
G1 X117.696 Y107.212 E.03008
G1 X62.304 Y107.212 E1.73676
G1 X60.997 Y106.82 E.04278
G1 X60.121 Y105.775 E.04278
G1 X59.927 Y104.835 E.03008
G1 X59.932 Y76.036 E.90298
G1 X60.069 Y75.232 E.02556
G1 X60.406 Y74.499 E.0253
G1 X60.91 Y73.886 E.02488
M204 P1000
; printing object New Motor Mount.STL id:0 copy 0
G1 E-2.24 F4200
;WIPE_START
G1 F7200
G1 X61.53 Y73.409 E-.43356
G1 X62.213 Y73.118 E-.41136
G1 X62.333 Y73.1 E-.06707
;WIPE_END
G1 E-.048 F4200
G1 Z.4 F720
G1 X86.087 Y76.538 F9000
G1 Z.2 F720
G1 E3.2 F2400
M204 P800
;TYPE:Perimeter
;WIDTH:0.419999
G1 F1200
G1 X86.087 Y104.048 E.86257
G1 X63.483 Y104.048 E.70876
G1 X63.483 Y76.538 E.86257
G1 X86.027 Y76.538 E.70688
M204 P1000
G1 X86.465 Y76.244 F9000
M204 P800
;TYPE:External perimeter
G1 F1200
G1 X86.465 Y104.425 E.88358
G1 X63.105 Y104.425 E.73241
G1 X63.109 Y76.219 E.88439
G1 X63.168 Y76.16 E.0026
G1 X86.364 Y76.16 E.72731
G1 X86.431 Y76.194 E.00235
M204 P1000
G1 X86.264 Y76.59 F9000
G1 E-2.24 F4200
;WIPE_START
G1 F7200
G1 X86.433 Y77.84 E-.912
;WIPE_END
G1 E-.048 F4200
M73 P0 R169
G1 Z.4 F720
G1 X76.798 Y94.516 F9000
G1 Z.2 F720
G1 E3.2 F2400
M204 P800
;TYPE:Perimeter
G1 F1200
G1 X76.756 Y94.693 E.00569
G1 X76.599 Y94.883 E.00772
G1 X76.348 Y94.994 E.00862
G1 X76.251 Y95.002 E.00304
G1 X72.809 Y95.002 E.10795
G1 X72.555 Y94.942 E.00816
G1 X72.365 Y94.787 E.00769
G1 X72.251 Y94.534 E.0087
G1 X72.243 Y94.436 E.00307
G1 X72.243 Y86.374 E.25281
G1 X72.297 Y86.131 E.00779
G1 X72.434 Y85.95 E.0071
G1 X72.641 Y85.833 E.00746
G1 X72.809 Y85.808 E.00532
G1 X76.251 Y85.808 E.10795
G1 X76.516 Y85.874 E.00855
G1 X76.705 Y86.036 E.0078
G1 X76.809 Y86.28 E.00834
G1 X76.817 Y86.374 E.00293
G1 X76.812 Y94.458 E.25347
M204 P1000
G1 X76.44 Y94.436 F9000
M204 P800
;TYPE:External perimeter
G1 F1200
G1 X76.388 Y94.566 E.00438
G1 X76.251 Y94.625 E.00467
G1 X72.809 Y94.625 E.10795
G1 X72.661 Y94.553 E.00515
G1 X72.62 Y94.436 E.00388
G1 X72.62 Y86.374 E.25281
G1 X72.684 Y86.232 E.00485
G1 X72.78 Y86.187 E.00334
G1 X76.251 Y86.185 E.10884
G1 X76.385 Y86.24 E.00452
G1 X76.44 Y86.374 E.00452
G1 X76.44 Y94.376 E.25093
M204 P1000
G1 X76.54 Y94.534 F9000
G1 E-2.24 F4200
;WIPE_START
G1 F7200
G1 X76.388 Y94.566 E-.109
G1 X76.251 Y94.625 E-.0825
G1 X74.951 Y94.625 E-.7205
;WIPE_END
G1 E-.048 F4200
G1 Z.4 F720
G1 X85.21 Y76.651 F9000
G1 Z.2 F720
G1 E3.2 F2400
M204 P800
;TYPE:Solid infill
;WIDTH:0.421095
G1 F1200
G1 X85.805 Y77.246 E.02646
G1 X85.805 Y77.78 E.01682
G1 X84.845 Y76.82 E.04269
G1 X84.31 Y76.82 E.01682
G1 X85.805 Y78.315 E.06648
G1 X85.805 Y78.85 E.01682
G1 X83.775 Y76.82 E.09026
G1 X83.24 Y76.82 E.01682
G1 X85.805 Y79.385 E.11404
G1 X85.805 Y79.92 E.01682
G1 X82.705 Y76.82 E.13783
G1 X82.171 Y76.82 E.01682
G1 X85.805 Y80.454 E.16161
G1 X85.805 Y80.989 E.01682
G1 X81.636 Y76.82 E.1854
G1 X81.101 Y76.82 E.01682
G1 X85.805 Y81.524 E.20918
G1 X85.805 Y82.059 E.01682
G1 X80.566 Y76.82 E.23296
G1 X80.031 Y76.82 E.01682
G1 X85.805 Y82.594 E.25675
G1 X85.805 Y83.129 E.01682
G1 X79.496 Y76.82 E.28053
G1 X78.962 Y76.82 E.01682
G1 X85.805 Y83.663 E.30431
G1 X85.805 Y84.198 E.01682
G1 X78.427 Y76.82 E.3281
G1 X77.892 Y76.82 E.01682
G1 X85.805 Y84.733 E.35188
G1 X85.805 Y85.268 E.01682
G1 X77.357 Y76.82 E.37567
G1 X76.822 Y76.82 E.01682
G1 X85.805 Y85.803 E.39945
G1 X85.805 Y86.337 E.01682
G1 X76.288 Y76.82 E.42323
G1 X75.753 Y76.82 E.01682
G1 X85.805 Y86.872 E.44702
G1 X85.805 Y87.407 E.01682
G1 X75.218 Y76.82 E.4708
G1 X74.683 Y76.82 E.01682
G1 X85.805 Y87.942 E.49458
G1 X85.805 Y88.477 E.01682
G1 X74.148 Y76.82 E.51837
G1 X73.613 Y76.82 E.01682
G1 X85.805 Y89.012 E.54215
G1 X85.805 Y89.546 E.01682
G1 X73.079 Y76.82 E.56594
G1 X72.544 Y76.82 E.01682
G1 X85.805 Y90.081 E.58972
G1 X85.805 Y90.616 E.01682
G1 X72.009 Y76.82 E.6135
G1 X71.474 Y76.82 E.01682
G1 X85.805 Y91.151 E.63729
G1 X85.805 Y91.686 E.01682
G1 X70.939 Y76.82 E.66107
G1 X70.404 Y76.82 E.01682
G1 X85.805 Y92.221 E.68485
G1 X85.805 Y92.755 E.01682
G1 X69.87 Y76.82 E.70864
G1 X69.335 Y76.82 E.01682
G1 X85.805 Y93.29 E.73242
G1 X85.805 Y93.825 E.01682
G1 X68.8 Y76.82 E.7562
G1 X68.265 Y76.82 E.01682
G1 X85.805 Y94.36 E.77999
G1 X85.805 Y94.895 E.01682
G1 X67.73 Y76.82 E.80377
G1 X67.196 Y76.82 E.01682
G1 X75.909 Y85.534 E.3875
G1 X75.373 Y85.533 E.01687
G1 X66.661 Y76.82 E.38744
G1 X66.126 Y76.82 E.01682
G1 X74.837 Y85.531 E.38737
G1 X74.3 Y85.529 E.01687
G1 X65.591 Y76.82 E.3873
G1 X65.056 Y76.82 E.01682
G1 X73.764 Y85.528 E.38723
G1 X73.227 Y85.526 E.01687
G1 X64.521 Y76.82 E.38716
G1 X63.987 Y76.82 E.01682
G1 X72.706 Y85.54 E.38775
G1 X72.56 Y85.562 E.00463
G1 X72.439 Y85.61 E.00411
G1 X72.32 Y85.688 E.00448
G1 X63.765 Y77.134 E.38042
G1 X63.765 Y77.669 E.01682
G1 X72.065 Y85.968 E.3691
G1 X71.969 Y86.247 E.00927
G1 X71.968 Y86.407 E.00502
G1 X63.765 Y78.203 E.3648
G1 X63.765 Y78.738 E.01682
G1 X71.968 Y86.941 E.36477
G1 X71.967 Y87.475 E.0168
G1 X63.765 Y79.273 E.36475
G1 X63.765 Y79.808 E.01682
G1 X71.967 Y88.009 E.36472
G1 X71.966 Y88.544 E.0168
G1 X63.765 Y80.343 E.3647
G1 X63.765 Y80.878 E.01682
G1 X71.966 Y89.078 E.36467
G1 X71.965 Y89.612 E.0168
G1 X63.765 Y81.412 E.36465
G1 X63.765 Y81.947 E.01682
G1 X71.965 Y90.146 E.36462
G1 X71.964 Y90.681 E.0168
G1 X63.765 Y82.482 E.3646
G1 X63.765 Y83.017 E.01682
G1 X71.963 Y91.215 E.36458
G1 X71.963 Y91.749 E.0168
G1 X63.765 Y83.552 E.36455
G1 X63.765 Y84.086 E.01682
G1 X71.962 Y92.284 E.36453
G1 X71.962 Y92.818 E.0168
G1 X63.765 Y84.621 E.3645
G1 X63.765 Y85.156 E.01682
G1 X71.961 Y93.352 E.36448
G1 X71.961 Y93.886 E.0168
G1 X63.596 Y85.521 E.372
M204 P1000
G1 E-2.24 F4200
;WIPE_START
G1 F7200
G1 X64.759 Y86.685 E-.912
;WIPE_END
G1 E-.048 F4200
G1 Z.4 F720
G1 X76.93 Y86.555 F9000
G1 Z.2 F720
G1 E3.2 F2400
M204 P800
G1 F1200
G1 X85.805 Y95.429 E.39465
G1 X85.805 Y95.964 E.01682
G1 X77.1 Y87.259 E.38711
G1 X77.1 Y87.794 E.01682
G1 X85.805 Y96.499 E.38711
G1 X85.805 Y97.034 E.01682
G1 X77.1 Y88.329 E.38711
G1 X77.1 Y88.864 E.01682
G1 X85.805 Y97.569 E.38711
G1 X85.805 Y98.104 E.01682
G1 X77.1 Y89.399 E.38711
G1 X77.1 Y89.934 E.01682
G1 X85.805 Y98.638 E.38711
G1 X85.805 Y99.173 E.01682
G1 X77.1 Y90.468 E.38711
G1 X77.1 Y91.003 E.01682
G1 X85.805 Y99.708 E.38711
G1 X85.805 Y100.243 E.01682
G1 X77.1 Y91.538 E.38711
G1 X77.1 Y92.073 E.01682
G1 X85.805 Y100.778 E.38711
G1 X85.805 Y101.312 E.01682
G1 X77.1 Y92.608 E.38711
G1 X77.1 Y93.142 E.01682
G1 X85.805 Y101.847 E.38711
G1 X85.805 Y102.382 E.01682
G1 X77.1 Y93.677 E.38711
G1 X77.1 Y94.212 E.01682
G1 X85.805 Y102.917 E.38711
G1 X85.805 Y103.452 E.01682
G1 X77.057 Y94.704 E.38901
G1 X76.944 Y94.928 E.00789
G1 X76.847 Y95.029 E.0044
G1 X85.583 Y103.765 E.38849
G1 X85.048 Y103.765 E.01682
G1 X76.523 Y95.24 E.37913
G1 X76.259 Y95.285 E.00841
G1 X76.033 Y95.284 E.00713
G1 X84.514 Y103.765 E.37715
G1 X83.979 Y103.765 E.01682
G1 X75.497 Y95.283 E.37721
G1 X74.96 Y95.281 E.01686
G1 X83.444 Y103.765 E.37727
G1 X82.909 Y103.765 E.01682
G1 X74.424 Y95.28 E.37733
G1 X73.888 Y95.279 E.01686
G1 X82.374 Y103.765 E.3774
G1 X81.84 Y103.765 E.01682
G1 X73.182 Y95.107 E.38502
M204 P1000
G1 E-2.24 F4200
;WIPE_START
G1 F7200
G1 X74.345 Y96.271 E-.912
;WIPE_END
G1 E-.048 F4200
G1 Z.4 F720
G1 X81.474 Y103.935 F9000
G1 Z.2 F720
G1 E3.2 F2400
M204 P800
G1 F1200
G1 X72.815 Y95.276 E.38507
G1 X72.675 Y95.276 E.0044
G1 X72.428 Y95.196 E.00816
G1 X72.228 Y95.057 E.00766
G1 X72.069 Y94.854 E.00811
G1 X72.008 Y94.719 E.00466
G1 X71.96 Y94.421 E.0095
G1 X63.765 Y86.226 E.36443
G1 X63.765 Y86.761 E.01682
G1 X80.77 Y103.765 E.7562
M73 P0 R168
G1 X80.235 Y103.765 E.01682
G1 X63.765 Y87.295 E.73242
G1 X63.765 Y87.83 E.01682
G1 X79.7 Y103.765 E.70863
G1 X79.165 Y103.765 E.01682
G1 X63.765 Y88.365 E.68485
G1 X63.765 Y88.9 E.01682
G1 X78.631 Y103.765 E.66107
G1 X78.096 Y103.765 E.01682
G1 X63.765 Y89.435 E.63728
G1 X63.765 Y89.97 E.01682
M73 P1 R168
G1 X77.561 Y103.765 E.6135
G1 X77.026 Y103.765 E.01682
G1 X63.765 Y90.504 E.58971
G1 X63.765 Y91.039 E.01682
G1 X76.491 Y103.765 E.56593
G1 X75.956 Y103.765 E.01682
G1 X63.765 Y91.574 E.54215
G1 X63.765 Y92.109 E.01682
G1 X75.422 Y103.765 E.51836
G1 X74.887 Y103.765 E.01682
G1 X63.765 Y92.644 E.49458
G1 X63.765 Y93.178 E.01682
G1 X74.352 Y103.765 E.4708
G1 X73.817 Y103.765 E.01682
G1 X63.765 Y93.713 E.44701
G1 X63.765 Y94.248 E.01682
G1 X73.282 Y103.765 E.42323
G1 X72.748 Y103.765 E.01682
G1 X63.765 Y94.783 E.39944
G1 X63.765 Y95.318 E.01682
G1 X72.213 Y103.765 E.37566
G1 X71.678 Y103.765 E.01682
G1 X63.765 Y95.853 E.35188
G1 X63.765 Y96.387 E.01682
G1 X71.143 Y103.765 E.32809
G1 X70.608 Y103.765 E.01682
G1 X63.765 Y96.922 E.30431
G1 X63.765 Y97.457 E.01682
G1 X70.073 Y103.765 E.28053
G1 X69.539 Y103.765 E.01682
G1 X63.765 Y97.992 E.25674
G1 X63.765 Y98.527 E.01682
G1 X69.004 Y103.765 E.23296
G1 X68.469 Y103.765 E.01682
G1 X63.765 Y99.061 E.20917
G1 X63.765 Y99.596 E.01682
G1 X67.934 Y103.765 E.18539
G1 X67.399 Y103.765 E.01682
G1 X63.765 Y100.131 E.16161
G1 X63.765 Y100.666 E.01682
G1 X66.865 Y103.765 E.13782
G1 X66.33 Y103.765 E.01682
G1 X63.765 Y101.201 E.11404
G1 X63.765 Y101.736 E.01682
G1 X65.795 Y103.765 E.09026
G1 X65.26 Y103.765 E.01682
G1 X63.765 Y102.27 E.06647
G1 X63.765 Y102.805 E.01682
G1 X64.725 Y103.765 E.04269
G1 X64.19 Y103.765 E.01682
G1 X63.596 Y103.17 E.02645
M204 P1000
G1 E-2.24 F4200
;WIPE_START
G1 F7200
G1 X64.19 Y103.765 E-.46615
G1 X64.725 Y103.765 E-.29638
G1 X64.535 Y103.574 E-.14947
;WIPE_END
G1 E-.048 F4200
G1 Z.4 F720
G1 X93.913 Y104.048 F9000
G1 Z.2 F720
G1 E3.2 F2400
M204 P800
;TYPE:Perimeter
;WIDTH:0.419999
G1 F1200
G1 X93.913 Y76.538 E.86256
G1 X116.517 Y76.549 E.70876
G1 X116.517 Y104.048 E.8622
G1 X93.973 Y104.048 E.70688
M204 P1000
G1 X93.535 Y104.425 F9000
M204 P800
;TYPE:External perimeter
G1 F1200
G1 X93.535 Y76.232 E.88396
G1 X93.615 Y76.16 E.00337
G1 X116.85 Y76.172 E.7285
G1 X116.895 Y76.239 E.00252
G1 X116.895 Y104.425 E.88375
G1 X93.595 Y104.425 E.73053
M204 P1000
G1 X93.627 Y104.036 F9000
G1 E-2.24 F4200
;WIPE_START
G1 F7200
G1 X93.592 Y102.779 E-.912
;WIPE_END
G1 E-.048 F4200
G1 Z.4 F720
G1 X103.202 Y94.516 F9000
G1 Z.2 F720
G1 E3.2 F2400
M204 P800
;TYPE:Perimeter
G1 F1200
G1 X103.183 Y94.436 E.00258
G1 X103.183 Y86.374 E.25281
G1 X103.249 Y86.109 E.00855
G1 X103.411 Y85.92 E.0078
G1 X103.655 Y85.816 E.00834
G1 X103.749 Y85.808 E.00293
G1 X107.192 Y85.808 E.10796
G1 X107.436 Y85.864 E.00787
G1 X107.618 Y86.002 E.00715
G1 X107.732 Y86.208 E.00738
G1 X107.757 Y86.374 E.00526
G1 X107.757 Y94.436 E.25281
G1 X107.685 Y94.713 E.00895
G1 X107.516 Y94.9 E.00791
G1 X107.28 Y94.995 E.00798
G1 X107.191 Y95.002 E.00279
G1 X103.749 Y95.002 E.10795
G1 X103.475 Y94.932 E.00886
G1 X103.401 Y94.883 E.00279
G1 X103.244 Y94.693 E.00772
G1 X103.216 Y94.575 E.0038
M204 P1000
G1 X103.56 Y94.436 F9000
M204 P800
;TYPE:External perimeter
G1 F1200
G1 X103.56 Y86.374 E.25281
G1 X103.615 Y86.24 E.00452
G1 X103.749 Y86.185 E.00453
G1 X107.192 Y86.185 E.10795
G1 X107.334 Y86.25 E.00489
G1 X107.38 Y86.374 E.00415
G1 X107.38 Y94.436 E.25281
G1 X107.32 Y94.574 E.00471
G1 X107.191 Y94.625 E.00434
G1 X103.749 Y94.625 E.10795
G1 X103.633 Y94.585 E.00384
G1 X103.578 Y94.492 E.00339
M204 P1000
G1 X103.174 Y94.333 F9000
G1 E-2.24 F4200
;WIPE_START
G1 F7200
G1 X103.574 Y92.846 E-.912
;WIPE_END
G1 E-.048 F4200
G1 Z.4 F720
G1 X116.404 Y77.427 F9000
G1 Z.2 F720
G1 E3.2 F2400
M204 P800
;TYPE:Solid infill
;WIDTH:0.421006
G1 F1200
G1 X115.809 Y76.832 E.02646
G1 X115.274 Y76.831 E.01682
G1 X116.235 Y77.792 E.0427
G1 X116.235 Y78.326 E.01681
G1 X114.739 Y76.831 E.06648
G1 X114.204 Y76.831 E.01682
G1 X116.235 Y78.861 E.09026
G1 X116.235 Y79.396 E.01681
G1 X113.669 Y76.831 E.11405
G1 X113.134 Y76.83 E.01682
G1 X116.235 Y79.93 E.13783
G1 X116.235 Y80.465 E.01681
G1 X112.6 Y76.83 E.16162
G1 X112.065 Y76.83 E.01682
G1 X116.235 Y81 E.1854
G1 X116.235 Y81.535 E.01681
G1 X111.53 Y76.829 E.20919
G1 X110.995 Y76.829 E.01682
G1 X116.235 Y82.069 E.23297
G1 X116.235 Y82.604 E.01681
G1 X110.46 Y76.829 E.25676
G1 X109.925 Y76.829 E.01682
G1 X116.235 Y83.139 E.28054
G1 X116.235 Y83.673 E.01681
G1 X109.39 Y76.828 E.30433
G1 X108.855 Y76.828 E.01682
G1 X116.235 Y84.208 E.32811
G1 X116.235 Y84.743 E.01681
G1 X108.32 Y76.828 E.3519
G1 X107.785 Y76.828 E.01682
G1 X116.235 Y85.277 E.37568
G1 X116.235 Y85.812 E.01681
G1 X107.25 Y76.827 E.39946
G1 X106.715 Y76.827 E.01682
G1 X116.235 Y86.347 E.42325
G1 X116.235 Y86.881 E.01681
G1 X106.18 Y76.827 E.44703
G1 X105.645 Y76.826 E.01682
G1 X116.235 Y87.416 E.47082
G1 X116.235 Y87.951 E.01681
G1 X105.11 Y76.826 E.4946
G1 X104.575 Y76.826 E.01682
G1 X116.235 Y88.486 E.51839
G1 X116.235 Y89.02 E.01681
G1 X104.04 Y76.826 E.54217
G1 X103.505 Y76.825 E.01682
G1 X116.235 Y89.555 E.56596
G1 X116.235 Y90.09 E.01681
G1 X102.97 Y76.825 E.58974
G1 X102.435 Y76.825 E.01682
G1 X116.235 Y90.624 E.61353
G1 X116.235 Y91.159 E.01681
G1 X101.9 Y76.825 E.63731
G1 X101.365 Y76.824 E.01682
G1 X116.235 Y91.694 E.6611
G1 X116.235 Y92.228 E.01681
G1 X100.83 Y76.824 E.68488
G1 X100.295 Y76.824 E.01682
G1 X116.235 Y92.763 E.70866
G1 X116.235 Y93.298 E.01681
G1 X99.76 Y76.823 E.73245
G1 X99.225 Y76.823 E.01682
G1 X116.235 Y93.832 E.75623
G1 X116.235 Y94.367 E.01681
G1 X98.69 Y76.823 E.78002
G1 X98.155 Y76.823 E.01682
G1 X106.866 Y85.533 E.38725
G1 X106.33 Y85.531 E.01685
G1 X97.62 Y76.822 E.3872
G1 X97.086 Y76.822 E.01682
G1 X105.794 Y85.53 E.38716
G1 X105.258 Y85.529 E.01685
G1 X96.551 Y76.822 E.38711
G1 X96.016 Y76.822 E.01682
M73 P1 R167
G1 X104.722 Y85.527 E.38707
G1 X104.186 Y85.526 E.01685
G1 X95.481 Y76.821 E.38702
G1 X94.946 Y76.821 E.01682
G1 X103.663 Y85.538 E.38756
G1 X103.478 Y85.569 E.00587
G1 X103.348 Y85.625 E.00447
G1 X103.271 Y85.682 E.00299
G1 X94.411 Y76.821 E.39395
G1 X94.195 Y76.821 E.00677
G1 X94.195 Y77.14 E.01004
G1 X103.012 Y85.957 E.39199
G1 X102.944 Y86.104 E.00509
G1 X102.9 Y86.38 E.00878
G1 X94.195 Y77.675 E.38702
G1 X94.195 Y78.209 E.01681
G1 X102.9 Y86.914 E.38702
G1 X102.9 Y87.449 E.01681
G1 X94.195 Y78.744 E.38702
G1 X94.195 Y79.279 E.01681
G1 X102.9 Y87.984 E.38702
G1 X102.9 Y88.518 E.01681
G1 X94.195 Y79.814 E.38702
G1 X94.195 Y80.348 E.01681
G1 X102.9 Y89.053 E.38702
