; generated by PrusaSlicer 2.5.0+win64 on 2023-03-07 at 20:32:50 UTC


;
;

;
;
; 

; external perimeters extrusion width = 0.45mm
; perimeters extrusion width = 0.45mm
; infill extrusion width = 0.45mm
; solid infill extrusion width = 0.45mm
; top infill extrusion width = 0.40mm
; first layer extrusion width = 0.42mm

M73 P0 R81
M201 X2500 Y2500 Z400 E5000 ; sets maximum accelerations, mm/sec^2
M203 X180 Y180 Z12 E80 ; sets maximum feedrates, mm / sec
M204 P1250 R1250 T2500 ; sets acceleration (P, T) and retract acceleration (R), mm/sec^2
M205 X8.00 Y8.00 Z2.00 E10.00 ; sets the jerk limits, mm/sec
M205 S0 T0 ; sets the minimum extruding and travel feed rate, mm/sec
M107
;TYPE:Custom
M862.3 P "MINI" ; printer model check
G90 ; use absolute coordinates
M83 ; extruder relative mode
M104 S170 ; set extruder temp for bed leveling
M140 S60 ; set bed temp
M109 R170 ; wait for bed leveling temp
M190 S60 ; wait for bed temp
M204 T1250 ; set travel acceleration
G28 ; home all without mesh bed level
G29 ; mesh bed leveling 
M204 T2500 ; restore travel acceleration
M104 S215 ; set extruder temp
G92 E0
G1 Y-2 X179 F2400
G1 Z3 F720
M109 S215 ; wait for extruder temp

; intro line
G1 X170 F1000
G1 Z0.2 F720
G1 X110 E8 F900
G1 X40 E10 F700
G92 E0

M221 S95 ; set flow
G21 ; set units to millimeters
G90 ; use absolute coordinates
M83 ; use relative distances for extrusion
M900 K0.2 ; Filament gcode LA 1.5
; ; Filament gcode LA 1.0
M107
;LAYER_CHANGE
;Z:0.2
;HEIGHT:0.2
;BEFORE_LAYER_CHANGE
G92 E0.0
;0.2


G1 E-3.2 F4200
G1 Z.2 F720
;AFTER_LAYER_CHANGE
;0.2
G1 Z.4
G1 X74.964 Y75.178 F9000
G1 Z.2 F720
G1 E3.2 F2400
M204 P800
;TYPE:Skirt/Brim
;WIDTH:0.42
G1 F1200
G1 X76.03 Y74.164 E.04612
G1 X77.325 Y73.841 E.04186
G1 X102.675 Y73.841 E.79483
G1 X104.092 Y74.234 E.04612
G1 X105.106 Y75.3 E.04612
G1 X105.429 Y76.595 E.04186
G1 X105.429 Y103.405 E.84061
G1 X105.036 Y104.822 E.04612
G1 X103.97 Y105.836 E.04612
G1 X102.675 Y106.159 E.04186
G1 X77.325 Y106.159 E.79483
G1 X75.908 Y105.766 E.04612
G1 X74.894 Y104.7 E.04612
G1 X74.571 Y103.405 E.04186
G1 X74.571 Y76.595 E.84061
G1 X74.948 Y75.235 E.04424
M204 P1000
G1 X75.322 Y75.347 F9000
M204 P800
G1 F1200
G1 X75.34 Y75.288 E.00195
G1 X76.385 Y74.412 E.04278
G1 X77.325 Y74.218 E.03008
G1 X102.675 Y74.218 E.79483
G1 X103.982 Y74.61 E.04278
M73 P0 R80
G1 X104.858 Y75.655 E.04278
G1 X105.052 Y76.595 E.03008
G1 X105.052 Y103.405 E.84061
G1 X104.66 Y104.712 E.04278
G1 X103.615 Y105.588 E.04278
G1 X102.675 Y105.782 E.03008
G1 X77.325 Y105.782 E.79483
G1 X76.018 Y105.39 E.04278
G1 X75.142 Y104.345 E.04278
G1 X74.948 Y103.405 E.03008
G1 X74.948 Y76.595 E.84061
G1 X75.304 Y75.405 E.03895
M204 P1000
; printing object New Motor Mount.STL id:0 copy 0
G1 E-2.24 F4200
;WIPE_START
G1 F7200
G1 X75.34 Y75.288 E-.06768
G1 X76.385 Y74.412 E-.75612
G1 X76.541 Y74.379 E-.0882
;WIPE_END
G1 E-.048 F4200
G1 Z.4 F720
G1 X101.888 Y102.618 F9000
G1 Z.2 F720
G1 E3.2 F2400
M204 P800
;TYPE:Perimeter
;WIDTH:0.419999
G1 F1200
G1 X78.112 Y102.618 E.74547
G1 X78.112 Y77.382 E.79125
G1 X101.888 Y77.382 E.74547
G1 X101.888 Y102.558 E.78937
M204 P1000
G1 X102.265 Y102.995 F9000
M204 P800
;TYPE:External perimeter
G1 F1200
G1 X77.735 Y102.995 E.76912
G1 X77.735 Y77.005 E.8149
G1 X102.265 Y77.005 E.76912
G1 X102.265 Y102.935 E.81302
M204 P1000
G1 X101.88 Y102.888 F9000
G1 E-2.24 F4200
;WIPE_START
G1 F7200
G1 X100.619 Y102.939 E-.912
;WIPE_END
G1 E-.048 F4200
G1 Z.4 F720
G1 X88.355 Y95.992 F9000
G1 Z.2 F720
G1 E3.2 F2400
M204 P800
;TYPE:Perimeter
G1 F1200
G1 X88.348 Y87.874 E.25455
G1 X88.421 Y87.595 E.00903
G1 X88.612 Y87.395 E.00865
G1 X88.832 Y87.314 E.00737
G1 X88.914 Y87.308 E.00256
G1 X92.356 Y87.308 E.10795
G1 X92.585 Y87.356 E.00732
G1 X92.766 Y87.484 E.00695
G1 X92.894 Y87.697 E.0078
G1 X92.922 Y87.874 E.0056
G1 X92.922 Y95.936 E.25281
G1 X92.879 Y96.152 E.00689
G1 X92.697 Y96.388 E.00935
G1 X92.454 Y96.494 E.0083
G1 X88.914 Y96.502 E.11101
G1 X88.676 Y96.45 E.00763
G1 X88.496 Y96.318 E.00698
G1 X88.363 Y96.051 E.00935
M204 P1000
G1 X88.725 Y95.936 F9000
M204 P800
;TYPE:External perimeter
G1 F1200
G1 X88.725 Y87.874 E.25281
G1 X88.793 Y87.729 E.00502
G1 X88.914 Y87.685 E.00402
G1 X92.356 Y87.685 E.10795
G1 X92.493 Y87.744 E.00466
G1 X92.545 Y87.874 E.00439
G1 X92.545 Y95.936 E.25281
G1 X92.497 Y96.062 E.00423
G1 X92.356 Y96.125 E.00482
G1 X88.914 Y96.125 E.10795
G1 X88.774 Y96.064 E.00477
G1 X88.747 Y95.992 E.0024
M204 P1000
G1 X88.339 Y95.833 F9000
G1 E-2.24 F4200
;WIPE_START
G1 F7200
G1 X88.742 Y94.347 E-.912
;WIPE_END
G1 E-.048 F4200
G1 Z.4 F720
G1 X101.775 Y78.259 F9000
G1 Z.2 F720
G1 E3.2 F2400
M204 P800
;TYPE:Solid infill
;WIDTH:0.42083
G1 F1200
G1 X101.18 Y77.665 E.02641
G1 X100.646 Y77.665 E.01679
G1 X101.605 Y78.624 E.04262
G1 X101.605 Y79.158 E.01679
G1 X100.112 Y77.665 E.06637
G1 X99.577 Y77.665 E.01679
G1 X101.605 Y79.693 E.09012
G1 X101.605 Y80.227 E.01679
G1 X99.043 Y77.665 E.11387
G1 X98.508 Y77.665 E.01679
G1 X101.605 Y80.762 E.13762
G1 X101.605 Y81.296 E.01679
G1 X97.974 Y77.665 E.16137
G1 X97.439 Y77.665 E.01679
G1 X101.605 Y81.831 E.18512
G1 X101.605 Y82.365 E.01679
G1 X96.905 Y77.665 E.20887
G1 X96.37 Y77.665 E.01679
G1 X101.605 Y82.9 E.23263
G1 X101.605 Y83.434 E.01679
G1 X95.836 Y77.665 E.25638
G1 X95.302 Y77.665 E.01679
G1 X101.605 Y83.968 E.28013
G1 X101.605 Y84.503 E.01679
G1 X94.767 Y77.665 E.30388
G1 X94.233 Y77.665 E.01679
G1 X101.605 Y85.037 E.32763
G1 X101.605 Y85.572 E.01679
G1 X93.698 Y77.665 E.35138
G1 X93.164 Y77.665 E.01679
G1 X101.605 Y86.106 E.37513
G1 X101.605 Y86.641 E.01679
G1 X92.629 Y77.665 E.39888
G1 X92.095 Y77.665 E.01679
M73 P1 R80
G1 X101.605 Y87.175 E.42263
G1 X101.605 Y87.71 E.01679
G1 X91.56 Y77.665 E.44638
G1 X91.026 Y77.665 E.01679
G1 X101.605 Y88.244 E.47013
G1 X101.605 Y88.778 E.01679
G1 X90.492 Y77.665 E.49388
G1 X89.957 Y77.665 E.01679
G1 X101.605 Y89.313 E.51763
G1 X101.605 Y89.847 E.01679
G1 X89.423 Y77.665 E.54138
G1 X88.888 Y77.665 E.01679
G1 X101.605 Y90.382 E.56513
G1 X101.605 Y90.916 E.01679
G1 X88.354 Y77.665 E.58888
G1 X87.819 Y77.665 E.01679
G1 X101.605 Y91.451 E.61263
G1 X101.605 Y91.985 E.01679
G1 X87.285 Y77.665 E.63638
G1 X86.75 Y77.665 E.01679
G1 X101.605 Y92.52 E.66013
G1 X101.605 Y93.054 E.01679
G1 X86.216 Y77.665 E.68388
G1 X85.682 Y77.665 E.01679
G1 X101.605 Y93.588 E.70763
G1 X101.605 Y94.123 E.01679
G1 X85.147 Y77.665 E.73138
G1 X84.613 Y77.665 E.01679
G1 X101.605 Y94.657 E.75513
G1 X101.605 Y95.192 E.01679
G1 X84.078 Y77.665 E.77888
G1 X83.544 Y77.665 E.01679
G1 X101.605 Y95.726 E.80263
G1 X101.605 Y96.261 E.01679
G1 X93.204 Y87.859 E.37335
G1 X93.164 Y87.609 E.00797
G1 X93.048 Y87.381 E.00802
G1 X92.888 Y87.211 E.00734
G1 X92.699 Y87.096 E.00695
G1 X92.475 Y87.033 E.00731
G1 X92.377 Y87.032 E.00309
G1 X83.009 Y77.665 E.41628
G1 X82.475 Y77.665 E.01679
G1 X91.841 Y87.031 E.41623
G1 X91.306 Y87.03 E.01683
G1 X81.94 Y77.665 E.41619
G1 X81.406 Y77.665 E.01679
G1 X90.77 Y87.029 E.41614
G1 X90.235 Y87.028 E.01683
G1 X80.872 Y77.665 E.41609
G1 X80.337 Y77.665 E.01679
G1 X89.699 Y87.027 E.41604
G1 X89.163 Y87.026 E.01683
G1 X79.803 Y77.665 E.41599
G1 X79.268 Y77.665 E.01679
G1 X88.666 Y87.062 E.41762
G1 X88.559 Y87.102 E.00358
G1 X88.368 Y87.222 E.00707
G1 X88.333 Y87.264 E.00173
G1 X78.734 Y77.665 E.42659
G1 X78.395 Y77.665 E.01065
G1 X78.395 Y77.86 E.00615
G1 X88.127 Y87.593 E.4325
G1 X88.072 Y87.759 E.00551
G1 X88.071 Y88.071 E.00981
G1 X78.395 Y78.395 E.43002
G1 X78.395 Y78.929 E.01679
G1 X88.071 Y88.605 E.43
G1 X88.071 Y89.139 E.01678
G1 X78.395 Y79.464 E.42998
G1 X78.395 Y79.998 E.01679
G1 X88.07 Y89.673 E.42996
G1 X88.07 Y90.207 E.01678
G1 X78.395 Y80.533 E.42994
G1 X78.395 Y81.067 E.01679
G1 X88.069 Y90.742 E.42992
G1 X88.069 Y91.276 E.01678
G1 X78.395 Y81.602 E.4299
G1 X78.395 Y82.136 E.01679
G1 X88.068 Y91.81 E.42989
G1 X88.068 Y92.344 E.01678
G1 X78.395 Y82.67 E.42987
G1 X78.395 Y83.205 E.01679
G1 X88.068 Y92.878 E.42985
G1 X88.067 Y93.412 E.01678
G1 X78.395 Y83.739 E.42983
G1 X78.395 Y84.274 E.01679
G1 X88.067 Y93.946 E.42981
G1 X88.066 Y94.48 E.01678
G1 X78.395 Y84.808 E.42979
G1 X78.395 Y85.343 E.01679
M73 P1 R79
G1 X88.066 Y95.014 E.42977
G1 X88.065 Y95.548 E.01678
G1 X78.225 Y85.707 E.43729
M204 P1000
G1 E-2.24 F4200
;WIPE_START
G1 F7200
G1 X79.389 Y86.871 E-.912
;WIPE_END
G1 E-.048 F4200
G1 Z.4 F720
G1 X93.035 Y88.225 F9000
G1 Z.2 F720
G1 E3.2 F2400
M204 P800
G1 F1200
G1 X101.605 Y96.795 E.38084
G1 X101.605 Y97.33 E.01679
G1 X93.205 Y88.929 E.3733
G1 X93.205 Y89.464 E.01679
G1 X101.605 Y97.864 E.3733
G1 X101.605 Y98.398 E.01679
G1 X93.205 Y89.998 E.3733
G1 X93.205 Y90.533 E.01679
G1 X101.605 Y98.933 E.3733
G1 X101.605 Y99.467 E.01679
G1 X93.205 Y91.067 E.3733
G1 X93.205 Y91.602 E.01679
G1 X101.605 Y100.002 E.3733
G1 X101.605 Y100.536 E.01679
G1 X93.205 Y92.136 E.3733
G1 X93.205 Y92.67 E.01679
G1 X101.605 Y101.071 E.3733
G1 X101.605 Y101.605 E.01679
G1 X93.205 Y93.205 E.3733
G1 X93.205 Y93.739 E.01679
G1 X101.605 Y102.14 E.3733
G1 X101.605 Y102.335 E.00614
G1 X101.266 Y102.335 E.01065
G1 X93.205 Y94.274 E.35824
G1 X93.205 Y94.808 E.01679
G1 X100.732 Y102.335 E.33449
G1 X100.197 Y102.335 E.01679
G1 X93.205 Y95.343 E.31074
G1 X93.205 Y95.877 E.01679
G1 X99.663 Y102.335 E.28699
G1 X99.128 Y102.335 E.01679
G1 X93.108 Y96.315 E.26753
G1 X92.988 Y96.504 E.00703
G1 X92.87 Y96.612 E.00501
G1 X98.594 Y102.335 E.25435
G1 X98.06 Y102.335 E.01679
G1 X92.494 Y96.77 E.24731
G1 X91.975 Y96.785 E.01634
G1 X97.525 Y102.335 E.24665
G1 X96.991 Y102.335 E.01679
G1 X91.44 Y96.785 E.24665
G1 X90.906 Y96.785 E.01679
G1 X96.456 Y102.335 E.24665
G1 X95.922 Y102.335 E.01679
G1 X90.372 Y96.785 E.24665
G1 X89.837 Y96.785 E.01679
G1 X95.387 Y102.335 E.24665
G1 X94.853 Y102.335 E.01679
M73 P2 R79
G1 X89.133 Y96.615 E.25419
M204 P1000
G1 E-2.24 F4200
;WIPE_START
G1 F7200
G1 X90.297 Y97.779 E-.912
;WIPE_END
G1 E-.048 F4200
G1 Z.4 F720
G1 X94.488 Y102.505 F9000
G1 Z.2 F720
G1 E3.2 F2400
M204 P800
G1 F1200
G1 X78.395 Y86.412 E.71517
G1 X78.395 Y86.946 E.01679
G1 X93.784 Y102.335 E.68388
G1 X93.25 Y102.335 E.01679
G1 X78.395 Y87.48 E.66013
G1 X78.395 Y88.015 E.01679
G1 X92.715 Y102.335 E.63638
G1 X92.181 Y102.335 E.01679
G1 X78.395 Y88.549 E.61263
G1 X78.395 Y89.084 E.01679
G1 X91.646 Y102.335 E.58888
G1 X91.112 Y102.335 E.01679
G1 X78.395 Y89.618 E.56513
G1 X78.395 Y90.153 E.01679
G1 X90.577 Y102.335 E.54138
G1 X90.043 Y102.335 E.01679
G1 X78.395 Y90.687 E.51763
G1 X78.395 Y91.222 E.01679
G1 X89.508 Y102.335 E.49388
G1 X88.974 Y102.335 E.01679
G1 X78.395 Y91.756 E.47013
G1 X78.395 Y92.29 E.01679
G1 X88.44 Y102.335 E.44638
G1 X87.905 Y102.335 E.01679
G1 X78.395 Y92.825 E.42263
G1 X78.395 Y93.359 E.01679
G1 X87.371 Y102.335 E.39888
G1 X86.836 Y102.335 E.01679
G1 X78.395 Y93.894 E.37513
G1 X78.395 Y94.428 E.01679
G1 X86.302 Y102.335 E.35138
G1 X85.767 Y102.335 E.01679
G1 X78.395 Y94.963 E.32763
G1 X78.395 Y95.497 E.01679
G1 X85.233 Y102.335 E.30388
G1 X84.698 Y102.335 E.01679
G1 X78.395 Y96.032 E.28012
G1 X78.395 Y96.566 E.01679
G1 X84.164 Y102.335 E.25637
G1 X83.63 Y102.335 E.01679
G1 X78.395 Y97.1 E.23262
G1 X78.395 Y97.635 E.01679
G1 X83.095 Y102.335 E.20887
G1 X82.561 Y102.335 E.01679
G1 X78.395 Y98.169 E.18512
G1 X78.395 Y98.704 E.01679
G1 X82.026 Y102.335 E.16137
G1 X81.492 Y102.335 E.01679
G1 X78.395 Y99.238 E.13762
G1 X78.395 Y99.773 E.01679
G1 X80.957 Y102.335 E.11387
G1 X80.423 Y102.335 E.01679
G1 X78.395 Y100.307 E.09012
G1 X78.395 Y100.842 E.01679
G1 X79.888 Y102.335 E.06637
G1 X79.354 Y102.335 E.01679
G1 X78.395 Y101.376 E.04262
G1 X78.395 Y101.91 E.01679
G1 X78.989 Y102.505 E.02641
M204 P1000
; stop printing object New Motor Mount.STL id:0 copy 0
M106 S84.15
;LAYER_CHANGE
;Z:0.35
;HEIGHT:0.15
;BEFORE_LAYER_CHANGE
G92 E0.0
;0.35


G1 E-2.24 F4200
;WIPE_START
G1 F7200
G1 X78.395 Y101.91 E-.46577
G1 X78.395 Y101.376 E-.29617
G1 X78.586 Y101.568 E-.15005
;WIPE_END
G1 E-.048 F4200
G1 Z.4 F720
;AFTER_LAYER_CHANGE
;0.35
G1 X74.571 Y101.568 F9000
G1 Z.35 F720
G1 E3.2 F2400
;TYPE:Skirt/Brim
;WIDTH:0.42
G1 X74.571 Y76.595 E.60396
G1 X74.964 Y75.178 E.03557
G1 X76.03 Y74.164 E.03557
G1 X77.325 Y73.841 E.03229
G1 X102.675 Y73.841 E.61309
G1 X104.092 Y74.234 E.03557
G1 X105.106 Y75.3 E.03557
G1 X105.429 Y76.595 E.03229
G1 X105.429 Y103.405 E.6484
G1 X105.036 Y104.822 E.03557
G1 X103.97 Y105.836 E.03557
G1 X102.675 Y106.159 E.03229
G1 X77.325 Y106.159 E.61309
G1 X75.908 Y105.766 E.03557
G1 X74.894 Y104.7 E.03557
G1 X74.571 Y103.405 E.03229
G1 X74.571 Y101.628 E.04299
G1 X74.948 Y101.628 F9000
G1 F2400
G1 X74.948 Y76.595 E.60541
G1 X75.34 Y75.288 E.033
G1 X76.385 Y74.412 E.033
G1 X77.325 Y74.218 E.02321
G1 X102.675 Y74.218 E.61309
G1 X103.982 Y74.61 E.033
G1 X104.858 Y75.655 E.033
G1 X105.052 Y76.595 E.02321
G1 X105.052 Y103.405 E.6484
G1 X104.66 Y104.712 E.033
G1 X103.615 Y105.588 E.033
G1 X102.675 Y105.782 E.02321
G1 X77.325 Y105.782 E.61309
G1 X76.018 Y105.39 E.033
G1 X75.142 Y104.345 E.033
G1 X74.948 Y103.405 E.02321
G1 X74.948 Y101.688 E.04154
; printing object New Motor Mount.STL id:0 copy 0
G1 E-2.24 F4200
;WIPE_START
G1 F7200
G1 X74.948 Y100.042 E-.912
;WIPE_END
G1 E-.048 F4200
G1 Z.55 F720
G1 X88.495 Y95.767 F9000
G1 Z.35 F720
G1 E3.2 F2400
M204 P800
;TYPE:Perimeter
;WIDTH:0.449999
G1 F1500
G1 X88.492 Y88.079 E.20031
G1 X88.539 Y87.84 E.00634
G1 X88.719 Y87.597 E.00788
G1 X88.942 Y87.478 E.00659
G1 X89.119 Y87.452 E.00467
G1 X92.151 Y87.452 E.07901
G1 X92.406 Y87.506 E.00678
G1 X92.607 Y87.648 E.00641
G1 X92.747 Y87.884 E.00715
G1 X92.778 Y88.079 E.00513
G1 X92.778 Y95.731 E.19938
G1 X92.726 Y95.98 E.00663
G1 X92.612 Y96.156 E.00547
G1 X92.413 Y96.301 E.0064
G1 X92.151 Y96.358 E.00698
G1 X89.119 Y96.358 E.07901
G1 X88.861 Y96.302 E.00688
G1 X88.663 Y96.162 E.00632
G1 X88.596 Y96.076 E.00284
G1 X88.501 Y95.826 E.00696
M204 P1000
G1 X88.912 Y95.739 F9000
M204 P800
;TYPE:External perimeter
G1 F1500
G1 X88.91 Y88.079 E.19959
G1 X88.967 Y87.936 E.004
G1 X89.119 Y87.87 E.00433
G1 X92.151 Y87.87 E.07901
G1 X92.303 Y87.935 E.00431
G1 X92.36 Y88.079 E.00402
G1 X92.36 Y95.731 E.19938
G1 X92.305 Y95.873 E.00396
G1 X92.151 Y95.94 E.00437
G1 X89.119 Y95.94 E.07901
G1 X88.967 Y95.875 E.00431
G1 X88.93 Y95.796 E.00226
M204 P1000
G1 X88.526 Y95.637 F9000
G1 E-2.24 F4200
;WIPE_START
G1 F7200
G1 X88.925 Y94.151 E-.912
;WIPE_END
G1 E-.048 F4200
G1 Z.55 F720
G1 X102.032 Y102.762 F9000
G1 Z.35 F720
G1 E3.2 F2400
M204 P800
;TYPE:Perimeter
G1 X77.968 Y102.762 E.62701
G1 X77.968 Y77.238 E.66506
G1 X102.032 Y77.238 E.62701
G1 X102.032 Y102.702 E.66349
M204 P1000
G1 X102.45 Y103.18 F9000
M204 P800
;TYPE:External perimeter
G1 F1800
G1 X77.55 Y103.18 E.64879
G1 X77.55 Y76.82 E.68683
G1 X102.45 Y76.82 E.64879
G1 X102.45 Y103.12 E.68527
M204 P1000
G1 X102.065 Y103.073 F9000
G1 X101.06 Y102.637
;TYPE:Solid infill
;WIDTH:0.451095
G1 F4800
G1 X101.719 Y101.978 E.02434
G1 X101.719 Y101.386 E.01548
G1 X100.656 Y102.449 E.03928
G1 X100.063 Y102.449 E.01548
G1 X101.719 Y100.793 E.06117
G1 X101.719 Y100.201 E.01548
G1 X99.471 Y102.449 E.08306
G1 X98.878 Y102.449 E.01548
G1 X101.719 Y99.608 E.10495
G1 X101.719 Y99.016 E.01548
G1 X98.286 Y102.449 E.12683
G1 X97.693 Y102.449 E.01548
G1 X101.719 Y98.423 E.14872
G1 X101.719 Y97.831 E.01548
G1 X97.101 Y102.449 E.17061
G1 X96.509 Y102.449 E.01548
G1 X101.719 Y97.239 E.19249
G1 X101.719 Y96.646 E.01548
G1 X95.916 Y102.449 E.21438
G1 X95.324 Y102.449 E.01548
G1 X101.719 Y96.054 E.23627
G1 X101.719 Y95.461 E.01548
G1 X94.731 Y102.449 E.25815
G1 X94.139 Y102.449 E.01548
G1 X101.719 Y94.869 E.28004
G1 X101.719 Y94.276 E.01548
G1 X93.546 Y102.449 E.30193
G1 X92.954 Y102.449 E.01548
G1 X101.719 Y93.684 E.32382
G1 X101.719 Y93.092 E.01548
G1 X92.362 Y102.449 E.3457
G1 X91.769 Y102.449 E.01548
G1 X101.719 Y92.499 E.36759
G1 X101.719 Y91.907 E.01548
G1 X91.177 Y102.449 E.38948
G1 X90.584 Y102.449 E.01548
G1 X101.719 Y91.314 E.41136
G1 X101.719 Y90.722 E.01548
G1 X89.992 Y102.449 E.43325
G1 X89.4 Y102.449 E.01548
G1 X101.719 Y90.13 E.45514
G1 X101.719 Y89.537 E.01548
G1 X88.807 Y102.449 E.47702
G1 X88.215 Y102.449 E.01548
G1 X101.719 Y88.945 E.49891
G1 X101.719 Y88.352 E.01548
G1 X87.622 Y102.449 E.5208
G1 X87.03 Y102.449 E.01548
