; generated by PrusaSlicer 2.5.0+win64 on 2023-03-09 at 19:32:27 UTC


;
;

;
;
; 

; external perimeters extrusion width = 0.45mm
; perimeters extrusion width = 0.45mm
; infill extrusion width = 0.45mm
; solid infill extrusion width = 0.45mm
; top infill extrusion width = 0.40mm
; first layer extrusion width = 0.42mm

M73 P0 R161
M201 X2500 Y2500 Z400 E5000 ; sets maximum accelerations, mm/sec^2
M203 X180 Y180 Z12 E80 ; sets maximum feedrates, mm / sec
M204 P1250 R1250 T2500 ; sets acceleration (P, T) and retract acceleration (R), mm/sec^2
M205 X8.00 Y8.00 Z2.00 E10.00 ; sets the jerk limits, mm/sec
M205 S0 T0 ; sets the minimum extruding and travel feed rate, mm/sec
M107
;TYPE:Custom
M862.3 P "MINI" ; printer model check
G90 ; use absolute coordinates
M83 ; extruder relative mode
M104 S170 ; set extruder temp for bed leveling
M140 S60 ; set bed temp
M109 R170 ; wait for bed leveling temp
M190 S60 ; wait for bed temp
M204 T1250 ; set travel acceleration
G28 ; home all without mesh bed level
G29 ; mesh bed leveling 
M204 T2500 ; restore travel acceleration
M104 S215 ; set extruder temp
G92 E0
G1 Y-2 X179 F2400
G1 Z3 F720
M109 S215 ; wait for extruder temp

; intro line
G1 X170 F1000
G1 Z0.2 F720
G1 X110 E8 F900
G1 X40 E10 F700
G92 E0

M221 S95 ; set flow
G21 ; set units to millimeters
G90 ; use absolute coordinates
M83 ; use relative distances for extrusion
M900 K0.2 ; Filament gcode LA 1.5
; ; Filament gcode LA 1.0
M107
;LAYER_CHANGE
;Z:0.2
;HEIGHT:0.2
;BEFORE_LAYER_CHANGE
G92 E0.0
;0.2


G1 E-3.2 F4200
G1 Z.2 F720
;AFTER_LAYER_CHANGE
;0.2
G1 Z.4
G1 X60.792 Y73.952 F9000
G1 Z.2 F720
G1 E3.2 F2400
M204 P800
;TYPE:Skirt/Brim
;WIDTH:0.42
G1 F1200
G1 X61.612 Y73.377 E.03139
G1 X62.333 Y73.115 E.02404
G1 X63.124 Y73.018 E.025
G1 X117.081 Y73.027 E1.69179
G1 X117.664 Y73.114 E.01849
G1 X118.226 Y73.302 E.01857
G1 X118.745 Y73.584 E.01853
G1 X119.208 Y73.952 E.01853
G1 X119.698 Y74.535 E.02388
G1 X119.982 Y75.056 E.01861
G1 X120.17 Y75.618 E.01856
G1 X120.258 Y76.2 E.01845
G1 X120.267 Y104.605 E.89063
G1 X119.875 Y105.912 E.04278
G1 X118.83 Y106.788 E.04278
G1 X117.89 Y106.982 E.03008
G1 X62.11 Y106.982 E1.74894
G1 X60.803 Y106.59 E.04278
G1 X59.927 Y105.545 E.04278
G1 X59.733 Y104.605 E.03008
G1 X59.742 Y76.204 E.8905
G1 X59.875 Y75.449 E.02403
G1 X60.299 Y74.54 E.03147
G1 X60.753 Y73.998 E.02217
M204 P1000
; printing object New Motor Mount.STL id:0 copy 0
G1 E-2.24 F4200
;WIPE_START
G1 F7200
G1 X61.612 Y73.377 E-.58699
G1 X62.163 Y73.177 E-.32501
;WIPE_END
G1 E-.048 F4200
G1 Z.4 F720
G1 X86.673 Y103.818 F9000
G1 Z.2 F720
G1 E3.2 F2400
M204 P800
;TYPE:Perimeter
;WIDTH:0.419999
G1 F1200
G1 X62.897 Y103.818 E.74547
G1 X62.897 Y76.496 E.85665
G1 X62.916 Y76.358 E.00437
G1 X63.023 Y76.238 E.00505
G1 X63.184 Y76.182 E.00535
G1 X86.314 Y76.182 E.72522
G1 X86.574 Y76.238 E.00833
G1 X86.673 Y76.45 E.00732
G1 X86.673 Y103.758 E.85622
M204 P1000
G1 X87.05 Y104.195 F9000
M204 P800
;TYPE:External perimeter
G1 F1200
G1 X62.52 Y104.195 E.76912
G1 X62.52 Y76.496 E.86847
G1 X62.545 Y76.294 E.00639
G1 X62.661 Y76.031 E.009
G1 X62.928 Y75.844 E.01025
G1 X63.152 Y75.805 E.00712
G1 X86.314 Y75.805 E.72624
G1 X86.752 Y75.895 E.01401
G1 X86.899 Y76.019 E.00601
G1 X86.987 Y76.207 E.00653
G1 X87.05 Y76.45 E.00786
G1 X87.05 Y104.135 E.86804
M204 P1000
G1 X86.703 Y103.995 F9000
G1 E-2.24 F4200
;WIPE_START
G1 F7200
G1 X85.404 Y104.139 E-.912
;WIPE_END
G1 E-.048 F4200
G1 Z.4 F720
G1 X76.798 Y96.017 F9000
G1 Z.2 F720
G1 E3.2 F2400
M204 P800
;TYPE:Perimeter
G1 F1200
G1 X76.755 Y96.193 E.00568
G1 X76.568 Y96.405 E.00886
G1 X76.349 Y96.494 E.00741
G1 X76.251 Y96.502 E.00308
G1 X72.809 Y96.502 E.10795
G1 X72.599 Y96.462 E.00668
G1 X72.368 Y96.291 E.00903
G1 X72.251 Y96.034 E.00883
G1 X72.243 Y95.936 E.00308
G1 X72.243 Y87.874 E.25281
G1 X72.298 Y87.629 E.00785
G1 X72.491 Y87.406 E.00925
G1 X72.739 Y87.312 E.00832
G1 X72.809 Y87.308 E.00218
G1 X76.251 Y87.308 E.10795
G1 X76.537 Y87.385 E.00928
G1 X76.734 Y87.578 E.00863
G1 X76.811 Y87.794 E.00721
G1 X76.817 Y87.874 E.0025
G1 X76.812 Y95.959 E.2535
M204 P1000
G1 X76.44 Y95.936 F9000
M204 P800
;TYPE:External perimeter
G1 F1200
G1 X76.383 Y96.071 E.00458
G1 X76.251 Y96.125 E.00447
G1 X72.809 Y96.125 E.10795
G1 X72.662 Y96.055 E.00511
G1 X72.62 Y95.936 E.00393
G1 X72.62 Y87.874 E.25281
G1 X72.684 Y87.732 E.00489
G1 X72.809 Y87.685 E.00416
G1 X76.251 Y87.685 E.10795
G1 X76.398 Y87.755 E.0051
G1 X76.44 Y87.874 E.00393
G1 X76.44 Y95.876 E.25093
M204 P1000
G1 X76.543 Y96.04 F9000
G1 E-2.24 F4200
;WIPE_START
G1 F7200
G1 X76.383 Y96.071 E-.11229
G1 X76.251 Y96.125 E-.07904
G1 X74.951 Y96.125 E-.72067
;WIPE_END
G1 E-.048 F4200
G1 Z.4 F720
G1 X86.56 Y77.123 F9000
G1 Z.2 F720
G1 E3.2 F2400
M204 P800
;TYPE:Solid infill
;WIDTH:0.42233
G1 F1200
G1 X85.901 Y76.465 E.02937
G1 X85.365 Y76.465 E.01693
G1 X86.39 Y77.49 E.04574
G1 X86.39 Y78.027 E.01693
G1 X84.828 Y76.465 E.06968
G1 X84.292 Y76.465 E.01693
G1 X86.39 Y78.563 E.09362
G1 X86.39 Y79.1 E.01693
G1 X83.755 Y76.465 E.11756
G1 X83.219 Y76.465 E.01693
G1 X86.39 Y79.636 E.1415
G1 X86.39 Y80.173 E.01693
G1 X82.682 Y76.465 E.16544
G1 X82.146 Y76.465 E.01693
G1 X86.39 Y80.709 E.18938
G1 X86.39 Y81.246 E.01693
G1 X81.609 Y76.465 E.21332
G1 X81.072 Y76.465 E.01693
G1 X86.39 Y81.783 E.23725
G1 X86.39 Y82.319 E.01693
G1 X80.536 Y76.465 E.26119
G1 X79.999 Y76.465 E.01693
G1 X86.39 Y82.856 E.28513
G1 X86.39 Y83.392 E.01693
G1 X79.463 Y76.465 E.30907
G1 X78.926 Y76.465 E.01693
G1 X86.39 Y83.929 E.33301
G1 X86.39 Y84.465 E.01693
G1 X78.39 Y76.465 E.35695
G1 X77.853 Y76.465 E.01693
G1 X86.39 Y85.002 E.38089
G1 X86.39 Y85.539 E.01693
G1 X77.316 Y76.465 E.40483
G1 X76.78 Y76.465 E.01693
G1 X86.39 Y86.075 E.42877
G1 X86.39 Y86.612 E.01693
G1 X76.243 Y76.465 E.45271
G1 X75.707 Y76.465 E.01693
M73 P0 R160
G1 X86.39 Y87.148 E.47665
G1 X86.39 Y87.685 E.01693
G1 X75.17 Y76.465 E.50059
G1 X74.634 Y76.465 E.01693
G1 X86.39 Y88.221 E.52453
G1 X86.39 Y88.758 E.01693
G1 X74.097 Y76.465 E.54847
G1 X73.56 Y76.465 E.01693
G1 X86.39 Y89.295 E.57241
G1 X86.39 Y89.831 E.01693
G1 X73.024 Y76.465 E.59634
G1 X72.487 Y76.465 E.01693
G1 X86.39 Y90.368 E.62028
G1 X86.39 Y90.904 E.01693
G1 X71.951 Y76.465 E.64422
G1 X71.414 Y76.465 E.01693
G1 X86.39 Y91.441 E.66816
G1 X86.39 Y91.977 E.01693
G1 X70.878 Y76.465 E.6921
G1 X70.341 Y76.465 E.01693
G1 X86.39 Y92.514 E.71604
G1 X86.39 Y93.051 E.01693
G1 X69.804 Y76.465 E.73998
G1 X69.268 Y76.465 E.01693
G1 X86.39 Y93.587 E.76392
G1 X86.39 Y94.124 E.01693
G1 X68.731 Y76.465 E.78786
G1 X68.195 Y76.465 E.01693
G1 X86.39 Y94.66 E.8118
G1 X86.39 Y95.197 E.01693
G1 X67.658 Y76.465 E.83574
G1 X67.122 Y76.465 E.01693
G1 X86.39 Y95.733 E.85968
G1 X86.39 Y96.27 E.01693
G1 X66.585 Y76.465 E.88362
G1 X66.049 Y76.465 E.01693
G1 X86.39 Y96.806 E.90756
G1 X86.39 Y97.343 E.01693
G1 X77.1 Y88.053 E.41449
G1 X77.087 Y87.725 E.01034
G1 X77.028 Y87.529 E.00646
G1 X76.913 Y87.341 E.00694
G1 X76.768 Y87.199 E.00642
G1 X76.583 Y87.092 E.00674
G1 X76.366 Y87.032 E.00709
G1 X76.079 Y87.031 E.00907
G1 X65.512 Y76.465 E.47144
G1 X64.975 Y76.465 E.01693
G1 X75.541 Y87.03 E.47139
G1 X75.003 Y87.029 E.01696
G1 X64.439 Y76.465 E.47134
G1 X63.902 Y76.465 E.01693
G1 X74.466 Y87.028 E.4713
G1 X73.928 Y87.027 E.01696
G1 X63.366 Y76.465 E.47125
G1 X63.192 Y76.477 E.0055
G1 X63.192 Y76.827 E.01105
G1 X73.391 Y87.026 E.45503
G1 X72.853 Y87.025 E.01696
G1 X63.191 Y77.364 E.43105
G1 X63.191 Y77.9 E.01692
G1 X72.421 Y87.13 E.4118
G1 X72.251 Y87.233 E.00627
G1 X72.128 Y87.373 E.0059
G1 X63.191 Y78.436 E.39872
G1 X63.191 Y78.973 E.01692
G1 X71.969 Y87.751 E.39163
G1 X71.968 Y88.287 E.01691
G1 X63.191 Y79.509 E.39162
G1 X63.19 Y80.045 E.01692
G1 X71.968 Y88.823 E.39161
G1 X71.967 Y89.359 E.01691
G1 X63.19 Y80.582 E.39159
G1 X63.19 Y81.118 E.01692
G1 X71.966 Y89.895 E.39158
G1 X71.966 Y90.431 E.01691
G1 X63.19 Y81.654 E.39156
G1 X63.189 Y82.191 E.01692
G1 X71.965 Y90.967 E.39155
G1 X71.965 Y91.503 E.01691
G1 X63.189 Y82.727 E.39153
G1 X63.189 Y83.263 E.01692
G1 X71.964 Y92.039 E.39152
G1 X71.964 Y92.575 E.01691
G1 X63.189 Y83.8 E.3915
G1 X63.188 Y84.336 E.01692
G1 X71.963 Y93.111 E.39149
G1 X71.963 Y93.647 E.01691
G1 X63.188 Y84.872 E.39147
G1 X63.188 Y85.409 E.01692
G1 X71.962 Y94.183 E.39146
G1 X71.961 Y94.719 E.01691
G1 X63.188 Y85.945 E.39145
G1 X63.187 Y86.481 E.01692
G1 X72.13 Y95.424 E.39899
M204 P1000
G1 E-2.24 F4200
;WIPE_START
G1 F7200
G1 X70.967 Y94.261 E-.912
;WIPE_END
G1 E-.048 F4200
G1 Z.4 F720
G1 X76.93 Y88.42 F9000
G1 Z.2 F720
G1 E3.2 F2400
M204 P800
G1 F1200
G1 X86.39 Y97.88 E.42206
G1 X86.39 Y98.416 E.01693
G1 X77.1 Y89.126 E.41449
G1 X77.1 Y89.662 E.01693
G1 X86.39 Y98.953 E.41449
G1 X86.39 Y99.489 E.01693
G1 X77.1 Y90.199 E.41449
G1 X77.1 Y90.736 E.01693
G1 X86.39 Y100.026 E.41449
G1 X86.39 Y100.562 E.01693
G1 X77.1 Y91.272 E.41449
G1 X77.1 Y91.809 E.01693
G1 X86.39 Y101.099 E.41449
G1 X86.39 Y101.636 E.01693
G1 X77.1 Y92.345 E.41449
G1 X77.1 Y92.882 E.01693
G1 X86.39 Y102.172 E.41449
G1 X86.39 Y102.709 E.01693
G1 X77.1 Y93.418 E.41449
G1 X77.1 Y93.955 E.01693
G1 X86.39 Y103.245 E.41449
G1 X86.39 Y103.535 E.00914
G1 X86.143 Y103.535 E.00778
G1 X77.1 Y94.492 E.40348
G1 X77.1 Y95.028 E.01693
G1 X85.607 Y103.535 E.37955
G1 X85.07 Y103.535 E.01693
G1 X77.1 Y95.565 E.35561
G1 X77.1 Y95.944 E.01196
M73 P1 R160
G1 X77.078 Y96.08 E.00433
G1 X84.534 Y103.535 E.33263
G1 X83.997 Y103.535 E.01693
G1 X76.918 Y96.456 E.31584
G1 X76.73 Y96.638 E.00824
G1 X76.622 Y96.697 E.00389
G1 X83.461 Y103.535 E.3051
G1 X82.924 Y103.535 E.01693
G1 X76.174 Y96.785 E.30117
G1 X75.637 Y96.785 E.01693
G1 X82.387 Y103.535 E.30117
G1 X81.851 Y103.535 E.01693
G1 X75.101 Y96.785 E.30117
G1 X74.564 Y96.785 E.01693
G1 X81.314 Y103.535 E.30117
G1 X80.778 Y103.535 E.01693
G1 X74.027 Y96.785 E.30117
G1 X73.491 Y96.785 E.01693
G1 X80.241 Y103.535 E.30117
G1 X79.705 Y103.535 E.01693
G1 X72.954 Y96.785 E.30117
G1 X72.647 Y96.77 E.0097
G1 X72.495 Y96.725 E.00502
G1 X72.354 Y96.654 E.00496
G1 X72.147 Y96.47 E.00875
G1 X72.027 Y96.268 E.00742
G1 X71.973 Y96.084 E.00603
G1 X71.96 Y95.791 E.00927
G1 X63.187 Y87.018 E.39142
G1 X63.187 Y87.554 E.01692
G1 X79.168 Y103.535 E.71301
G1 X78.631 Y103.535 E.01693
G1 X63.187 Y88.09 E.68908
G1 X63.187 Y88.627 E.01692
G1 X78.095 Y103.535 E.66515
G1 X77.558 Y103.535 E.01693
G1 X63.186 Y89.163 E.64122
G1 X63.186 Y89.699 E.01692
M73 P1 R159
G1 X77.022 Y103.535 E.61729
G1 X76.485 Y103.535 E.01693
G1 X63.186 Y90.236 E.59336
G1 X63.186 Y90.772 E.01692
G1 X75.949 Y103.535 E.56943
G1 X75.412 Y103.535 E.01693
G1 X63.185 Y91.308 E.54551
G1 X63.185 Y91.845 E.01692
G1 X74.876 Y103.535 E.52158
G1 X74.339 Y103.535 E.01693
G1 X63.185 Y92.381 E.49765
G1 X63.185 Y92.917 E.01692
G1 X73.802 Y103.535 E.47372
G1 X73.266 Y103.535 E.01693
G1 X63.184 Y93.454 E.44979
G1 X63.184 Y93.99 E.01692
G1 X72.729 Y103.535 E.42586
G1 X72.193 Y103.535 E.01693
G1 X63.184 Y94.526 E.40193
G1 X63.184 Y95.063 E.01692
G1 X71.656 Y103.535 E.378
G1 X71.12 Y103.535 E.01693
G1 X63.183 Y95.599 E.35408
G1 X63.183 Y96.135 E.01692
G1 X70.583 Y103.535 E.33015
G1 X70.046 Y103.535 E.01693
G1 X63.183 Y96.672 E.30622
G1 X63.183 Y97.208 E.01692
G1 X69.51 Y103.535 E.28229
G1 X68.973 Y103.535 E.01693
G1 X63.182 Y97.744 E.25836
G1 X63.182 Y98.281 E.01692
G1 X68.437 Y103.535 E.23443
G1 X67.9 Y103.535 E.01693
G1 X63.182 Y98.817 E.2105
G1 X63.182 Y99.353 E.01692
G1 X67.364 Y103.535 E.18658
G1 X66.827 Y103.535 E.01693
G1 X63.182 Y99.89 E.16265
G1 X63.181 Y100.426 E.01692
G1 X66.29 Y103.535 E.13872
G1 X65.754 Y103.535 E.01693
G1 X63.181 Y100.962 E.11479
G1 X63.181 Y101.499 E.01692
G1 X65.217 Y103.535 E.09086
G1 X64.681 Y103.535 E.01693
G1 X63.181 Y102.035 E.06693
G1 X63.18 Y102.571 E.01692
G1 X64.144 Y103.535 E.043
G1 X63.608 Y103.535 E.01693
G1 X63.01 Y102.938 E.02664
M204 P1000
G1 E-2.24 F4200
;WIPE_START
G1 F7200
G1 X63.608 Y103.535 E-.46798
G1 X64.144 Y103.535 E-.29735
G1 X63.957 Y103.348 E-.14668
;WIPE_END
G1 E-.048 F4200
G1 Z.4 F720
G1 X93.327 Y103.818 F9000
G1 Z.2 F720
G1 E3.2 F2400
M204 P800
;TYPE:Perimeter
;WIDTH:0.419999
G1 F1200
G1 X93.327 Y76.496 E.85665
G1 X93.332 Y76.443 E.00169
G1 X93.422 Y76.252 E.00662
G1 X93.59 Y76.182 E.00571
G1 X116.744 Y76.182 E.72597
G1 X117.004 Y76.238 E.00833
G1 X117.103 Y76.45 E.00732
G1 X117.103 Y103.818 E.8581
G1 X93.387 Y103.818 E.74359
M204 P1000
G1 X92.95 Y104.195 F9000
M204 P800
;TYPE:External perimeter
G1 F1200
G1 X92.95 Y76.496 E.86848
G1 X92.989 Y76.214 E.00893
G1 X93.171 Y75.953 E.00998
G1 X93.328 Y75.879 E.00545
G1 X93.574 Y75.805 E.00805
G1 X116.744 Y75.805 E.72649
G1 X117.182 Y75.895 E.01401
G1 X117.329 Y76.019 E.00601
G1 X117.417 Y76.207 E.00654
G1 X117.48 Y76.45 E.00786
G1 X117.48 Y104.195 E.86992
G1 X93.01 Y104.195 E.76724
M204 P1000
G1 X93.046 Y103.807 F9000
G1 E-2.24 F4200
;WIPE_START
G1 F7200
G1 X93.006 Y102.549 E-.912
;WIPE_END
G1 E-.048 F4200
G1 Z.4 F720
G1 X103.187 Y95.984 F9000
G1 Z.2 F720
G1 E3.2 F2400
M204 P800
;TYPE:Perimeter
G1 F1200
G1 X103.183 Y87.874 E.25428
G1 X103.231 Y87.644 E.00734
G1 X103.405 Y87.424 E.00878
G1 X103.672 Y87.313 E.00909
G1 X103.749 Y87.308 E.0024
G1 X107.191 Y87.308 E.10795
G1 X107.454 Y87.372 E.00847
G1 X107.662 Y87.56 E.00879
G1 X107.751 Y87.788 E.00768
G1 X107.757 Y87.874 E.00268
G1 X107.757 Y95.936 E.25281
G1 X107.68 Y96.221 E.00924
G1 X107.492 Y96.416 E.0085
G1 X107.289 Y96.494 E.00681
G1 X107.191 Y96.502 E.00308
G1 X103.749 Y96.502 E.10795
G1 X103.527 Y96.457 E.0071
G1 X103.29 Y96.268 E.00948
G1 X103.197 Y96.042 E.00767
M204 P1000
G1 X103.56 Y95.936 F9000
M204 P800
;TYPE:External perimeter
G1 F1200
G1 X103.56 Y87.874 E.25281
G1 X103.617 Y87.738 E.00461
G1 X103.749 Y87.685 E.00444
G1 X107.191 Y87.685 E.10795
G1 X107.333 Y87.749 E.00486
G1 X107.38 Y87.874 E.00418
G1 X107.38 Y95.936 E.25281
G1 X107.317 Y96.077 E.00481
G1 X107.191 Y96.125 E.00423
G1 X103.749 Y96.125 E.10795
G1 X103.617 Y96.071 E.00447
G1 X103.583 Y95.992 E.0027
M204 P1000
G1 X103.174 Y95.833 F9000
G1 E-2.24 F4200
;WIPE_START
G1 F7200
G1 X103.579 Y94.346 E-.912
;WIPE_END
G1 E-.048 F4200
G1 Z.4 F720
G1 X116.167 Y76.301 F9000
G1 Z.2 F720
G1 E3.2 F2400
M204 P800
;TYPE:Solid infill
;WIDTH:0.42233
G1 F1200
G1 X116.82 Y76.954 E.02913
G1 X116.82 Y77.49 E.01693
G1 X115.8 Y76.47 E.0455
G1 X115.264 Y76.47 E.01693
G1 X116.82 Y78.027 E.06944
G1 X116.82 Y78.563 E.01693
G1 X114.727 Y76.47 E.09339
G1 X114.19 Y76.47 E.01693
G1 X116.82 Y79.1 E.11733
G1 X116.82 Y79.636 E.01693
G1 X113.654 Y76.47 E.14128
G1 X113.117 Y76.47 E.01693
G1 X116.82 Y80.173 E.16523
G1 X116.82 Y80.709 E.01693
G1 X112.58 Y76.469 E.18917
G1 X112.043 Y76.469 E.01693
G1 X116.82 Y81.246 E.21312
G1 X116.82 Y81.783 E.01693
G1 X111.507 Y76.469 E.23706
G1 X110.97 Y76.469 E.01693
G1 X116.82 Y82.319 E.26101
G1 X116.82 Y82.856 E.01693
G1 X110.433 Y76.469 E.28495
G1 X109.897 Y76.469 E.01693
G1 X116.82 Y83.392 E.3089
G1 X116.82 Y83.929 E.01693
G1 X109.36 Y76.469 E.33284
G1 X108.823 Y76.469 E.01693
G1 X116.82 Y84.465 E.35679
G1 X116.82 Y85.002 E.01693
G1 X108.287 Y76.468 E.38073
G1 X107.75 Y76.468 E.01693
G1 X116.82 Y85.539 E.40468
G1 X116.82 Y86.075 E.01693
G1 X107.213 Y76.468 E.42862
G1 X106.676 Y76.468 E.01693
G1 X116.82 Y86.612 E.45257
G1 X116.82 Y87.148 E.01693
G1 X106.14 Y76.468 E.47651
G1 X105.603 Y76.468 E.01693
G1 X116.82 Y87.685 E.50046
G1 X116.82 Y88.221 E.01693
G1 X105.066 Y76.468 E.5244
G1 X104.53 Y76.468 E.01693
G1 X116.82 Y88.758 E.54835
G1 X116.82 Y89.295 E.01693
G1 X103.993 Y76.467 E.57229
G1 X103.456 Y76.467 E.01693
G1 X116.82 Y89.831 E.59624
G1 X116.82 Y90.368 E.01693
G1 X102.92 Y76.467 E.62018
G1 X102.383 Y76.467 E.01693
G1 X116.82 Y90.904 E.64413
G1 X116.82 Y91.441 E.01693
G1 X101.846 Y76.467 E.66807
G1 X101.309 Y76.467 E.01693
G1 X116.82 Y91.977 E.69202
G1 X116.82 Y92.514 E.01693
G1 X100.773 Y76.467 E.71596
G1 X100.236 Y76.466 E.01693
G1 X116.82 Y93.051 E.73991
G1 X116.82 Y93.587 E.01693
G1 X99.699 Y76.466 E.76385
G1 X99.163 Y76.466 E.01693
G1 X116.82 Y94.124 E.7878
G1 X116.82 Y94.66 E.01693
G1 X98.626 Y76.466 E.81174
G1 X98.089 Y76.466 E.01693
G1 X116.82 Y95.197 E.83569
G1 X116.82 Y95.733 E.01693
G1 X97.553 Y76.466 E.85963
G1 X97.016 Y76.466 E.01693
G1 X116.82 Y96.27 E.88358
G1 X116.82 Y96.806 E.01693
