; generated by PrusaSlicer 2.5.2+win64 on 2023-05-09 at 19:55:54 UTC


;
;

;
;
; 

; external perimeters extrusion width = 0.45mm
; perimeters extrusion width = 0.45mm
; infill extrusion width = 0.45mm
; solid infill extrusion width = 0.45mm
; top infill extrusion width = 0.40mm
; first layer extrusion width = 0.42mm

M73 P0 R165
M201 X2500 Y2500 Z400 E5000 ; sets maximum accelerations, mm/sec^2
M203 X180 Y180 Z12 E80 ; sets maximum feedrates, mm / sec
M204 P1250 R1250 T2500 ; sets acceleration (P, T) and retract acceleration (R), mm/sec^2
M205 X8.00 Y8.00 Z2.00 E10.00 ; sets the jerk limits, mm/sec
M205 S0 T0 ; sets the minimum extruding and travel feed rate, mm/sec
M107
;TYPE:Custom
M862.3 P "MINI" ; printer model check
G90 ; use absolute coordinates
M83 ; extruder relative mode
M104 S170 ; set extruder temp for bed leveling
M140 S60 ; set bed temp
M109 R170 ; wait for bed leveling temp
M190 S60 ; wait for bed temp
M204 T1250 ; set travel acceleration
G28 ; home all without mesh bed level
G29 ; mesh bed leveling 
M204 T2500 ; restore travel acceleration
M104 S215 ; set extruder temp
G92 E0
G1 Y-2 X179 F2400
G1 Z3 F720
M109 S215 ; wait for extruder temp

; intro line
G1 X170 F1000
G1 Z0.2 F720
G1 X110 E8 F900
G1 X40 E10 F700
G92 E0

M221 S95 ; set flow
G21 ; set units to millimeters
G90 ; use absolute coordinates
M83 ; use relative distances for extrusion
M900 K0.2 ; Filament gcode LA 1.5
; ; Filament gcode LA 1.0
M107
;LAYER_CHANGE
;Z:0.2
;HEIGHT:0.2
;BEFORE_LAYER_CHANGE
G92 E0.0
;0.2


G1 E-3.2 F4200
G1 Z.2 F720
;AFTER_LAYER_CHANGE
;0.2
G1 Z.4
G1 X60.933 Y74.511 F9000
G1 Z.2 F720
G1 E3.2 F2400
M204 P800
;TYPE:Skirt/Brim
;WIDTH:0.42
G1 F1200
G1 X61.606 Y74.021 E.02611
G1 X62.213 Y73.773 E.02057
G1 X63.126 Y73.637 E.02894
G1 X117.125 Y73.65 E1.69312
G1 X117.787 Y73.773 E.02109
G1 X118.394 Y74.021 E.02056
G1 X119.196 Y74.638 E.03174
G1 X119.811 Y75.566 E.03491
G1 X120.008 Y76.195 E.02066
G1 X120.068 Y76.691 E.01564
G1 X120.073 Y104.18 E.86191
G1 X119.681 Y105.487 E.04278
G1 X118.636 Y106.363 E.04278
G1 X117.696 Y106.557 E.03008
G1 X62.304 Y106.557 E1.73676
G1 X60.997 Y106.165 E.04278
G1 X60.121 Y105.12 E.04278
G1 X59.927 Y104.18 E.03008
G1 X59.932 Y76.691 E.86191
G1 X60.069 Y75.887 E.02556
G1 X60.406 Y75.154 E.0253
G1 X60.895 Y74.558 E.02417
M204 P1000
; printing object New Motor Mount.STL id:0 copy 0
G1 E-2.24 F4200
;WIPE_START
G1 F7200
G1 X61.606 Y74.021 E-.49374
G1 X62.213 Y73.773 E-.36348
G1 X62.311 Y73.758 E-.05477
;WIPE_END
G1 E-.048 F4200
G1 Z.4 F720
G1 X93.913 Y103.393 F9000
G1 Z.2 F720
G1 E3.2 F2400
M204 P800
;TYPE:Perimeter
;WIDTH:0.419999
G1 F1200
G1 X93.913 Y77.193 E.82149
G1 X116.517 Y77.204 E.70876
G1 X116.517 Y103.393 E.82113
G1 X93.973 Y103.393 E.70688
M204 P1000
M73 P0 R164
G1 X93.535 Y103.77 F9000
M204 P800
;TYPE:External perimeter
G1 F1200
G1 X93.535 Y76.887 E.84288
G1 X93.615 Y76.815 E.00337
G1 X116.85 Y76.827 E.7285
G1 X116.895 Y76.894 E.00252
G1 X116.895 Y103.77 E.84267
G1 X93.595 Y103.77 E.73053
M204 P1000
G1 X93.63 Y103.381 F9000
G1 E-2.24 F4200
;WIPE_START
G1 F7200
G1 X93.592 Y102.124 E-.912
;WIPE_END
G1 E-.048 F4200
G1 Z.4 F720
G1 X100.554 Y84.479 F9000
G1 Z.2 F720
G1 E3.2 F2400
M204 P800
;TYPE:Perimeter
G1 F1200
G1 X100.629 Y84.463 E.00239
G1 X111.072 Y84.463 E.32744
G1 X111.286 Y84.505 E.00685
G1 X111.479 Y84.637 E.00733
G1 X111.617 Y84.879 E.00875
G1 X111.637 Y85.029 E.00472
G1 X111.637 Y95.471 E.32743
G1 X111.559 Y95.758 E.00931
G1 X111.379 Y95.946 E.00818
G1 X111.169 Y96.029 E.00705
G1 X111.071 Y96.037 E.00308
G1 X100.629 Y96.037 E.32743
G1 X100.404 Y95.991 E.00718
G1 X100.234 Y95.876 E.00645
G1 X100.111 Y95.7 E.00674
G1 X100.063 Y95.471 E.00731
G1 X100.063 Y85.029 E.32743
G1 X100.11 Y84.803 E.00721
G1 X100.229 Y84.628 E.00666
G1 X100.4 Y84.511 E.00648
G1 X100.495 Y84.491 E.00306
M204 P1000
G1 X100.629 Y84.84 F9000
M204 P800
;TYPE:External perimeter
G1 F1200
G1 X111.072 Y84.84 E.32743
G1 X111.207 Y84.898 E.00463
G1 X111.26 Y85.029 E.00441
G1 X111.26 Y95.471 E.32743
G1 X111.206 Y95.603 E.00447
G1 X111.071 Y95.66 E.00458
G1 X100.629 Y95.66 E.32743
G1 X100.497 Y95.606 E.00446
G1 X100.44 Y95.471 E.00459
G1 X100.44 Y85.029 E.32743
G1 X100.495 Y84.895 E.00453
G1 X100.573 Y84.863 E.00263
M204 P1000
G1 X100.732 Y84.454 F9000
G1 E-2.24 F4200
;WIPE_START
G1 F7200
G1 X102.219 Y84.859 E-.912
;WIPE_END
G1 E-.048 F4200
G1 Z.4 F720
G1 X116.404 Y78.087 F9000
G1 Z.2 F720
G1 E3.2 F2400
M204 P800
;TYPE:Solid infill
;WIDTH:0.423317
G1 F1200
G1 X115.804 Y77.487 E.02684
G1 X115.266 Y77.486 E.01702
G1 X116.235 Y78.455 E.04332
G1 X116.235 Y78.993 E.01702
G1 X114.728 Y77.486 E.0674
G1 X114.19 Y77.486 E.01702
G1 X116.235 Y79.531 E.09147
G1 X116.235 Y80.069 E.01702
G1 X113.651 Y77.486 E.11555
G1 X113.113 Y77.485 E.01702
G1 X116.235 Y80.607 E.13963
G1 X116.235 Y81.145 E.01702
G1 X112.575 Y77.485 E.1637
G1 X112.037 Y77.485 E.01702
G1 X116.235 Y81.683 E.18778
G1 X116.235 Y82.221 E.01702
G1 X111.499 Y77.484 E.21186
G1 X110.96 Y77.484 E.01702
G1 X116.235 Y82.759 E.23593
G1 X116.235 Y83.296 E.01702
G1 X110.422 Y77.484 E.26001
G1 X109.884 Y77.484 E.01702
G1 X116.235 Y83.834 E.28408
G1 X116.235 Y84.372 E.01702
G1 X109.346 Y77.483 E.30816
G1 X108.807 Y77.483 E.01702
G1 X116.235 Y84.91 E.33224
G1 X116.235 Y85.448 E.01702
G1 X108.269 Y77.483 E.35631
G1 X107.731 Y77.483 E.01702
G1 X116.235 Y85.986 E.38039
G1 X116.235 Y86.524 E.01702
G1 X107.193 Y77.482 E.40447
G1 X106.654 Y77.482 E.01702
G1 X116.235 Y87.062 E.42854
G1 X116.235 Y87.6 E.01702
G1 X106.116 Y77.482 E.45262
G1 X105.578 Y77.481 E.01702
G1 X116.235 Y88.138 E.47669
G1 X116.235 Y88.676 E.01702
G1 X105.04 Y77.481 E.50077
G1 X104.501 Y77.481 E.01702
G1 X116.235 Y89.214 E.52485
G1 X116.235 Y89.752 E.01702
G1 X111.92 Y85.437 E.19301
G1 X111.92 Y85.975 E.01702
G1 X116.235 Y90.29 E.19301
G1 X116.235 Y90.828 E.01702
G1 X111.92 Y86.513 E.19301
G1 X111.92 Y87.051 E.01702
G1 X116.235 Y91.366 E.19301
G1 X116.235 Y91.904 E.01702
G1 X111.92 Y87.589 E.19301
G1 X111.92 Y88.127 E.01702
G1 X116.235 Y92.442 E.19301
G1 X116.235 Y92.98 E.01702
G1 X111.92 Y88.665 E.19301
G1 X111.92 Y89.203 E.01702
G1 X116.235 Y93.518 E.19301
G1 X116.235 Y94.056 E.01702
G1 X111.92 Y89.741 E.19301
G1 X111.92 Y90.279 E.01702
G1 X116.235 Y94.594 E.19301
G1 X116.235 Y95.132 E.01702
G1 X111.92 Y90.817 E.19301
G1 X111.92 Y91.355 E.01702
G1 X116.235 Y95.67 E.19301
G1 X116.235 Y96.208 E.01702
G1 X111.92 Y91.893 E.19301
G1 X111.92 Y92.431 E.01702
G1 X116.235 Y96.746 E.19301
G1 X116.235 Y97.284 E.01702
G1 X111.92 Y92.969 E.19301
G1 X111.92 Y93.507 E.01702
G1 X116.235 Y97.821 E.19301
G1 X116.235 Y98.359 E.01702
G1 X111.92 Y94.045 E.19301
G1 X111.92 Y94.583 E.01702
G1 X116.235 Y98.897 E.19301
G1 X116.235 Y99.435 E.01702
G1 X111.92 Y95.121 E.19301
G1 X111.92 Y95.478 E.0113
G1 X111.898 Y95.637 E.00508
G1 X116.235 Y99.973 E.19398
G1 X116.235 Y100.511 E.01702
G1 X111.726 Y96.003 E.20167
G1 X111.678 Y96.065 E.00249
G1 X111.533 Y96.184 E.00594
G1 X111.425 Y96.24 E.00384
G1 X116.235 Y101.049 E.21515
G1 X116.235 Y101.587 E.01702
G1 X110.967 Y96.32 E.23562
G1 X110.429 Y96.32 E.01702
G1 X116.235 Y102.125 E.25968
G1 X116.235 Y102.663 E.01702
G1 X109.891 Y96.32 E.28375
G1 X109.353 Y96.32 E.01702
G1 X116.144 Y103.11 E.30374
G1 X115.606 Y103.11 E.01702
G1 X108.815 Y96.32 E.30374
G1 X108.278 Y96.32 E.01702
G1 X115.068 Y103.11 E.30374
G1 X114.53 Y103.11 E.01702
G1 X107.74 Y96.32 E.30374
G1 X107.202 Y96.32 E.01702
G1 X113.992 Y103.11 E.30374
G1 X113.454 Y103.11 E.01702
G1 X106.664 Y96.32 E.30374
G1 X106.126 Y96.32 E.01702
G1 X112.916 Y103.11 E.30374
G1 X112.378 Y103.11 E.01702
G1 X105.588 Y96.32 E.30374
G1 X105.05 Y96.32 E.01702
G1 X111.84 Y103.11 E.30374
G1 X111.302 Y103.11 E.01702
G1 X104.512 Y96.32 E.30374
G1 X103.974 Y96.32 E.01702
G1 X110.764 Y103.11 E.30374
G1 X110.226 Y103.11 E.01702
G1 X103.436 Y96.32 E.30374
G1 X102.898 Y96.32 E.01702
G1 X109.688 Y103.11 E.30374
G1 X109.15 Y103.11 E.01702
G1 X102.36 Y96.32 E.30374
G1 X101.822 Y96.32 E.01702
G1 X108.612 Y103.11 E.30374
G1 X108.074 Y103.11 E.01702
G1 X101.114 Y96.15 E.31133
M204 P1000
G1 E-2.24 F4200
;WIPE_START
G1 F7200
G1 X102.278 Y97.314 E-.912
;WIPE_END
G1 E-.048 F4200
G1 Z.4 F720
G1 X110.832 Y84.35 F9000
G1 Z.2 F720
G1 E3.2 F2400
M204 P800
G1 F1200
G1 X103.963 Y77.481 E.30727
G1 X103.425 Y77.48 E.01702
G1 X110.125 Y84.18 E.29969
G1 X109.587 Y84.18 E.01702
G1 X102.887 Y77.48 E.29971
G1 X102.349 Y77.48 E.01702
G1 X109.049 Y84.18 E.29972
G1 X108.511 Y84.18 E.01702
G1 X101.81 Y77.48 E.29973
G1 X101.272 Y77.479 E.01702
G1 X107.973 Y84.18 E.29974
G1 X107.435 Y84.18 E.01702
G1 X100.734 Y77.479 E.29976
G1 X100.196 Y77.479 E.01702
G1 X106.897 Y84.18 E.29977
G1 X106.359 Y84.18 E.01702
G1 X99.657 Y77.478 E.29978
G1 X99.119 Y77.478 E.01702
G1 X105.821 Y84.18 E.29979
G1 X105.283 Y84.18 E.01702
G1 X98.581 Y77.478 E.2998
G1 X98.043 Y77.478 E.01702
G1 X104.745 Y84.18 E.29982
G1 X104.207 Y84.18 E.01702
G1 X97.504 Y77.477 E.29983
G1 X96.966 Y77.477 E.01702
G1 X103.669 Y84.18 E.29984
G1 X103.131 Y84.18 E.01702
G1 X96.428 Y77.477 E.29985
G1 X95.89 Y77.476 E.01702
G1 X102.593 Y84.18 E.29987
G1 X102.055 Y84.18 E.01702
G1 X95.351 Y77.476 E.29988
G1 X94.813 Y77.476 E.01702
G1 X101.517 Y84.18 E.29989
G1 X100.979 Y84.18 E.01702
G1 X94.275 Y77.476 E.2999
G1 X94.195 Y77.476 E.00252
G1 X94.195 Y77.934 E.0145
G1 X100.459 Y84.198 E.28018
G1 X100.286 Y84.252 E.00575
G1 X100.095 Y84.372 E.00711
G1 X94.195 Y78.472 E.26392
G1 X94.195 Y79.01 E.01702
G1 X99.859 Y84.674 E.25336
G1 X99.798 Y84.854 E.00603
G1 X99.78 Y85.133 E.00882
G1 X94.195 Y79.548 E.24982
G1 X94.195 Y80.086 E.01702
G1 X99.78 Y85.671 E.24982
G1 X99.78 Y86.209 E.01702
G1 X94.195 Y80.624 E.24982
G1 X94.195 Y81.162 E.01702
G1 X99.78 Y86.747 E.24982
G1 X99.78 Y87.285 E.01702
G1 X94.195 Y81.7 E.24982
G1 X94.195 Y82.238 E.01702
G1 X99.78 Y87.822 E.24982
G1 X99.78 Y88.36 E.01702
G1 X94.195 Y82.776 E.24982
G1 X94.195 Y83.314 E.01702
G1 X99.78 Y88.898 E.24982
G1 X99.78 Y89.436 E.01702
G1 X94.195 Y83.852 E.24982
G1 X94.195 Y84.39 E.01702
G1 X99.78 Y89.974 E.24982
G1 X99.78 Y90.512 E.01702
G1 X94.195 Y84.927 E.24982
G1 X94.195 Y85.465 E.01702
G1 X99.78 Y91.05 E.24982
G1 X99.78 Y91.588 E.01702
G1 X94.195 Y86.003 E.24982
G1 X94.195 Y86.541 E.01702
G1 X99.78 Y92.126 E.24982
G1 X99.78 Y92.664 E.01702
G1 X94.195 Y87.079 E.24982
G1 X94.195 Y87.617 E.01702
G1 X99.78 Y93.202 E.24982
G1 X99.78 Y93.74 E.01702
G1 X94.195 Y88.155 E.24982
G1 X94.195 Y88.693 E.01702
G1 X99.78 Y94.278 E.24982
G1 X99.78 Y94.816 E.01702
G1 X94.195 Y89.231 E.24982
G1 X94.195 Y89.769 E.01702
G1 X99.78 Y95.354 E.24982
G1 X99.798 Y95.648 E.00933
M73 P0 R163
G1 X99.852 Y95.814 E.0055
G1 X99.934 Y95.959 E.00528
G1 X100.036 Y96.079 E.00497
G1 X100.149 Y96.172 E.00464
G1 X100.292 Y96.251 E.00518
G1 X100.455 Y96.302 E.0054
G1 X100.746 Y96.32 E.00922
G1 X107.536 Y103.11 E.30374
G1 X106.998 Y103.11 E.01702
G1 X94.195 Y90.307 E.5727
G1 X94.195 Y90.845 E.01702
G1 X106.46 Y103.11 E.54864
G1 X105.922 Y103.11 E.01702
G1 X94.195 Y91.383 E.52457
G1 X94.195 Y91.921 E.01702
G1 X105.384 Y103.11 E.50051
G1 X104.846 Y103.11 E.01702
G1 X94.195 Y92.459 E.47645
G1 X94.195 Y92.997 E.01702
G1 X104.309 Y103.11 E.45238
G1 X103.771 Y103.11 E.01702
G1 X94.195 Y93.535 E.42832
G1 X94.195 Y94.073 E.01702
G1 X103.233 Y103.11 E.40425
G1 X102.695 Y103.11 E.01702
G1 X94.195 Y94.611 E.38019
G1 X94.195 Y95.149 E.01702
G1 X102.157 Y103.11 E.35613
G1 X101.619 Y103.11 E.01702
G1 X94.195 Y95.687 E.33206
G1 X94.195 Y96.225 E.01702
G1 X101.081 Y103.11 E.308
G1 X100.543 Y103.11 E.01702
G1 X94.195 Y96.763 E.28393
G1 X94.195 Y97.301 E.01702
M73 P1 R163
G1 X100.005 Y103.11 E.25987
G1 X99.467 Y103.11 E.01702
G1 X94.195 Y97.839 E.23581
G1 X94.195 Y98.377 E.01702
G1 X98.929 Y103.11 E.21174
G1 X98.391 Y103.11 E.01702
G1 X94.195 Y98.915 E.18768
G1 X94.195 Y99.452 E.01702
G1 X97.853 Y103.11 E.16361
G1 X97.315 Y103.11 E.01702
G1 X94.195 Y99.99 E.13955
G1 X94.195 Y100.528 E.01702
G1 X96.777 Y103.11 E.11549
G1 X96.239 Y103.11 E.01702
G1 X94.195 Y101.066 E.09142
G1 X94.195 Y101.604 E.01702
G1 X95.701 Y103.11 E.06736
G1 X95.163 Y103.11 E.01702
G1 X94.195 Y102.142 E.04329
G1 X94.195 Y102.68 E.01702
G1 X94.795 Y103.28 E.02682
M204 P1000
G1 E-2.24 F4200
;WIPE_START
G1 F7200
G1 X94.195 Y102.68 E-.46989
G1 X94.195 Y102.142 E-.29812
G1 X94.379 Y102.326 E-.14399
;WIPE_END
G1 E-.048 F4200
G1 Z.4 F720
G1 X86.087 Y103.393 F9000
G1 Z.2 F720
G1 E3.2 F2400
M204 P800
;TYPE:Perimeter
;WIDTH:0.419999
G1 F1200
G1 X63.483 Y103.393 E.70876
G1 X63.483 Y77.193 E.82149
G1 X86.087 Y77.193 E.70876
G1 X86.087 Y103.333 E.81961
M204 P1000
G1 X86.465 Y103.77 F9000
M204 P800
;TYPE:External perimeter
G1 F1200
G1 X63.105 Y103.77 E.73241
G1 X63.105 Y76.896 E.84261
G1 X63.168 Y76.815 E.0032
G1 X86.364 Y76.815 E.72731
G1 X86.419 Y76.83 E.00176
G1 X86.465 Y76.899 E.00261
G1 X86.465 Y103.71 E.84063
M204 P1000
G1 X86.118 Y103.57 F9000
G1 E-2.24 F4200
;WIPE_START
G1 F7200
G1 X84.819 Y103.714 E-.912
;WIPE_END
G1 E-.048 F4200
G1 Z.4 F720
G1 X68.386 Y84.943 F9000
G1 Z.2 F720
G1 E3.2 F2400
M204 P800
;TYPE:Perimeter
G1 F1200
G1 X68.439 Y84.745 E.00644
G1 X68.616 Y84.557 E.00811
G1 X68.831 Y84.471 E.00723
G1 X68.929 Y84.463 E.00308
G1 X79.371 Y84.463 E.32743
G1 X79.6 Y84.511 E.00732
G1 X79.771 Y84.628 E.00648
G1 X79.89 Y84.803 E.00666
G1 X79.937 Y85.029 E.00721
G1 X79.937 Y95.471 E.32743
G1 X79.889 Y95.7 E.00731
G1 X79.766 Y95.876 E.00674
G1 X79.596 Y95.991 E.00645
G1 X79.371 Y96.037 E.00718
G1 X68.929 Y96.037 E.32743
G1 X68.721 Y95.998 E.00663
G1 X68.524 Y95.867 E.00739
G1 X68.383 Y95.623 E.00885
G1 X68.363 Y95.471 E.00478
G1 X68.37 Y85.001 E.32828
M204 P1000
G1 X68.74 Y85.029 F9000
M204 P800
;TYPE:External perimeter
G1 F1200
G1 X68.793 Y84.898 E.00442
G1 X68.929 Y84.84 E.00463
G1 X79.371 Y84.84 E.32743
G1 X79.505 Y84.895 E.00451
G1 X79.56 Y85.029 E.00453
G1 X79.56 Y95.471 E.32743
G1 X79.503 Y95.606 E.00459
G1 X79.371 Y95.66 E.00446
G1 X68.929 Y95.66 E.32743
G1 X68.794 Y95.603 E.00458
G1 X68.74 Y95.471 E.00447
G1 X68.74 Y85.089 E.32555
M204 P1000
G1 X68.64 Y84.93 F9000
G1 E-2.24 F4200
;WIPE_START
G1 F7200
G1 X68.793 Y84.898 E-.10967
G1 X68.929 Y84.84 E-.0818
G1 X70.229 Y84.84 E-.72053
;WIPE_END
G1 E-.048 F4200
G1 Z.4 F720
G1 X85.205 Y77.306 F9000
G1 Z.2 F720
G1 E3.2 F2400
M204 P800
;TYPE:Solid infill
;WIDTH:0.423408
G1 F1200
G1 X85.805 Y77.905 E.02684
G1 X85.805 Y78.444 E.01702
G1 X84.836 Y77.475 E.04332
G1 X84.298 Y77.475 E.01702
G1 X85.805 Y78.982 E.0674
G1 X85.805 Y79.52 E.01702
G1 X83.76 Y77.475 E.09147
G1 X83.222 Y77.475 E.01702
G1 X85.805 Y80.058 E.11555
G1 X85.805 Y80.596 E.01702
G1 X82.684 Y77.475 E.13962
G1 X82.146 Y77.475 E.01702
G1 X85.805 Y81.134 E.1637
G1 X85.805 Y81.672 E.01702
G1 X81.608 Y77.475 E.18777
G1 X81.07 Y77.475 E.01702
G1 X85.805 Y82.21 E.21185
G1 X85.805 Y82.748 E.01702
G1 X80.532 Y77.475 E.23592
G1 X79.994 Y77.475 E.01702
G1 X85.805 Y83.286 E.26
G1 X85.805 Y83.824 E.01702
G1 X79.456 Y77.475 E.28408
G1 X78.917 Y77.475 E.01702
G1 X85.805 Y84.363 E.30815
G1 X85.805 Y84.901 E.01702
G1 X78.379 Y77.475 E.33223
G1 X77.841 Y77.475 E.01702
G1 X85.805 Y85.439 E.3563
G1 X85.805 Y85.977 E.01702
G1 X77.303 Y77.475 E.38038
G1 X76.765 Y77.475 E.01702
G1 X85.805 Y86.515 E.40445
G1 X85.805 Y87.053 E.01702
G1 X76.227 Y77.475 E.42853
G1 X75.689 Y77.475 E.01702
G1 X85.805 Y87.591 E.4526
G1 X85.805 Y88.129 E.01702
G1 X75.151 Y77.475 E.47668
G1 X74.613 Y77.475 E.01702
G1 X85.805 Y88.667 E.50076
G1 X85.805 Y89.205 E.01702
G1 X74.075 Y77.475 E.52483
G1 X73.537 Y77.475 E.01702
G1 X85.805 Y89.743 E.54891
G1 X85.805 Y90.282 E.01702
G1 X72.998 Y77.475 E.57298
G1 X72.46 Y77.475 E.01702
G1 X79.165 Y84.18 E.29999
G1 X78.627 Y84.18 E.01702
G1 X71.922 Y77.475 E.29999
G1 X71.384 Y77.475 E.01702
G1 X78.089 Y84.18 E.29999
G1 X77.551 Y84.18 E.01702
G1 X70.846 Y77.475 E.29999
G1 X70.308 Y77.475 E.01702
G1 X77.013 Y84.18 E.29999
G1 X76.475 Y84.18 E.01702
G1 X69.77 Y77.475 E.29999
G1 X69.232 Y77.475 E.01702
G1 X75.937 Y84.18 E.29999
G1 X75.399 Y84.18 E.01702
G1 X68.694 Y77.475 E.29999
G1 X68.156 Y77.475 E.01702
G1 X74.86 Y84.18 E.29999
G1 X74.322 Y84.18 E.01702
G1 X67.618 Y77.475 E.29999
G1 X67.079 Y77.475 E.01702
G1 X73.784 Y84.18 E.29999
G1 X73.246 Y84.18 E.01702
