; generated by PrusaSlicer 2.5.2+win64 on 2023-05-11 at 20:08:21 UTC


;
;

;
;
; 

; external perimeters extrusion width = 0.45mm
; perimeters extrusion width = 0.45mm
; infill extrusion width = 0.45mm
; solid infill extrusion width = 0.45mm
; top infill extrusion width = 0.40mm
; first layer extrusion width = 0.42mm

M73 P0 R84
M201 X2500 Y2500 Z400 E5000 ; sets maximum accelerations, mm/sec^2
M203 X180 Y180 Z12 E80 ; sets maximum feedrates, mm / sec
M204 P1250 R1250 T2500 ; sets acceleration (P, T) and retract acceleration (R), mm/sec^2
M205 X8.00 Y8.00 Z2.00 E10.00 ; sets the jerk limits, mm/sec
M205 S0 T0 ; sets the minimum extruding and travel feed rate, mm/sec
M107
;TYPE:Custom
M862.3 P "MINI" ; printer model check
G90 ; use absolute coordinates
M83 ; extruder relative mode
M104 S170 ; set extruder temp for bed leveling
M140 S60 ; set bed temp
M109 R170 ; wait for bed leveling temp
M190 S60 ; wait for bed temp
M204 T1250 ; set travel acceleration
G28 ; home all without mesh bed level
G29 ; mesh bed leveling 
M204 T2500 ; restore travel acceleration
M104 S215 ; set extruder temp
G92 E0
G1 Y-2 X179 F2400
G1 Z3 F720
M109 S215 ; wait for extruder temp

; intro line
G1 X170 F1000
G1 Z0.2 F720
G1 X110 E8 F900
G1 X40 E10 F700
G92 E0

M221 S95 ; set flow
G21 ; set units to millimeters
G90 ; use absolute coordinates
M83 ; use relative distances for extrusion
M900 K0.2 ; Filament gcode LA 1.5
; ; Filament gcode LA 1.0
M107
;LAYER_CHANGE
;Z:0.2
;HEIGHT:0.2
;BEFORE_LAYER_CHANGE
G92 E0.0
;0.2


G1 E-3.2 F4200
G1 Z.2 F720
;AFTER_LAYER_CHANGE
;0.2
G1 Z.4
G1 X57.166 Y50.845 F9000
G1 Z.2 F720
G1 E3.2 F2400
M204 P800
;TYPE:Skirt/Brim
;WIDTH:0.42
G1 F1200
G1 X58.736 Y49.812 E.05893
G1 X88.736 Y44.483 E.95537
G1 X90.203 Y44.382 E.0461
G1 X91.266 Y44.483 E.03347
G1 X121.266 Y49.812 E.95537
G1 X122.485 Y50.426 E.04278
G1 X123.228 Y52.153 E.05893
G1 X123.228 Y127.849 E2.3734
G1 X122.836 Y129.156 E.04278
M73 P0 R83
G1 X121.266 Y130.189 E.05893
G1 X91.266 Y135.517 E.95537
G1 X90.203 Y135.618 E.03346
G1 X88.736 Y135.517 E.0461
G1 X58.736 Y130.189 E.95537
G1 X57.517 Y129.575 E.04278
G1 X56.774 Y127.849 E.05893
G1 X56.774 Y52.153 E2.3734
G1 X57.149 Y50.903 E.0409
M204 P1000
; printing object Pico_Top.STL id:0 copy 0
G1 E-2.24 F4200
;WIPE_START
G1 F7200
G1 X58.505 Y49.971 E-.912
;WIPE_END
G1 E-.048 F4200
G1 Z.4 F720
G1 X85.893 Y52.896 F9000
G1 Z.2 F720
G1 E3.2 F2400
M204 P800
;TYPE:Perimeter
;WIDTH:0.419999
G1 F1200
G1 X85.905 Y52.826 E.00222
G1 X85.824 Y52.296 E.01681
G1 X85.792 Y51.616 E.02133
G1 X85.879 Y50.888 E.023
G1 X86.085 Y50.202 E.02246
G1 X86.404 Y49.56 E.02247
G1 X86.803 Y49.017 E.02113
G1 X87.186 Y48.638 E.01688
G1 X87.577 Y48.326 E.01569
G1 X88.034 Y48.034 E.01701
G1 X87.873 Y48.419 E.0131
G1 X87.77 Y48.761 E.01118
G1 X87.716 Y49.204 E.01398
G1 X87.741 Y49.597 E.01236
G1 X87.837 Y49.986 E.01256
G1 X87.996 Y50.349 E.01242
G1 X88.219 Y50.683 E.01257
G1 X88.493 Y50.97 E.01246
G1 X88.819 Y51.206 E.01261
G1 X89.173 Y51.38 E.01238
G1 X89.553 Y51.492 E.01243
G1 X89.95 Y51.537 E.01253
G1 X90.353 Y51.509 E.01266
G1 X90.779 Y51.401 E.01378
G1 X91.227 Y51.175 E.01572
G1 X91.684 Y50.791 E.01871
G1 X91.953 Y50.441 E.01386
G1 X92.098 Y50.15 E.01019
G1 X92.227 Y49.757 E.01296
G1 X92.288 Y49.303 E.01436
G1 X92.26 Y48.898 E.01273
G1 X92.164 Y48.512 E.01246
G1 X91.911 Y48.007 E.01772
G1 X92.059 Y48.077 E.00514
G1 X92.656 Y48.484 E.02266
G1 X93.173 Y48.981 E.02249
G1 X93.598 Y49.56 E.0225
G1 X93.917 Y50.201 E.02244
G1 X94.12 Y50.887 E.02244
G1 X94.209 Y51.63 E.02348
G1 X94.17 Y52.354 E.02272
G1 X94.1 Y52.924 E.018
G1 X94.188 Y53.164 E.00802
G1 X94.395 Y53.354 E.0088
G1 X94.662 Y53.42 E.00861
G1 X119.577 Y53.425 E.78119
G1 X119.577 Y126.575 E2.29359
G1 X94.562 Y126.589 E.78433
G1 X94.3 Y126.711 E.00905
G1 X94.141 Y126.926 E.00838
G1 X94.097 Y127.177 E.008
G1 X94.177 Y127.706 E.01676
G1 X94.209 Y128.37 E.02084
G1 X94.121 Y129.113 E.02347
G1 X93.917 Y129.799 E.02245
G1 X93.598 Y130.44 E.02244
G1 X93.173 Y131.019 E.0225
G1 X92.811 Y131.367 E.01576
G1 X92.425 Y131.674 E.01545
G1 X91.965 Y131.967 E.01711
G1 X92.129 Y131.581 E.01317
G1 X92.232 Y131.239 E.01118
G1 X92.288 Y130.801 E.01385
G1 X92.26 Y130.398 E.01266
G1 X92.165 Y130.014 E.0124
G1 X92.006 Y129.651 E.01242
G1 X91.783 Y129.317 E.01257
G1 X91.509 Y129.031 E.01244
G1 X91.188 Y128.795 E.01249
G1 X90.827 Y128.619 E.01258
G1 X90.388 Y128.495 E.01431
G1 X89.862 Y128.474 E.01649
G1 X89.309 Y128.576 E.01764
G1 X88.902 Y128.746 E.01382
G1 X88.605 Y128.942 E.01118
G1 X88.282 Y129.242 E.01382
G1 X88.05 Y129.558 E.01228
G1 X87.905 Y129.848 E.01019
G1 X87.775 Y130.243 E.01302
G1 X87.716 Y130.701 E.01449
G1 X87.741 Y131.097 E.01243
G1 X87.838 Y131.488 E.01262
G1 X88.092 Y131.993 E.01773
G1 X87.943 Y131.923 E.00515
G1 X87.346 Y131.516 E.02266
G1 X86.829 Y131.019 E.02249
G1 X86.404 Y130.44 E.0225
G1 X86.085 Y129.798 E.02247
G1 X85.879 Y129.112 E.02246
G1 X85.793 Y128.386 E.02293
G1 X85.83 Y127.657 E.02287
G1 X85.902 Y127.078 E.01832
G1 X85.802 Y126.819 E.00868
G1 X85.607 Y126.646 E.00819
G1 X85.34 Y126.58 E.00862
G1 X60.425 Y126.575 E.78119
G1 X60.425 Y53.425 E2.29359
G1 X85.34 Y53.42 E.78118
G1 X85.44 Y53.411 E.00315
G1 X85.701 Y53.29 E.00903
G1 X85.861 Y53.074 E.0084
G1 X85.882 Y52.955 E.00381
M204 P1000
G1 X85.528 Y52.845 F9000
M204 P800
;TYPE:External perimeter
G1 F1200
G1 X85.449 Y52.334 E.01621
G1 X85.414 Y51.603 E.02296
G1 X85.509 Y50.811 E.025
G1 X85.733 Y50.062 E.02449
G1 X86.081 Y49.363 E.0245
G1 X86.544 Y48.732 E.02453
G1 X87.107 Y48.19 E.02451
G1 X87.715 Y47.776 E.02307
G1 X88.146 Y47.565 E.01506
;WIDTH:0.422583
G1 X88.626 Y47.362 E.01644
G1 X89.366 Y47.144 E.02436
;WIDTH:0.419747
G1 X89.901 Y47.075 E.0169
;WIDTH:0.417126
G1 X90.398 Y47.111 E.0155
;WIDTH:0.428307
G1 X91.018 Y47.248 E.02036
G1 X91.525 Y47.409 E.01703
;WIDTH:0.419999
G1 X92.247 Y47.749 E.02501
G1 X92.895 Y48.19 E.02459
G1 X93.458 Y48.732 E.02451
G1 X93.921 Y49.363 E.02453
G1 X94.269 Y50.062 E.02448
G1 X94.491 Y50.81 E.02448
G1 X94.588 Y51.618 E.02551
G1 X94.551 Y52.29 E.02108
G1 X94.476 Y52.825 E.01694
G1 X94.519 Y52.978 E.00499
G1 X94.662 Y53.043 E.00493
G1 X119.954 Y53.048 E.79301
G1 X119.954 Y78.34 E.79301
G1 X119.954 Y126.952 E1.52422
G1 X94.662 Y126.957 E.79301
M73 P1 R83
G1 X94.531 Y127.01 E.00443
G1 X94.474 Y127.156 E.00492
G1 X94.552 Y127.667 E.01621
G1 X94.588 Y128.383 E.02246
G1 X94.491 Y129.189 E.02547
G1 X94.269 Y129.938 E.02448
G1 X93.921 Y130.637 E.02448
G1 X93.458 Y131.268 E.02453
G1 X92.895 Y131.81 E.02451
G1 X92.286 Y132.224 E.02308
G1 X91.855 Y132.436 E.01507
;WIDTH:0.422498
G1 X91.379 Y132.637 E.01632
;WIDTH:0.435998
G1 X90.749 Y132.834 E.02157
G1 X90.026 Y132.927 E.02381
;WIDTH:0.430898
G1 X89.604 Y132.889 E.01368
;WIDTH:0.428761
G1 X88.985 Y132.753 E.02033
G1 X88.477 Y132.591 E.01711
;WIDTH:0.419999
G1 X87.755 Y132.251 E.02501
G1 X87.107 Y131.81 E.02459
G1 X86.544 Y131.268 E.02451
G1 X86.081 Y130.637 E.02453
G1 X85.733 Y129.938 E.0245
G1 X85.509 Y129.189 E.02449
G1 X85.414 Y128.399 E.02496
G1 X85.449 Y127.726 E.02112
G1 X85.526 Y127.176 E.01744
G1 X85.487 Y127.027 E.0048
G1 X85.34 Y126.957 E.00512
G1 X60.048 Y126.952 E.79301
G1 X60.048 Y53.048 E2.31723
G1 X85.34 Y53.043 E.793
G1 X85.471 Y52.99 E.00442
G1 X85.506 Y52.901 E.00302
M204 P1000
G1 X85.901 Y52.699 F9000
G1 E-2.24 F4200
;WIPE_START
G1 F7200
G1 X85.449 Y52.334 E-.31561
G1 X85.414 Y51.603 E-.40587
G1 X85.455 Y51.261 E-.19052
;WIPE_END
G1 E-.048 F4200
G1 Z.4 F720
G1 X89.067 Y47.635 F9000
G1 Z.2 F720
G1 E3.2 F2400
M204 P800
;WIDTH:0.428765
G1 F1200
G1 X89.415 Y47.518 E.01178
;WIDTH:0.419747
G1 X89.95 Y47.446 E.0169
;WIDTH:0.417126
G1 X90.328 Y47.474 E.01181
;WIDTH:0.428703
G1 X90.887 Y47.61 E.01843
G1 X91.255 Y47.837 E.0139
;WIDTH:0.419999
G1 X91.466 Y48.037 E.00908
G1 X91.661 Y48.311 E.01055
G1 X91.8 Y48.611 E.01039
G1 X91.884 Y48.933 E.01041
G1 X91.912 Y49.268 E.01057
G1 X91.863 Y49.659 E.01234
G1 X91.664 Y50.191 E.01781
G1 X91.441 Y50.502 E.012
G1 X90.984 Y50.886 E.01871
G1 X90.653 Y51.046 E.01153
G1 X90.319 Y51.134 E.01084
G1 X89.985 Y51.161 E.0105
G1 X89.652 Y51.128 E.0105
G1 X89.332 Y51.039 E.0104
G1 X88.828 Y50.754 E.01817
G1 X88.527 Y50.466 E.01304
G1 X88.247 Y49.993 E.01723
G1 X88.117 Y49.565 E.01402
G1 X88.092 Y49.235 E.01038
G1 X88.134 Y48.86 E.01184
G1 X88.213 Y48.58 E.00911
G1 X88.359 Y48.28 E.01046
G1 X88.561 Y48.009 E.01059
;WIDTH:0.422583
G1 X88.813 Y47.781 E.01074
;WIDTH:0.428765
G1 X89.015 Y47.665 E.00748
M204 P1000
G1 E-2.24 F4200
;WIPE_START
G1 F7200
G1 X89.415 Y47.518 E-.23614
G1 X89.95 Y47.446 E-.29894
G1 X90.328 Y47.474 E-.21037
G1 X90.62 Y47.545 E-.16655
;WIPE_END
G1 E-.048 F4200
G1 Z.4 F720
G1 X88.11 Y130.587 F9000
G1 Z.2 F720
G1 E3.2 F2400
M204 P800
;WIDTH:0.419999
G1 F1200
G1 X88.139 Y130.341 E.00776
G1 X88.338 Y129.809 E.01781
G1 X88.548 Y129.509 E.01149
G1 X88.82 Y129.252 E.01172
G1 X89.062 Y129.087 E.00917
G1 X89.378 Y128.947 E.01084
G1 X89.931 Y128.845 E.01764
G1 X90.35 Y128.872 E.01318
G1 X90.669 Y128.961 E.01037
G1 X91.162 Y129.237 E.01771
G1 X91.475 Y129.534 E.01352
G1 X91.756 Y130.008 E.01729
G1 X91.885 Y130.432 E.01389
G1 X91.912 Y130.766 E.0105
G1 X91.868 Y131.14 E.0118
G1 X91.789 Y131.42 E.00911
G1 X91.642 Y131.721 E.0105
G1 X91.442 Y131.988 E.01047
G1 X91.254 Y132.163 E.00806
;WIDTH:0.428886
G1 X90.887 Y132.39 E.01385
G1 X90.328 Y132.526 E.01844
;WIDTH:0.413357
G1 X89.72 Y132.532 E.01875
;WIDTH:0.429156
G1 X89.117 Y132.39 E.01988
G1 X88.748 Y132.163 E.01392
;WIDTH:0.419999
G1 X88.537 Y131.962 E.00915
G1 X88.341 Y131.69 E.0105
G1 X88.202 Y131.389 E.01041
G1 X88.117 Y131.065 E.01048
G1 X88.092 Y130.733 E.01045
G1 X88.102 Y130.646 E.00274
M204 P1000
G1 X87.905 Y130.447 F9000
G1 E-2.24 F4200
;WIPE_START
G1 F7200
G1 X88.139 Y130.341 E-.17033
G1 X88.338 Y129.809 E-.31482
G1 X88.548 Y129.509 E-.20314
G1 X88.82 Y129.252 E-.20713
G1 X88.845 Y129.235 E-.01657
;WIPE_END
G1 E-.048 F4200
G1 Z.4 F720
G1 X93.94 Y50.676 F9000
G1 Z.2 F720
G1 E3.2 F2400
M204 P800
;TYPE:Solid infill
;WIDTH:0.420592
G1 F1200
G1 X92.571 Y49.307 E.0608
G1 X92.541 Y49.635 E.01035
G1 X92.507 Y49.777 E.00458
G1 X93.865 Y51.136 E.06034
G1 X93.926 Y51.64 E.01594
G1 X93.921 Y51.725 E.00269
G1 X92.384 Y50.188 E.06826
G1 X92.26 Y50.474 E.00978
G1 X92.21 Y50.548 E.00282
G1 X94.05 Y52.389 E.08174
M204 P1000
G1 E-2.24 F4200
;WIPE_START
G1 F7200
G1 X92.886 Y51.225 E-.912
;WIPE_END
G1 E-.048 F4200
G1 Z.4 F720
G1 X87.607 Y49.15 F9000
G1 Z.2 F720
G1 E3.2 F2400
M204 P800
G1 F1200
G1 X87.339 Y48.883 E.01189
G1 X87.067 Y49.144 E.01186
G1 X87.651 Y49.728 E.02594
M204 P1000
G1 E-2.24 F4200
;WIPE_START
G1 F7200
G1 X87.067 Y49.144 E-.45768
G1 X87.339 Y48.883 E-.20933
G1 X87.607 Y49.15 E-.20979
;WIPE_END
G1 E-.0832 F4200
G1 Z.4 F720
G1 X119.464 Y54.301 F9000
G1 Z.2 F720
G1 E3.2 F2400
M204 P800
G1 F1200
G1 X118.87 Y53.707 E.02638
G1 X118.335 Y53.707 E.01678
G1 X119.294 Y54.666 E.04257
G1 X119.294 Y55.2 E.01677
G1 X117.801 Y53.707 E.06629
G1 X117.267 Y53.707 E.01678
G1 X119.294 Y55.734 E.09002
G1 X119.294 Y56.268 E.01677
G1 X116.733 Y53.707 E.11374
G1 X116.199 Y53.707 E.01678
G1 X119.294 Y56.802 E.13746
G1 X119.294 Y57.336 E.01677
G1 X115.664 Y53.707 E.16119
G1 X115.13 Y53.707 E.01678
G1 X119.294 Y57.87 E.18491
G1 X119.294 Y58.404 E.01677
G1 X114.596 Y53.707 E.20864
G1 X114.062 Y53.706 E.01678
G1 X119.294 Y58.938 E.23236
G1 X119.294 Y59.473 E.01677
G1 X113.528 Y53.706 E.25609
G1 X112.993 Y53.706 E.01678
G1 X119.294 Y60.007 E.27981
G1 X119.294 Y60.541 E.01677
G1 X112.459 Y53.706 E.30354
G1 X111.925 Y53.706 E.01678
G1 X119.294 Y61.075 E.32726
G1 X119.294 Y61.609 E.01677
G1 X111.391 Y53.706 E.35098
G1 X110.857 Y53.706 E.01678
G1 X119.294 Y62.143 E.37471
G1 X119.294 Y62.677 E.01677
G1 X110.322 Y53.706 E.39843
G1 X109.788 Y53.706 E.01678
G1 X119.294 Y63.211 E.42216
G1 X119.294 Y63.745 E.01677
G1 X109.254 Y53.706 E.44588
G1 X108.72 Y53.706 E.01678
G1 X119.294 Y64.28 E.46961
G1 X119.294 Y64.814 E.01677
G1 X108.186 Y53.705 E.49333
G1 X107.651 Y53.705 E.01678
G1 X119.294 Y65.348 E.51706
G1 X119.294 Y65.882 E.01677
G1 X107.117 Y53.705 E.54078
G1 X106.583 Y53.705 E.01678
G1 X119.294 Y66.416 E.56451
G1 X119.294 Y66.95 E.01677
G1 X106.049 Y53.705 E.58823
G1 X105.515 Y53.705 E.01678
G1 X119.294 Y67.484 E.61195
G1 X119.294 Y68.018 E.01677
G1 X104.98 Y53.705 E.63568
G1 X104.446 Y53.705 E.01678
G1 X119.294 Y68.552 E.6594
G1 X119.294 Y69.087 E.01677
G1 X103.912 Y53.705 E.68313
G1 X103.378 Y53.705 E.01678
M73 P1 R82
G1 X119.294 Y69.621 E.70685
G1 X119.294 Y70.155 E.01677
G1 X102.844 Y53.705 E.73058
G1 X102.309 Y53.704 E.01678
G1 X119.294 Y70.689 E.7543
G1 X119.294 Y71.223 E.01677
G1 X101.775 Y53.704 E.77803
G1 X101.241 Y53.704 E.01678
G1 X119.294 Y71.757 E.80175
G1 X119.294 Y72.291 E.01677
G1 X100.707 Y53.704 E.82547
G1 X100.173 Y53.704 E.01678
G1 X119.294 Y72.825 E.8492
G1 X119.294 Y73.359 E.01677
G1 X99.638 Y53.704 E.87292
G1 X99.104 Y53.704 E.01678
G1 X119.294 Y73.894 E.89665
G1 X119.294 Y74.428 E.01677
G1 X98.57 Y53.704 E.92037
G1 X98.036 Y53.704 E.01678
G1 X119.294 Y74.962 E.9441
G1 X119.294 Y75.496 E.01677
G1 X97.502 Y53.704 E.96782
G1 X96.967 Y53.704 E.01678
G1 X119.294 Y76.03 E.99155
G1 X119.294 Y76.564 E.01677
G1 X96.433 Y53.703 E1.01527
G1 X95.899 Y53.703 E.01678
M73 P2 R82
G1 X119.294 Y77.098 E1.039
G1 X119.294 Y77.632 E.01677
G1 X95.195 Y53.534 E1.07026
M204 P1000
G1 E-2.24 F4200
;WIPE_START
G1 F7200
G1 X96.359 Y54.697 E-.912
;WIPE_END
G1 E-.048 F4200
G1 Z.4 F720
G1 X91.871 Y50.744 F9000
G1 Z.2 F720
G1 E3.2 F2400
M204 P800
G1 F1200
G1 X93.834 Y52.706 E.08716
G1 X93.813 Y52.853 E.00467
G1 X93.835 Y53.049 E.00618
G1 X93.91 Y53.25 E.00674
G1 X94.071 Y53.465 E.00846
G1 X94.262 Y53.604 E.00742
G1 X94.504 Y53.689 E.00804
G1 X94.831 Y53.703 E.01027
G1 X119.294 Y78.166 E1.08644
G1 X119.294 Y78.7 E.01677
G1 X91.716 Y51.123 E1.22475
G1 X91.426 Y51.367 E.01191
G1 X119.294 Y79.235 E1.23765
G1 X119.294 Y79.769 E.01677
G1 X91.093 Y51.568 E1.25245
G1 X90.94 Y51.641 E.00533
G1 X90.7 Y51.709 E.00782
G1 X119.294 Y80.303 E1.26988
G1 X119.294 Y80.837 E.01677
G1 X90.256 Y51.799 E1.2896
G1 X90.002 Y51.822 E.00802
G1 X89.72 Y51.797 E.00889
G1 X119.294 Y81.371 E1.31342
G1 X119.294 Y81.905 E.01677
G1 X89 Y51.612 E1.34537
G1 X88.721 Y51.479 E.0097
G1 X88.404 Y51.263 E.01208
G1 X88.045 Y50.919 E.01559
G1 X87.742 Y50.475 E.01689
G1 X87.638 Y50.25 E.0078
G1 X86.837 Y49.448 E.03558
G1 X86.619 Y49.764 E.01206
G1 X119.294 Y82.439 E1.45114
G1 X119.294 Y82.973 E.01677
G1 X86.441 Y50.121 E1.45904
G1 X86.349 Y50.306 E.0065
G1 X86.29 Y50.503 E.00647
G1 X119.294 Y83.507 E1.46576
G1 X119.294 Y84.042 E.01677
G1 X86.167 Y50.914 E1.47122
G1 X86.105 Y51.386 E.01495
G1 X119.294 Y84.576 E1.47398
G1 X119.294 Y85.11 E.01677
G1 X86.089 Y51.905 E1.47467
G1 X86.106 Y52.267 E.01139
G1 X86.139 Y52.489 E.00706
G1 X119.294 Y85.644 E1.47243
G1 X119.294 Y86.178 E.01677
G1 X86.166 Y53.05 E1.47126
G1 X86.092 Y53.25 E.00669
G1 X85.98 Y53.399 E.00584
G1 X119.294 Y86.712 E1.4795
G1 X119.294 Y87.246 E.01677
M73 P2 R81
G1 X85.677 Y53.629 E1.49299
G1 X85.471 Y53.694 E.00677
G1 X85.207 Y53.694 E.00828
G1 X119.294 Y87.78 E1.51382
G1 X119.294 Y88.314 E.01677
G1 X84.674 Y53.694 E1.53753
G1 X84.14 Y53.695 E.01676
G1 X119.294 Y88.849 E1.56124
G1 X119.294 Y89.383 E.01677
M73 P3 R81
G1 X83.606 Y53.695 E1.58495
G1 X83.072 Y53.695 E.01676
G1 X119.294 Y89.917 E1.60865
G1 X119.294 Y90.451 E.01677
G1 X82.538 Y53.695 E1.63236
G1 X82.005 Y53.696 E.01676
G1 X119.294 Y90.985 E1.65607
G1 X119.294 Y91.519 E.01677
G1 X81.471 Y53.696 E1.67978
G1 X80.937 Y53.696 E.01676
G1 X119.294 Y92.053 E1.70348
G1 X119.294 Y92.587 E.01677
G1 X80.403 Y53.697 E1.72719
G1 X79.869 Y53.697 E.01676
G1 X119.294 Y93.121 E1.7509
G1 X119.294 Y93.656 E.01677
G1 X79.335 Y53.697 E1.77461
G1 X78.802 Y53.697 E.01676
G1 X119.294 Y94.19 E1.79831
G1 X119.294 Y94.724 E.01677
G1 X78.268 Y53.698 E1.82202
G1 X77.734 Y53.698 E.01676
G1 X119.294 Y95.258 E1.84573
G1 X119.294 Y95.792 E.01677
G1 X77.2 Y53.698 E1.86944
G1 X76.666 Y53.699 E.01676
G1 X119.294 Y96.326 E1.89314
G1 X119.294 Y96.86 E.01677
G1 X76.133 Y53.699 E1.91685
G1 X75.599 Y53.699 E.01676
G1 X119.294 Y97.394 E1.94056
G1 X119.294 Y97.928 E.01677
G1 X75.065 Y53.699 E1.96427
G1 X74.531 Y53.7 E.01676
M73 P4 R80
