; generated by PrusaSlicer 2.5.2+win64 on 2023-04-06 at 19:23:31 UTC


;
;

;
;
; 

; external perimeters extrusion width = 0.45mm
; perimeters extrusion width = 0.45mm
; infill extrusion width = 0.45mm
; solid infill extrusion width = 0.45mm
; top infill extrusion width = 0.40mm
; first layer extrusion width = 0.42mm

M73 P0 R14
M201 X2500 Y2500 Z400 E5000 ; sets maximum accelerations, mm/sec^2
M203 X180 Y180 Z12 E80 ; sets maximum feedrates, mm / sec
M204 P2000 R1250 T2500 ; sets acceleration (P, T) and retract acceleration (R), mm/sec^2
M205 X8.00 Y8.00 Z2.00 E10.00 ; sets the jerk limits, mm/sec
M205 S0 T0 ; sets the minimum extruding and travel feed rate, mm/sec
M107
;TYPE:Custom
M862.3 P "MINI" ; printer model check
G90 ; use absolute coordinates
M83 ; extruder relative mode
M104 S170 ; set extruder temp for bed leveling
M140 S60 ; set bed temp
M109 R170 ; wait for bed leveling temp
M190 S60 ; wait for bed temp
M204 T1250 ; set travel acceleration
G28 ; home all without mesh bed level
G29 ; mesh bed leveling 
M204 T2500 ; restore travel acceleration
M104 S215 ; set extruder temp
G92 E0
G1 Y-2 X179 F2400
G1 Z3 F720
M109 S215 ; wait for extruder temp

; intro line
G1 X170 F1000
G1 Z0.2 F720
G1 X110 E8 F900
G1 X40 E10 F700
G92 E0

M221 S95 ; set flow
G21 ; set units to millimeters
G90 ; use absolute coordinates
M83 ; use relative distances for extrusion
M900 K0.2 ; Filament gcode LA 1.5
; ; Filament gcode LA 1.0
M107
;LAYER_CHANGE
;Z:0.2
;HEIGHT:0.2
;BEFORE_LAYER_CHANGE
G92 E0.0
;0.2


M73 P1 R14
G1 E-3.2 F4200
G1 Z.2 F720
;AFTER_LAYER_CHANGE
;0.2
G1 Z.4
G1 X67.385 Y75.244 F9000
G1 Z.2 F720
G1 E3.2 F2400
M204 P600
;TYPE:Skirt/Brim
;WIDTH:0.42
G1 F1200
G1 X68.944 Y73.983 E.06284
G1 X70.375 Y73.094 E.05282
G1 X72.195 Y72.255 E.06284
G1 X73.988 Y71.705 E.05879
G1 X76.409 Y71.319 E.07688
G1 X101.907 Y71.291 E.79946
G1 X103.91 Y71.345 E.06284
M73 P2 R14
G1 X105.576 Y71.599 E.05282
G1 X107.504 Y72.145 E.06284
G1 X109.625 Y73.094 E.07286
G1 X111.316 Y74.17 E.06284
G1 X112.847 Y75.464 E.06284
G1 X113.99 Y76.702 E.05282
G1 X115.041 Y78.168 E.05657
G1 X116.093 Y80.104 E.06907
G1 X116.783 Y81.985 E.06284
G1 X117.214 Y83.943 E.06284
G1 X117.378 Y86.261 E.07286
G1 X117.229 Y88.259 E.06284
G1 X116.812 Y90.22 E.06284
G1 X116.261 Y91.812 E.05282
G1 X115.376 Y93.61 E.06284
G1 X114.058 Y95.524 E.07286
G1 X112.693 Y96.992 E.06284
G1 X111.402 Y98.075 E.05282
G1 X109.719 Y99.163 E.06284
G1 X92.938 Y108.415 E.60083
G1 X91.791 Y108.71 E.03714
G1 X88.209 Y108.71 E.11229
G1 X87.062 Y108.415 E.03714
G1 X70.403 Y99.235 E.5964
G1 X68.856 Y98.263 E.05725
G1 X67.076 Y96.77 E.07286
G1 X65.743 Y95.273 E.06284
G1 X64.788 Y93.885 E.05282
G1 X63.739 Y91.812 E.07286
G1 X63.188 Y90.22 E.05282
G1 X62.771 Y88.26 E.06284
G1 X62.623 Y85.941 E.07286
G1 X62.742 Y84.26 E.05282
G1 X63.131 Y82.294 E.06284
G1 X63.907 Y80.104 E.07286
G1 X64.679 Y78.606 E.05282
G1 X65.81 Y76.951 E.06284
G1 X67.345 Y75.288 E.07098
M204 P1000
; printing object Sonar sensor Attachment .STL id:0 copy 0
G1 E-2.24 F4200
;WIPE_START
G1 F7200
G1 X68.62 Y74.247 E-.912
;WIPE_END
G1 E-.048 F4200
G1 Z.4 F720
G1 X91.014 Y101.538 F9000
G1 Z.2 F720
G1 E3.2 F2400
M204 P600
;TYPE:Perimeter
;WIDTH:0.419999
G1 F1200
G1 X91.032 Y101.65 E.00356
G1 X91.166 Y101.87 E.00808
G1 X91.435 Y102.024 E.00972
G1 X91.57 Y102.04 E.00425
G1 X96.51 Y102.036 E.1549
G1 X96.889 Y102.006 E.01193
G1 X96.561 Y102.205 E.01203
G1 X91.552 Y105.546 E.18878
G1 X88.448 Y105.546 E.09734
G1 X83.439 Y102.205 E.18878
G1 X83.103 Y102.019 E.01202
G1 X83.454 Y102.036 E.011
G1 X88.43 Y102.04 E.15604
G1 X88.565 Y102.024 E.00425
G1 X88.834 Y101.87 E.00972
G1 X88.968 Y101.65 E.00808
G1 X88.996 Y101.474 E.00558
G1 X88.996 Y96.931 E.14244
G1 X88.883 Y96.592 E.01122
;WIDTH:0.46396
G1 X88.77 Y96.513 E.00482
;WIDTH:0.507921
G1 X88.657 Y96.435 E.00532
;WIDTH:0.551882
G1 X88.544 Y96.356 E.00583
;WIDTH:0.595842
G1 X88.431 Y96.278 E.00633
G1 X88.594 Y96.256 E.00758
;WIDTH:0.551882
G1 X88.758 Y96.234 E.00698
;WIDTH:0.507921
G1 X88.921 Y96.212 E.00637
;WIDTH:0.46396
G1 X89.084 Y96.19 E.00577
;WIDTH:0.419999
G1 X90.916 Y96.19 E.05742
;WIDTH:0.466437
G1 X91.051 Y96.213 E.00482
;WIDTH:0.512874
G1 X91.186 Y96.236 E.00535
;WIDTH:0.559311
G1 X91.321 Y96.259 E.00588
;WIDTH:0.605748
G1 X91.455 Y96.283 E.00641
G1 X91.371 Y96.36 E.00537
;WIDTH:0.559311
G1 X91.286 Y96.437 E.00492
;WIDTH:0.512874
G1 X91.201 Y96.514 E.00448
;WIDTH:0.466437
G1 X91.117 Y96.592 E.00404
;WIDTH:0.419999
G1 X91.004 Y96.931 E.01122
G1 X91.004 Y101.478 E.14258
M204 P1000
G1 E-2.24 F4200
;WIPE_START
M73 P3 R14
G1 F7200
G1 X91.032 Y101.65 E-.09622
G1 X91.166 Y101.87 E-.14286
G1 X91.435 Y102.024 E-.17184
G1 X91.57 Y102.04 E-.07516
G1 X92.338 Y102.039 E-.42592
;WIPE_END
G1 E-.048 F4200
G1 Z.4 F720
G1 X86.478 Y96.261 F9000
G1 Z.2 F720
G1 E3.2 F2400
M204 P600
;WIDTH:0.629348
G1 F1200
G1 X86.412 Y96.283 E.00341
;WIDTH:0.585747
G1 X86.345 Y96.304 E.00316
;WIDTH:0.542146
G1 X86.279 Y96.326 E.0029
;WIDTH:0.498545
G1 X86.212 Y96.348 E.00265
;WIDTH:0.454944
G1 X86.146 Y96.37 E.0024
;WIDTH:0.411343
G1 X86.079 Y96.392 E.00214
;WIDTH:0.399289
G1 X85.804 Y96.376 E.00818
;WIDTH:0.419999
G1 X71.777 Y96.366 E.43979
G1 X70.59 Y95.616 E.04402
G1 X69.381 Y94.602 E.04949
G1 X68.319 Y93.434 E.04949
G1 X67.424 Y92.134 E.04949
G1 X66.711 Y90.726 E.04949
G1 X66.195 Y89.234 E.04949
G1 X65.883 Y87.687 E.04949
G1 X65.783 Y86.112 E.04949
G1 X65.895 Y84.538 E.04949
G1 X66.217 Y82.993 E.04949
G1 X66.745 Y81.505 E.04949
G1 X67.467 Y80.102 E.04949
G1 X68.372 Y78.809 E.04949
G1 X69.442 Y77.649 E.04949
G1 X70.659 Y76.643 E.04949
G1 X72 Y75.81 E.04949
G1 X73.44 Y75.165 E.04949
G1 X74.954 Y74.719 E.04949
G1 X76.514 Y74.481 E.04949
G1 X78.093 Y74.455 E.04949
G1 X79.66 Y74.642 E.04949
G1 X81.188 Y75.037 E.04949
G1 X82.649 Y75.634 E.04949
G1 X84.018 Y76.423 E.04953
G1 X86.143 Y78.048 E.08389
G1 X87.245 Y78.626 E.039
G1 X88.248 Y78.961 E.03317
G1 X89.239 Y79.13 E.03151
G1 X89.666 Y79.16 E.01343
G1 X90.761 Y79.13 E.03437
G1 X91.752 Y78.961 E.03151
G1 X92.839 Y78.591 E.03601
G1 X93.857 Y78.048 E.03616
G1 X95.982 Y76.423 E.08389
G1 X97.351 Y75.634 E.04953
G1 X98.812 Y75.037 E.04949
G1 X100.34 Y74.642 E.04949
G1 X101.907 Y74.455 E.04949
G1 X103.486 Y74.481 E.04949
G1 X105.046 Y74.719 E.04949
G1 X106.56 Y75.165 E.04949
G1 X108 Y75.81 E.04949
G1 X109.341 Y76.643 E.04949
G1 X110.558 Y77.649 E.04949
G1 X111.628 Y78.809 E.04949
G1 X112.533 Y80.102 E.04949
G1 X113.255 Y81.505 E.04949
G1 X113.783 Y82.993 E.04949
G1 X114.105 Y84.538 E.04949
G1 X114.213 Y86.178 E.05154
G1 X114.117 Y87.687 E.04742
G1 X113.805 Y89.234 E.04949
G1 X113.289 Y90.726 E.04949
G1 X112.576 Y92.134 E.04949
G1 X111.681 Y93.434 E.04949
G1 X110.619 Y94.602 E.04949
G1 X109.41 Y95.616 E.04949
G1 X108.223 Y96.366 E.04402
G1 X94.813 Y96.366 E.42044
G1 X93.982 Y96.389 E.02609
;WIDTH:0.415405
G1 X93.905 Y96.368 E.00246
;WIDTH:0.458194
G1 X93.828 Y96.346 E.00275
;WIDTH:0.500982
G1 X93.752 Y96.325 E.00303
;WIDTH:0.543771
G1 X93.675 Y96.304 E.00331
;WIDTH:0.58656
G1 X93.598 Y96.282 E.0036
;WIDTH:0.629348
G1 X93.522 Y96.261 E.00388
G1 X93.584 Y96.229 E.00341
;WIDTH:0.585748
G1 X93.646 Y96.197 E.00316
;WIDTH:0.542147
G1 X93.708 Y96.165 E.0029
;WIDTH:0.498546
G1 X93.771 Y96.133 E.00265
;WIDTH:0.454945
G1 X93.833 Y96.101 E.0024
;WIDTH:0.411344
G1 X93.895 Y96.069 E.00214
;WIDTH:0.398385
G1 X94.111 Y96.023 E.00654
;WIDTH:0.419999
G1 X94.809 Y95.648 E.02483
G1 X95.245 Y95.212 E.01935
G1 X95.402 Y94.965 E.00915
G1 X95.657 Y94.44 E.01832
G1 X100.603 Y94.44 E.15508
G1 X101.887 Y94.791 E.04173
G1 X103.337 Y94.939 E.04569
G1 X104.791 Y94.845 E.04569
G1 X106.12 Y94.541 E.04276
G1 X107.554 Y93.949 E.04862
G1 X108.711 Y93.228 E.04276
G1 X109.874 Y92.202 E.04862
G1 X110.786 Y91.065 E.04569
G1 X111.497 Y89.793 E.04569
G1 X111.989 Y88.421 E.04569
G1 X112.247 Y86.987 E.04569
G1 X112.262 Y86.099 E.02784
G1 X112.264 Y85.529 E.01786
G1 X112.04 Y84.089 E.04569
G1 X111.617 Y82.793 E.04276
G1 X110.9 Y81.418 E.04862
G1 X110.015 Y80.26 E.04569
G1 X109.024 Y79.322 E.04276
G1 X107.975 Y78.608 E.0398
G1 X107.737 Y78.458 E.00883
G1 X106.407 Y77.863 E.04569
G1 X104.992 Y77.496 E.04581
G1 X103.581 Y77.373 E.04442
G1 X102.184 Y77.467 E.0439
G1 X100.677 Y77.834 E.04862
G1 X99.986 Y78.13 E.02359
G1 X99.345 Y78.412 E.02194
G1 X98.26 Y79.109 E.04043
G1 X92.276 Y81.75 E.2051
G1 X91.372 Y82.062 E.02998
M73 P4 R14
G1 X90.462 Y82.215 E.02895
G1 X89.538 Y82.215 E.02895
G1 X88.628 Y82.062 E.02895
G1 X87.724 Y81.75 E.02998
G1 X82.387 Y79.395 E.1829
G1 X81.626 Y79.036 E.02637
G1 X80.576 Y78.371 E.03898
G1 X79.234 Y77.804 E.04569
G1 X77.816 Y77.467 E.04569
G1 X76.362 Y77.369 E.04569
G1 X74.912 Y77.513 E.04569
G1 X73.593 Y77.863 E.04276
G1 X73.112 Y78.073 E.01645
G1 X72.181 Y78.503 E.03217
G1 X71.049 Y79.264 E.04276
G1 X69.985 Y80.26 E.04569
G1 X69.05 Y81.497 E.04862
G1 X68.383 Y82.793 E.04569
G1 X67.939 Y84.181 E.04569
G1 X67.731 Y85.573 E.04414
G1 X67.738 Y86.099 E.01648
G1 X67.763 Y87.08 E.03077
G1 X68.011 Y88.421 E.04276
G1 X68.503 Y89.793 E.04569
G1 X69.267 Y91.142 E.04862
G1 X70.191 Y92.269 E.04569
G1 X71.289 Y93.228 E.04569
G1 X71.932 Y93.629 E.02377
G1 X72.53 Y93.992 E.02192
G1 X73.88 Y94.541 E.04569
G1 X75.209 Y94.845 E.04276
G1 X76.663 Y94.939 E.04569
G1 X78.113 Y94.791 E.04569
G1 X79.397 Y94.44 E.04173
G1 X84.343 Y94.44 E.15508
G1 X84.37 Y94.518 E.00261
G1 X84.755 Y95.212 E.02486
G1 X85.334 Y95.752 E.02484
G1 X85.888 Y96.023 E.01935
;WIDTH:0.399289
G1 X86.055 Y96.063 E.00508
;WIDTH:0.414647
G1 X86.126 Y96.096 E.00241
;WIDTH:0.457587
G1 X86.196 Y96.129 E.00268
;WIDTH:0.500527
G1 X86.267 Y96.162 E.00296
;WIDTH:0.543468
G1 X86.337 Y96.195 E.00324
;WIDTH:0.586408
G1 X86.408 Y96.228 E.00352
;WIDTH:0.629348
G1 X86.424 Y96.235 E.00087
M204 P1000
G1 E-2.24 F4200
;WIPE_START
G1 F7200
G1 X86.412 Y96.283 E-.02702
G1 X86.345 Y96.304 E-.03876
G1 X86.279 Y96.326 E-.03876
G1 X86.212 Y96.348 E-.03876
G1 X86.146 Y96.37 E-.03876
G1 X86.079 Y96.392 E-.03876
G1 X85.804 Y96.376 E-.153
G1 X84.833 Y96.375 E-.53818
;WIPE_END
G1 E-.048 F4200
G1 Z.4 F720
G1 X91.381 Y101.474 F9000
G1 Z.2 F720
G1 E3.2 F2400
M204 P600
;TYPE:External perimeter
;WIDTH:0.419999
G1 F1200
G1 X91.435 Y101.606 E.00447
G1 X91.569 Y101.663 E.00458
G1 X96.51 Y101.659 E.1549
G1 X97.518 Y101.568 E.03174
G1 X97.995 Y101.463 E.01531
G1 X98.704 Y101.463 E.02225
G1 X98.095 Y101.867 E.02294
G1 X97.213 Y102.252 E.03017
G1 X96.771 Y102.519 E.0162
G1 X91.666 Y105.923 E.19236
G1 X88.334 Y105.923 E.1045
G1 X83.229 Y102.519 E.19236
G1 X82.363 Y102.046 E.03094
G1 X81.902 Y101.865 E.01554
G1 X81.296 Y101.463 E.02281
G1 X82.009 Y101.463 E.02237
G1 X82.944 Y101.633 E.02978
G1 X83.454 Y101.659 E.01603
G1 X88.431 Y101.663 E.15604
G1 X88.545 Y101.624 E.00379
G1 X88.619 Y101.474 E.00524
G1 X88.619 Y96.931 E.14244
G1 X88.582 Y96.818 E.00374
G1 X88.431 Y96.743 E.00529
G1 X71.668 Y96.743 E.52557
G1 X70.368 Y95.921 E.04823
G1 X69.119 Y94.874 E.05108
G1 X68.023 Y93.669 E.05108
G1 X67.099 Y92.327 E.05108
G1 X66.363 Y90.873 E.05108
G1 X65.83 Y89.334 E.05108
G1 X65.509 Y87.737 E.05108
G1 X65.405 Y86.111 E.05108
G1 X65.52 Y84.486 E.05108
G1 X65.853 Y82.891 E.05108
G1 X66.398 Y81.355 E.05108
G1 X67.144 Y79.907 E.05108
G1 X68.078 Y78.572 E.05108
G1 X69.182 Y77.374 E.05108
G1 X70.438 Y76.336 E.05108
G1 X71.822 Y75.476 E.05108
G1 X73.309 Y74.81 E.05108
G1 X74.872 Y74.35 E.05109
G1 X76.483 Y74.105 E.05108
G1 X78.112 Y74.078 E.05108
G1 X79.73 Y74.27 E.05108
G1 X81.307 Y74.678 E.05108
G1 X82.815 Y75.295 E.05108
G1 X84.227 Y76.108 E.0511
G1 X86.372 Y77.748 E.08466
G1 X87.364 Y78.269 E.03511
G1 X88.367 Y78.604 E.03317
G1 X89.299 Y78.758 E.02961
G1 X89.666 Y78.783 E.01152
G1 X90.701 Y78.758 E.03247
G1 X91.633 Y78.604 E.02961
G1 X92.636 Y78.269 E.03317
G1 X93.601 Y77.765 E.03412
G1 X95.773 Y76.108 E.08565
G1 X97.185 Y75.295 E.0511
G1 X98.693 Y74.678 E.05108
G1 X100.27 Y74.27 E.05108
M73 P5 R14
G1 X101.888 Y74.078 E.05108
G1 X103.517 Y74.105 E.05108
G1 X105.128 Y74.35 E.05108
M73 P5 R13
G1 X106.691 Y74.81 E.05109
G1 X108.178 Y75.476 E.05108
G1 X109.562 Y76.336 E.05108
G1 X110.818 Y77.374 E.05108
G1 X111.922 Y78.572 E.05108
G1 X112.856 Y79.907 E.05108
G1 X113.602 Y81.355 E.05108
G1 X114.147 Y82.891 E.05108
G1 X114.48 Y84.486 E.05108
G1 X114.589 Y86.202 E.05393
G1 X114.491 Y87.737 E.04822
G1 X114.17 Y89.334 E.05108
G1 X113.637 Y90.873 E.05108
G1 X112.901 Y92.327 E.05108
G1 X111.977 Y93.669 E.05108
G1 X110.881 Y94.874 E.05108
G1 X109.633 Y95.921 E.05108
G1 X108.332 Y96.743 E.04823
G1 X91.569 Y96.743 E.52557
G1 X91.418 Y96.818 E.00529
G1 X91.381 Y96.931 E.00374
G1 X91.381 Y101.414 E.14056
M204 P1000
G1 X91.279 Y101.574 F9000
G1 E-2.24 F4200
;WIPE_START
G1 F7200
G1 X91.435 Y101.606 E-.11055
G1 X91.569 Y101.663 E-.08096
G1 X92.87 Y101.662 E-.72049
;WIPE_END
G1 E-.048 F4200
G1 Z.4 F720
G1 X84.701 Y94.323 F9000
G1 Z.2 F720
G1 E3.2 F2400
M204 P600
G1 F1200
G1 X84.643 Y94.063 E.00835
G1 X79.345 Y94.063 E.1661
G1 X78.073 Y94.416 E.04139
G1 X76.717 Y94.562 E.04276
G1 X75.293 Y94.478 E.04472
G1 X73.934 Y94.164 E.04374
G1 X72.673 Y93.644 E.04276
G1 X71.488 Y92.908 E.04374
G1 X70.441 Y91.987 E.04374
G1 X69.56 Y90.905 E.04374
G1 X68.857 Y89.664 E.04472
G1 X68.382 Y88.352 E.04374
G1 X68.134 Y87.011 E.04276
G1 X68.115 Y86.092 E.02882
G1 X68.109 Y85.585 E.0159
G1 X68.311 Y84.237 E.04276
G1 X68.741 Y82.909 E.04374
G1 X69.384 Y81.672 E.04374
G1 X70.244 Y80.534 E.04472
G1 X71.235 Y79.596 E.04276
G1 X72.391 Y78.816 E.04374
G1 X73.69 Y78.228 E.04472
G1 X75.008 Y77.878 E.04276
G1 X76.397 Y77.745 E.04374
G1 X77.788 Y77.844 E.04374
G1 X79.147 Y78.172 E.04382
G1 X80.428 Y78.718 E.04365
G1 X81.423 Y79.354 E.03702
G1 X82.235 Y79.74 E.0282
G1 X87.586 Y82.101 E.18339
G1 X88.535 Y82.429 E.03145
G1 X89.507 Y82.592 E.03092
G1 X90.493 Y82.592 E.03092
G1 X91.465 Y82.429 E.03092
G1 X92.414 Y82.101 E.03145
G1 X98.439 Y79.442 E.20651
G1 X99.546 Y78.732 E.04124
G1 X100.826 Y78.181 E.04368
G1 X102.181 Y77.848 E.04374
G1 X103.548 Y77.749 E.04299
G1 X104.96 Y77.872 E.04442
G1 X106.31 Y78.228 E.04378
G1 X107.582 Y78.801 E.04374
G1 X107.765 Y78.921 E.00687
G1 X108.765 Y79.596 E.03785
G1 X109.777 Y80.557 E.04374
G1 X110.599 Y81.645 E.04276
G1 X111.259 Y82.909 E.04472
G1 X111.681 Y84.206 E.04276
G1 X111.891 Y85.585 E.04374
G1 X111.87 Y86.98 E.04374
G1 X111.617 Y88.355 E.04383
G1 X111.143 Y89.664 E.04365
G1 X110.456 Y90.882 E.04384
G1 X109.581 Y91.964 E.04364
G1 X108.512 Y92.908 E.04472
G1 X107.354 Y93.629 E.04276
G1 X107.261 Y93.67 E.0032
G1 X106.036 Y94.173 E.04152
G1 X104.707 Y94.478 E.04276
G1 X103.314 Y94.562 E.04374
G1 X101.927 Y94.416 E.04374
G1 X100.655 Y94.063 E.04139
G1 X95.357 Y94.063 E.1661
G1 X95.294 Y94.347 E.00914
G1 X95.013 Y94.897 E.01936
G1 X94.543 Y95.381 E.02118
G1 X93.945 Y95.696 E.02117
G1 X93.259 Y95.813 E.02183
G1 X86.741 Y95.813 E.20435
G1 X86.16 Y95.722 E.01844
G1 X85.505 Y95.416 E.02267
G1 X85.021 Y94.945 E.02118
M73 P6 R13
G1 X84.722 Y94.378 E.0201
M204 P1000
G1 X84.438 Y94.279 F9000
G1 E-2.24 F4200
;WIPE_START
G1 F7200
G1 X84.643 Y94.063 E-.18032
G1 X83.322 Y94.063 E-.73168
;WIPE_END
G1 E-.048 F4200
G1 Z.4 F720
G1 X88.431 Y96.278 F9000
G1 Z.2 F720
G1 E3.2 F2400
M204 P600
;TYPE:Perimeter
;WIDTH:0.595844
G1 F1200
G1 X86.741 Y96.278 E.07767
;WIDTH:0.629348
G1 X86.478 Y96.261 E.01286
M204 P1000
G1 E-2.24 F4200
;WIPE_START
G1 F7200
G1 X86.741 Y96.278 E-.14612
G1 X88.123 Y96.278 E-.76588
;WIPE_END
G1 E-.048 F4200
G1 Z.4 F720
G1 X93.522 Y96.261 F9000
G1 Z.2 F720
G1 E3.2 F2400
M204 P600
G1 F1200
G1 X93.259 Y96.278 E.01286
;WIDTH:0.595844
G1 X91.569 Y96.278 E.07767
;WIDTH:0.605748
G1 X91.455 Y96.283 E.00533
M204 P1000
G1 X90.251 Y96.359 F9000
M204 P600
;TYPE:Solid infill
;WIDTH:0.429104
G1 F1200
G1 X90.698 Y96.806 E.02028
G1 X90.664 Y96.907 E.00341
G1 X90.664 Y97.318 E.01322
G1 X89.875 Y96.529 E.03585
G1 X89.329 Y96.529 E.01754
G1 X90.664 Y97.865 E.06065
G1 X90.664 Y98.411 E.01754
G1 X89.336 Y97.082 E.06034
G1 X89.335 Y97.628 E.01753
G1 X90.664 Y98.957 E.06035
G1 X90.664 Y99.503 E.01754
G1 X89.335 Y98.174 E.06037
G1 X89.335 Y98.72 E.01753
G1 X90.664 Y100.049 E.06038
G1 X90.664 Y100.595 E.01754
G1 X89.334 Y99.265 E.0604
G1 X89.334 Y99.811 E.01753
G1 X90.834 Y101.311 E.06812
M204 P1000
G1 E-2.24 F4200
;WIPE_START
