; generated by PrusaSlicer 2.5.0+win64 on 2023-04-06 at 19:59:42 UTC


;
;

;
;
; 

; external perimeters extrusion width = 0.45mm
; perimeters extrusion width = 0.45mm
; infill extrusion width = 0.45mm
; solid infill extrusion width = 0.45mm
; top infill extrusion width = 0.40mm
; first layer extrusion width = 0.42mm

M73 P0 R24
M201 X2500 Y2500 Z400 E5000 ; sets maximum accelerations, mm/sec^2
M203 X180 Y180 Z12 E80 ; sets maximum feedrates, mm / sec
M204 P1250 R1250 T2500 ; sets acceleration (P, T) and retract acceleration (R), mm/sec^2
M205 X8.00 Y8.00 Z2.00 E10.00 ; sets the jerk limits, mm/sec
M205 S0 T0 ; sets the minimum extruding and travel feed rate, mm/sec
M107
;TYPE:Custom
M862.3 P "MINI" ; printer model check
G90 ; use absolute coordinates
M83 ; extruder relative mode
M104 S170 ; set extruder temp for bed leveling
M140 S60 ; set bed temp
M109 R170 ; wait for bed leveling temp
M190 S60 ; wait for bed temp
M204 T1250 ; set travel acceleration
G28 ; home all without mesh bed level
G29 ; mesh bed leveling 
M204 T2500 ; restore travel acceleration
M104 S215 ; set extruder temp
G92 E0
G1 Y-2 X179 F2400
G1 Z3 F720
M109 S215 ; wait for extruder temp

; intro line
G1 X170 F1000
G1 Z0.2 F720
G1 X110 E8 F900
G1 X40 E10 F700
G92 E0

M221 S95 ; set flow
G21 ; set units to millimeters
G90 ; use absolute coordinates
M83 ; use relative distances for extrusion
M900 K0.2 ; Filament gcode LA 1.5
; ; Filament gcode LA 1.0
M107
;LAYER_CHANGE
;Z:0.2
;HEIGHT:0.2
;BEFORE_LAYER_CHANGE
G92 E0.0
;0.2


M73 P0 R23
G1 E-3.2 F4200
M73 P1 R23
G1 Z.2 F720
;AFTER_LAYER_CHANGE
;0.2
G1 Z.4
G1 X73.705 Y78.979 F9000
G1 Z.2 F720
G1 E3.2 F2400
M204 P800
;TYPE:Skirt/Brim
;WIDTH:0.42
G1 F1200
G1 X75 Y78.656 E.04186
G1 X105 Y78.656 E.94063
G1 X106.417 Y79.049 E.04612
G1 X107.431 Y80.115 E.04612
G1 X107.754 Y81.41 E.04186
G1 X107.754 Y89.41 E.25083
G1 X107.361 Y90.827 E.04612
G1 X106.627 Y91.633 E.03418
G1 X101.025 Y95.733 E.21766
G1 X93.32 Y100.88 E.29053
G1 X91.791 Y101.344 E.05011
G1 X88.209 Y101.344 E.11229
G1 X86.68 Y100.88 E.05011
G1 X78.975 Y95.733 E.29053
G1 X73.373 Y91.633 E.21766
G1 X72.462 Y90.478 E.04612
G1 X72.246 Y89.41 E.03418
G1 X72.246 Y81.41 E.25083
G1 X72.639 Y79.993 E.04612
G1 X73.661 Y79.021 E.04424
M204 P1000
G1 X73.927 Y79.338 F9000
M204 P800
G1 F1200
G1 X74.06 Y79.227 E.00544
G1 X75 Y79.033 E.03008
G1 X105 Y79.033 E.94063
G1 X106.307 Y79.425 E.04278
G1 X107.183 Y80.47 E.04278
G1 X107.377 Y81.41 E.03008
G1 X107.377 Y89.41 E.25083
G1 X106.985 Y90.717 E.04278
G1 X106.404 Y91.328 E.02645
G1 X100.802 Y95.428 E.21766
G1 X93.111 Y100.567 E.29002
G1 X91.791 Y100.967 E.04325
G1 X88.209 Y100.967 E.11229
G1 X86.889 Y100.567 E.04325
G1 X79.198 Y95.428 E.29002
G1 X73.596 Y91.328 E.21766
G1 X72.773 Y90.24 E.04278
G1 X72.623 Y89.41 E.02645
G1 X72.623 Y81.41 E.25083
G1 X73.015 Y80.103 E.04278
G1 X73.881 Y79.377 E.03546
M204 P1000
; printing object GripperAttachment.STL id:0 copy 0
G1 E-2.24 F4200
;WIPE_START
G1 F7200
G1 X74.06 Y79.227 E-.12943
G1 X75 Y79.033 E-.53172
G1 X75.453 Y79.033 E-.25085
;WIPE_END
G1 E-.048 F4200
G1 Z.4 F720
G1 X91.017 Y89.116 F9000
G1 Z.2 F720
G1 E3.2 F2400
M204 P800
;TYPE:Perimeter
;WIDTH:0.419999
G1 F1200
G1 X91.004 Y89.189 E.00231
G1 X91.004 Y93.731 E.14244
G1 X91.032 Y93.907 E.00558
G1 X91.166 Y94.128 E.00808
G1 X91.435 Y94.281 E.00972
G1 X91.57 Y94.297 E.00425
G1 X96.51 Y94.293 E.1549
G1 X96.889 Y94.263 E.01193
G1 X96.561 Y94.462 E.01203
G1 X91.552 Y97.803 E.18878
G1 X88.448 Y97.803 E.09734
G1 X83.439 Y94.462 E.18878
G1 X83.103 Y94.277 E.01202
G1 X83.454 Y94.293 E.011
G1 X88.43 Y94.297 E.15604
G1 X88.565 Y94.281 E.00425
G1 X88.834 Y94.128 E.00972
G1 X88.968 Y93.907 E.00808
G1 X88.996 Y93.731 E.00558
G1 X88.996 Y89.189 E.14244
G1 X88.959 Y88.986 E.00647
G1 X88.879 Y88.844 E.00509
G1 X88.692 Y88.687 E.00767
G1 X88.431 Y88.623 E.00843
G1 X75.787 Y88.623 E.39643
G1 X75.787 Y82.197 E.20148
M73 P2 R23
G1 X104.213 Y82.197 E.89127
G1 X104.213 Y88.623 E.20148
G1 X91.569 Y88.623 E.39643
G1 X91.453 Y88.635 E.00366
G1 X91.198 Y88.761 E.00891
G1 X91.041 Y88.986 E.00859
G1 X91.028 Y89.057 E.00228
M204 P1000
G1 X91.381 Y89.189 F9000
M204 P800
;TYPE:External perimeter
G1 F1200
G1 X91.381 Y93.731 E.14244
G1 X91.435 Y93.864 E.00447
G1 X91.569 Y93.92 E.00458
G1 X96.564 Y93.915 E.15659
G1 X97.518 Y93.825 E.03005
G1 X97.995 Y93.72 E.01531
G1 X98.704 Y93.72 E.02225
G1 X98.095 Y94.125 E.02294
G1 X97.213 Y94.51 E.03017
G1 X96.771 Y94.776 E.0162
G1 X91.666 Y98.18 E.19236
G1 X88.334 Y98.18 E.1045
G1 X83.229 Y94.776 E.19236
G1 X82.363 Y94.303 E.03094
G1 X81.902 Y94.122 E.01554
G1 X81.296 Y93.72 E.02281
G1 X82.009 Y93.72 E.02237
G1 X82.944 Y93.89 E.02978
G1 X83.454 Y93.916 E.01603
G1 X88.431 Y93.92 E.15604
G1 X88.545 Y93.881 E.00379
G1 X88.619 Y93.731 E.00524
G1 X88.619 Y89.189 E.14244
G1 X88.554 Y89.046 E.00491
G1 X88.431 Y89 E.00414
G1 X75.41 Y89 E.40826
G1 X75.41 Y81.82 E.22512
G1 X104.59 Y81.82 E.91492
G1 X104.59 Y89 E.22512
G1 X91.569 Y89 E.40826
G1 X91.446 Y89.046 E.00414
G1 X91.406 Y89.134 E.00303
M204 P1000
G1 X90.994 Y89.292 F9000
G1 E-2.24 F4200
;WIPE_START
G1 F7200
G1 X91.397 Y90.78 E-.912
;WIPE_END
G1 E-.048 F4200
G1 Z.4 F720
G1 X104.1 Y83.081 F9000
G1 Z.2 F720
G1 E3.2 F2400
M204 P800
;TYPE:Solid infill
;WIDTH:0.423814
G1 F1200
G1 X103.499 Y82.48 E.0269
G1 X102.96 Y82.48 E.01706
G1 X103.93 Y83.45 E.04343
G1 X103.93 Y83.988 E.01706
G1 X102.422 Y82.48 E.06756
G1 X101.883 Y82.48 E.01706
G1 X103.93 Y84.527 E.09169
G1 X103.93 Y85.066 E.01706
G1 X101.344 Y82.48 E.11581
G1 X100.806 Y82.48 E.01706
G1 X103.93 Y85.604 E.13994
G1 X103.93 Y86.143 E.01706
G1 X100.267 Y82.48 E.16407
G1 X99.728 Y82.48 E.01706
G1 X103.93 Y86.682 E.18819
G1 X103.93 Y87.22 E.01706
G1 X99.19 Y82.48 E.21232
G1 X98.651 Y82.48 E.01706
G1 X103.93 Y87.759 E.23645
G1 X103.93 Y88.298 E.01706
G1 X98.112 Y82.48 E.26057
G1 X97.574 Y82.48 E.01706
G1 X103.434 Y88.34 E.26248
G1 X102.895 Y88.34 E.01706
G1 X97.035 Y82.48 E.26248
G1 X96.496 Y82.48 E.01706
G1 X102.357 Y88.34 E.26248
G1 X101.818 Y88.34 E.01706
G1 X95.958 Y82.48 E.26248
G1 X95.419 Y82.48 E.01706
G1 X101.279 Y88.34 E.26248
G1 X100.741 Y88.34 E.01706
M73 P3 R23
G1 X94.88 Y82.48 E.26248
G1 X94.342 Y82.48 E.01706
G1 X100.202 Y88.34 E.26248
G1 X99.663 Y88.34 E.01706
G1 X93.803 Y82.48 E.26248
G1 X93.264 Y82.48 E.01706
G1 X99.125 Y88.34 E.26248
G1 X98.586 Y88.34 E.01706
G1 X92.726 Y82.48 E.26248
G1 X92.187 Y82.48 E.01706
G1 X98.047 Y88.34 E.26248
G1 X97.509 Y88.34 E.01706
G1 X91.648 Y82.48 E.26248
G1 X91.11 Y82.48 E.01706
G1 X96.97 Y88.34 E.26248
G1 X96.431 Y88.34 E.01706
G1 X90.571 Y82.48 E.26248
G1 X90.032 Y82.48 E.01706
G1 X95.893 Y88.34 E.26248
G1 X95.354 Y88.34 E.01706
G1 X89.494 Y82.48 E.26248
G1 X88.955 Y82.48 E.01706
G1 X94.815 Y88.34 E.26248
G1 X94.277 Y88.34 E.01706
G1 X88.417 Y82.48 E.26248
G1 X87.878 Y82.48 E.01706
G1 X93.738 Y88.34 E.26248
G1 X93.199 Y88.34 E.01706
G1 X87.339 Y82.48 E.26248
G1 X86.801 Y82.48 E.01706
G1 X92.661 Y88.34 E.26248
G1 X92.122 Y88.34 E.01706
G1 X86.262 Y82.48 E.26248
G1 X85.723 Y82.48 E.01706
G1 X91.583 Y88.34 E.26248
G1 X91.395 Y88.358 E.006
G1 X91.155 Y88.451 E.00814
G1 X85.185 Y82.48 E.26744
G1 X84.646 Y82.48 E.01706
G1 X90.875 Y88.709 E.27899
G1 X90.775 Y88.886 E.00643
G1 X90.734 Y89.107 E.00713
G1 X84.107 Y82.48 E.29683
G1 X83.569 Y82.48 E.01706
G1 X90.721 Y89.632 E.32035
G1 X90.721 Y90.171 E.01706
G1 X83.03 Y82.48 E.34448
G1 X82.491 Y82.48 E.01706
G1 X88.351 Y88.34 E.26248
G1 X88.607 Y88.358 E.00811
G1 X88.822 Y88.435 E.00725
G1 X88.987 Y88.547 E.0063
G1 X89.105 Y88.673 E.00549
G1 X89.225 Y88.886 E.00772
G1 X89.279 Y89.268 E.01223
G1 X90.721 Y90.71 E.06457
G1 X90.721 Y91.248 E.01706
G1 X89.279 Y89.807 E.06457
G1 X89.279 Y90.345 E.01706
G1 X90.721 Y91.787 E.06457
G1 X90.721 Y92.326 E.01706
G1 X89.279 Y90.884 E.06457
G1 X89.279 Y91.423 E.01706
G1 X90.721 Y92.864 E.06457
G1 X90.721 Y93.403 E.01706
G1 X89.109 Y91.792 E.07217
M204 P1000
G1 E-2.24 F4200
;WIPE_START
G1 F7200
G1 X90.273 Y92.955 E-.912
;WIPE_END
G1 E-.048 F4200
G1 Z.4 F720
G1 X95.874 Y94.785 F9000
G1 Z.2 F720
G1 E3.2 F2400
M204 P800
G1 F1200
G1 X95.665 Y94.577 E.00933
G1 X95.127 Y94.577 E.01705
G1 X95.428 Y94.878 E.01349
G1 X95.105 Y95.094 E.0123
G1 X94.589 Y94.577 E.02312
G1 X94.051 Y94.578 E.01705
G1 X94.782 Y95.309 E.03275
G1 X94.459 Y95.525 E.0123
G1 X93.512 Y94.578 E.04239
G1 X92.974 Y94.579 E.01705
G1 X94.135 Y95.74 E.05202
G1 X93.812 Y95.956 E.0123
G1 X92.436 Y94.579 E.06165
G1 X91.898 Y94.58 E.01705
G1 X93.489 Y96.171 E.07129
G1 X93.166 Y96.387 E.0123
G1 X89.279 Y92.5 E.17409
G1 X89.279 Y93.039 E.01706
G1 X92.843 Y96.602 E.15962
G1 X92.52 Y96.818 E.0123
G1 X89.279 Y93.577 E.14515
G1 X89.279 Y93.739 E.00512
G1 X89.238 Y93.994 E.00819
G1 X89.212 Y94.049 E.00192
G1 X92.197 Y97.033 E.13367
G1 X91.873 Y97.249 E.0123
G1 X88.991 Y94.366 E.12911
M73 P4 R23
G1 X88.941 Y94.41 E.00209
G1 X88.64 Y94.554 E.01058
G1 X91.55 Y97.464 E.13035
G1 X91.467 Y97.52 E.00319
G1 X91.067 Y97.52 E.01264
G1 X88.127 Y94.58 E.1317
G1 X87.588 Y94.579 E.01707
G1 X90.529 Y97.52 E.13172
G1 X89.99 Y97.52 E.01706
G1 X87.049 Y94.579 E.13174
G1 X86.51 Y94.578 E.01707
G1 X89.451 Y97.52 E.13176
G1 X88.913 Y97.52 E.01706
G1 X85.971 Y94.578 E.13178
G1 X85.431 Y94.577 E.01707
G1 X88.055 Y97.201 E.11752
G1 X86.438 Y96.123 E.06157
G1 X84.892 Y94.577 E.06923
G1 X84.353 Y94.577 E.01707
G1 X85.433 Y95.656 E.04836
M204 P1000
G1 E-2.24 F4200
;WIPE_START
G1 F7200
G1 X84.353 Y94.577 E-.84625
G1 X84.472 Y94.577 E-.06575
;WIPE_END
G1 E-.048 F4200
G1 Z.4 F720
G1 X87.982 Y88.51 F9000
G1 Z.2 F720
G1 E3.2 F2400
M204 P800
G1 F1200
G1 X81.953 Y82.48 E.27008
G1 X81.414 Y82.48 E.01706
G1 X87.274 Y88.34 E.26248
G1 X86.735 Y88.34 E.01706
G1 X80.875 Y82.48 E.26248
G1 X80.337 Y82.48 E.01706
G1 X86.197 Y88.34 E.26248
G1 X85.658 Y88.34 E.01706
G1 X79.798 Y82.48 E.26248
G1 X79.259 Y82.48 E.01706
G1 X85.119 Y88.34 E.26248
G1 X84.581 Y88.34 E.01706
G1 X78.721 Y82.48 E.26248
G1 X78.182 Y82.48 E.01706
G1 X84.042 Y88.34 E.26248
G1 X83.503 Y88.34 E.01706
G1 X77.643 Y82.48 E.26248
G1 X77.105 Y82.48 E.01706
G1 X82.965 Y88.34 E.26248
G1 X82.426 Y88.34 E.01706
G1 X76.566 Y82.48 E.26248
G1 X76.07 Y82.48 E.01571
G1 X76.07 Y82.523 E.00135
G1 X81.887 Y88.34 E.26057
G1 X81.349 Y88.34 E.01706
G1 X76.07 Y83.061 E.23644
G1 X76.07 Y83.6 E.01706
M73 P4 R22
G1 X80.81 Y88.34 E.21232
G1 X80.271 Y88.34 E.01706
G1 X76.07 Y84.139 E.18819
G1 X76.07 Y84.677 E.01706
G1 X79.733 Y88.34 E.16406
G1 X79.194 Y88.34 E.01706
G1 X76.07 Y85.216 E.13994
G1 X76.07 Y85.755 E.01706
G1 X78.655 Y88.34 E.11581
G1 X78.117 Y88.34 E.01706
G1 X76.07 Y86.293 E.09168
G1 X76.07 Y86.832 E.01706
G1 X77.578 Y88.34 E.06755
G1 X77.039 Y88.34 E.01706
G1 X76.07 Y87.371 E.04343
G1 X76.07 Y87.909 E.01706
G1 X76.67 Y88.51 E.0269
M204 P1000
; stop printing object GripperAttachment.STL id:0 copy 0
M106 S84.15
;LAYER_CHANGE
;Z:0.35
;HEIGHT:0.15
;BEFORE_LAYER_CHANGE
G92 E0.0
;0.35


G1 E-2.24 F4200
;WIPE_START
G1 F7200
G1 X76.07 Y87.909 E-.47069
G1 X76.07 Y87.371 E-.29851
G1 X76.252 Y87.553 E-.1428
;WIPE_END
G1 E-.048 F4200
G1 Z.4 F720
;AFTER_LAYER_CHANGE
;0.35
G1 X72.246 Y87.553 F9000
G1 Z.35 F720
G1 E3.2 F2400
;TYPE:Skirt/Brim
;WIDTH:0.42
G1 X72.246 Y81.41 E.14856
G1 X72.639 Y79.993 E.03557
G1 X73.705 Y78.979 E.03557
G1 X75 Y78.656 E.03229
G1 X105 Y78.656 E.72555
G1 X106.417 Y79.049 E.03557
G1 X107.431 Y80.115 E.03557
G1 X107.754 Y81.41 E.03229
G1 X107.754 Y89.41 E.19348
G1 X107.361 Y90.827 E.03557
G1 X106.627 Y91.633 E.02636
G1 X101.025 Y95.733 E.16789
G1 X93.32 Y100.88 E.2241
G1 X91.791 Y101.344 E.03865
G1 X88.209 Y101.344 E.08662
G1 X86.68 Y100.88 E.03865
G1 X78.975 Y95.733 E.2241
G1 X73.373 Y91.633 E.16789
G1 X72.462 Y90.478 E.03557
G1 X72.246 Y89.41 E.02636
G1 X72.246 Y87.613 E.04347
G1 X72.623 Y87.613 F9000
G1 F2400
G1 X72.623 Y81.41 E.15001
G1 X73.015 Y80.103 E.033
G1 X74.06 Y79.227 E.033
G1 X75 Y79.033 E.02321
G1 X105 Y79.033 E.72555
G1 X106.307 Y79.425 E.033
M73 P5 R22
G1 X107.183 Y80.47 E.033
G1 X107.377 Y81.41 E.02321
G1 X107.377 Y89.41 E.19348
G1 X106.985 Y90.717 E.033
G1 X106.404 Y91.328 E.0204
G1 X100.802 Y95.428 E.16789
G1 X93.111 Y100.567 E.22371
G1 X91.791 Y100.967 E.03336
G1 X88.209 Y100.967 E.08662
G1 X86.889 Y100.567 E.03336
G1 X79.198 Y95.428 E.22371
G1 X73.596 Y91.328 E.16789
G1 X72.773 Y90.24 E.033
G1 X72.623 Y89.41 E.0204
G1 X72.623 Y87.673 E.04202
; printing object GripperAttachment.STL id:0 copy 0
G1 E-2.24 F4200
;WIPE_START
G1 F7200
G1 X72.623 Y86.027 E-.912
;WIPE_END
G1 E-.048 F4200
G1 Z.55 F720
G1 X91.329 Y88.962 F9000
G1 Z.35 F720
G1 E3.2 F2400
M204 P800
;TYPE:Perimeter
;WIDTH:0.449999
G1 X91.184 Y89.184 E.0069
G1 X91.148 Y89.394 E.00555
G1 X91.148 Y93.526 E.10767
G1 X91.176 Y93.713 E.00491
G1 X91.317 Y93.954 E.00728
G1 X91.587 Y94.124 E.00833
G1 X91.775 Y94.153 E.00494
G1 X97.278 Y94.153 E.14339
G1 X91.596 Y97.947 E.17803
G1 X88.404 Y97.947 E.08316
G1 X82.722 Y94.153 E.17803
G1 X88.225 Y94.153 E.14339
G1 X88.413 Y94.124 E.00494
G1 X88.683 Y93.954 E.00833
G1 X88.824 Y93.713 E.00728
G1 X88.852 Y93.526 E.00491
G1 X88.852 Y89.394 E.10767
G1 X88.816 Y89.184 E.00555
G1 X88.736 Y89.031 E.0045
G1 X88.533 Y88.848 E.00713
G1 X88.225 Y88.767 E.00827
G1 X75.643 Y88.767 E.32785
G1 X75.643 Y82.053 E.17495
G1 X104.357 Y82.053 E.74817
G1 X104.357 Y88.767 E.17495
G1 X91.775 Y88.767 E.32785
G1 X91.509 Y88.826 E.0071
G1 X91.37 Y88.92 E.00436
M204 P1000
G1 X91.632 Y89.241 F9000
M204 P800
;TYPE:External perimeter
G1 F1800
G1 X91.566 Y89.394 E.00433
G1 X91.566 Y93.526 E.10767
G1 X91.622 Y93.669 E.004
G1 X91.775 Y93.735 E.00433
G1 X98.656 Y93.735 E.1793
G1 X91.722 Y98.365 E.21723
G1 X88.278 Y98.365 E.08976
G1 X81.344 Y93.735 E.21723
G1 X88.225 Y93.735 E.1793
G1 X88.378 Y93.669 E.00433
G1 X88.434 Y93.526 E.004
G1 X88.434 Y89.394 E.10767
G1 X88.368 Y89.241 E.00433
G1 X88.225 Y89.185 E.004
G1 X75.225 Y89.185 E.33873
G1 X75.225 Y81.635 E.19672
G1 X104.775 Y81.635 E.76995
G1 X104.775 Y89.185 E.19672
G1 X91.775 Y89.185 E.33873
G1 X91.688 Y89.219 E.00244
M204 P1000
G1 X91.472 Y89.197 F9000
G1 E-2.24 F4200
;WIPE_START
G1 F7200
G1 X91.566 Y89.394 E-.11793
G1 X91.566 Y90.827 E-.79407
;WIPE_END
G1 E-.048 F4200
G1 Z.55 F720
G1 X103.383 Y88.642 F9000
G1 Z.35 F720
G1 E3.2 F2400
;TYPE:Solid infill
;WIDTH:0.451791
G1 F4800
G1 X104.044 Y87.981 E.02444
G1 X104.044 Y87.388 E.01553
G1 X102.978 Y88.454 E.03944
G1 X102.385 Y88.454 E.01553
G1 X104.044 Y86.795 E.0614
G1 X104.044 Y86.201 E.01553
G1 X101.791 Y88.454 E.08336
G1 X101.198 Y88.454 E.01553
G1 X104.044 Y85.608 E.10532
G1 X104.044 Y85.014 E.01553
G1 X100.604 Y88.454 E.12728
G1 X100.011 Y88.454 E.01553
G1 X104.044 Y84.421 E.14924
G1 X104.044 Y83.828 E.01553
G1 X99.418 Y88.454 E.1712
G1 X98.824 Y88.454 E.01553
G1 X104.044 Y83.234 E.19316
G1 X104.044 Y82.641 E.01553
G1 X98.231 Y88.454 E.21512
G1 X97.637 Y88.454 E.01553
G1 X103.725 Y82.366 E.22528
G1 X103.132 Y82.366 E.01553
G1 X97.044 Y88.454 E.22528
G1 X96.451 Y88.454 E.01553
G1 X102.538 Y82.366 E.22528
G1 X101.945 Y82.366 E.01553
G1 X95.857 Y88.454 E.22528
G1 X95.264 Y88.454 E.01553
G1 X101.351 Y82.366 E.22528
G1 X100.758 Y82.366 E.01553
G1 X94.67 Y88.454 E.22528
G1 X94.077 Y88.454 E.01553
G1 X100.165 Y82.366 E.22528
G1 X99.571 Y82.366 E.01553
G1 X93.484 Y88.454 E.22528
G1 X92.89 Y88.454 E.01553
G1 X98.978 Y82.366 E.22528
G1 X98.384 Y82.366 E.01553
G1 X92.109 Y88.642 E.23224
G1 E-2.24 F4200
;WIPE_START
G1 F7200
G1 X93.272 Y87.478 E-.912
;WIPE_END
G1 E-.048 F4200
G1 Z.55 F720
G1 X95.967 Y94.278 F9000
G1 Z.35 F720
G1 E3.2 F2400
G1 F4800
G1 X94.843 Y95.402 E.04158
G1 X93.057 Y96.595 E.0562
G1 X95.186 Y94.466 E.07876
G1 X94.592 Y94.466 E.01553
G1 X91.424 Y97.634 E.11722
G1 X90.831 Y97.634 E.01553
G1 X93.999 Y94.466 E.11722
G1 X93.405 Y94.466 E.01553
G1 X90.238 Y97.634 E.11722
G1 X89.644 Y97.634 E.01553
G1 X92.812 Y94.466 E.11722
G1 X92.218 Y94.466 E.01553
G1 X89.051 Y97.634 E.11722
G1 X88.499 Y97.634 E.01443
G1 X88.474 Y97.617 E.00079
G1 X91.644 Y94.447 E.1173
G1 X91.491 Y94.424 E.00403
M73 P6 R22
G1 X91.219 Y94.279 E.00808
G1 X88.118 Y97.38 E.11474
G1 X87.763 Y97.142 E.0112
G1 X90.946 Y93.958 E.11781
G1 X90.877 Y93.807 E.00436
G1 X90.838 Y93.609 E.00528
G1 X90.838 Y93.473 E.00355
G1 X87.407 Y96.904 E.12696
