; generated by PrusaSlicer 2.5.0+win64 on 2023-01-18 at 19:08:37 UTC


;
;

;
;
; 

; external perimeters extrusion width = 0.45mm
; perimeters extrusion width = 0.45mm
; infill extrusion width = 0.45mm
; solid infill extrusion width = 0.45mm
; top infill extrusion width = 0.40mm
; first layer extrusion width = 0.42mm

; external perimeters extrusion width = 0.45mm
; perimeters extrusion width = 0.45mm
; infill extrusion width = 0.45mm
; solid infill extrusion width = 0.45mm
; top infill extrusion width = 0.40mm
; first layer extrusion width = 0.42mm

; external perimeters extrusion width = 0.45mm
; perimeters extrusion width = 0.45mm
; infill extrusion width = 0.45mm
; solid infill extrusion width = 0.45mm
; top infill extrusion width = 0.40mm
; first layer extrusion width = 0.42mm

; external perimeters extrusion width = 0.45mm
; perimeters extrusion width = 0.45mm
; infill extrusion width = 0.45mm
; solid infill extrusion width = 0.45mm
; top infill extrusion width = 0.40mm
; first layer extrusion width = 0.42mm

M73 P0 R111
M201 X2500 Y2500 Z400 E5000 ; sets maximum accelerations, mm/sec^2
M203 X180 Y180 Z12 E80 ; sets maximum feedrates, mm / sec
M204 P1250 R1250 T2500 ; sets acceleration (P, T) and retract acceleration (R), mm/sec^2
M205 X8.00 Y8.00 Z2.00 E10.00 ; sets the jerk limits, mm/sec
M205 S0 T0 ; sets the minimum extruding and travel feed rate, mm/sec
M107
;TYPE:Custom
M862.3 P "MINI" ; printer model check
G90 ; use absolute coordinates
M83 ; extruder relative mode
M104 S170 ; set extruder temp for bed leveling
M140 S60 ; set bed temp
M109 R170 ; wait for bed leveling temp
M190 S60 ; wait for bed temp
M204 T1250 ; set travel acceleration
G28 ; home all without mesh bed level
G29 ; mesh bed leveling 
M204 T2500 ; restore travel acceleration
M104 S215 ; set extruder temp
G92 E0
G1 Y-2 X179 F2400
G1 Z3 F720
M109 S215 ; wait for extruder temp

; intro line
G1 X170 F1000
G1 Z0.2 F720
G1 X110 E8 F900
G1 X40 E10 F700
G92 E0

M221 S95 ; set flow
G21 ; set units to millimeters
G90 ; use absolute coordinates
M83 ; use relative distances for extrusion
M900 K0.2 ; Filament gcode LA 1.5
; ; Filament gcode LA 1.0
M107
;LAYER_CHANGE
;Z:0.2
;HEIGHT:0.2
;BEFORE_LAYER_CHANGE
G92 E0.0
;0.2


G1 E-3.2 F4200
M73 P0 R110
G1 Z.2 F720
;AFTER_LAYER_CHANGE
;0.2
G1 Z.4
G1 X41.609 Y49.073 F9000
G1 Z.2 F720
G1 E3.2 F2400
M204 P800
;TYPE:Skirt/Brim
;WIDTH:0.42
G1 F1200
G1 X49.216 Y43.993 E.28681
G1 X50.536 Y43.593 E.04325
G1 X115.166 Y43.593 E2.02641
G1 X115.997 Y43.743 E.02649
G1 X141.294 Y53.188 E.84666
G1 X142.382 Y54.012 E.04278
G1 X142.84 Y55.415 E.04627
G1 X142.84 Y134.03 E2.46492
G1 X142.448 Y135.337 E.04278
G1 X141.403 Y136.213 E.04278
G1 X140.463 Y136.407 E.03008
G1 X39.537 Y136.407 E3.16446
G1 X38.23 Y136.015 E.04278
G1 X37.354 Y134.97 E.04278
G1 X37.16 Y134.03 E.03008
G1 X37.16 Y55.415 E2.46492
G1 X37.66 Y53.956 E.04835
G1 X41.052 Y49.591 E.17333
G1 X41.565 Y49.114 E.02197
M204 P1000
; printing object Motor Attachment .STL id:2 copy 0
G1 E-2.24 F4200
;WIPE_START
G1 F7200
G1 X42.933 Y48.199 E-.912
;WIPE_END
G1 E-.048 F4200
G1 Z.4 F720
G1 X114.895 Y50.269 F9000
G1 Z.2 F720
G1 E3.2 F2400
M204 P800
;TYPE:Perimeter
;WIDTH:0.419999
G1 F1200
G1 X114.81 Y50.279 E.00267
G1 X114.601 Y50.379 E.00728
G1 X114.471 Y50.519 E.00598
G1 X114.379 Y50.829 E.01013
G1 X114.379 Y55.636 E.15075
G1 X114.438 Y55.888 E.0081
G1 X114.543 Y56.035 E.00567
G1 X114.69 Y56.142 E.00569
G1 X114.944 Y56.202 E.00819
G1 X132.158 Y56.202 E.53972
;WIDTH:0.458503
G1 X132.677 Y56.221 E.01795
G1 X133.181 Y56.213 E.0174
;WIDTH:0.440933
G1 X133.919 Y56.202 E.02446
;WIDTH:0.419999
G1 X139.676 Y56.202 E.18049
G1 X139.676 Y58.358 E.06761
G1 X139.676 Y78.628 E.63554
G1 X134.068 Y78.628 E.17583
;WIDTH:0.458502
G1 X133.549 Y78.609 E.01795
G1 X133.045 Y78.617 E.0174
;WIDTH:0.440932
G1 X132.307 Y78.628 E.02446
;WIDTH:0.419999
G1 X101.372 Y78.628 E.96993
G1 X101.372 Y56.202 E.70315
G1 X111.845 Y56.201 E.32837
G1 X112.121 Y56.106 E.00915
G1 X112.312 Y55.888 E.0091
G1 X112.371 Y55.636 E.0081
G1 X112.371 Y50.829 E.15075
G1 X112.343 Y50.653 E.00558
G1 X112.209 Y50.432 E.00808
G1 X111.94 Y50.279 E.00972
G1 X111.805 Y50.263 E.00425
G1 X106.865 Y50.267 E.1549
G1 X106.486 Y50.297 E.01193
G1 X106.814 Y50.098 E.01203
G1 X111.823 Y46.757 E.18878
G1 X114.927 Y46.757 E.09734
G1 X120.236 Y50.281 E.19979
G1 X119.921 Y50.267 E.00988
G1 X114.954 Y50.263 E.15573
M204 P1000
G1 X114.944 Y50.64 F9000
M204 P800
;TYPE:External perimeter
G1 F1200
G1 X114.83 Y50.679 E.00379
G1 X114.756 Y50.829 E.00524
G1 X114.756 Y55.636 E.15075
G1 X114.81 Y55.769 E.00451
G1 X114.944 Y55.825 E.00454
G1 X140.053 Y55.825 E.78727
G1 X140.053 Y79.005 E.72679
G1 X100.995 Y79.005 E1.22463
G1 X100.995 Y55.825 E.72679
G1 X111.806 Y55.825 E.33896
G1 X111.94 Y55.769 E.00454
G1 X111.994 Y55.636 E.00451
G1 X111.994 Y50.829 E.15075
G1 X111.94 Y50.696 E.00447
G1 X111.806 Y50.64 E.00458
G1 X106.811 Y50.645 E.15659
G1 X105.857 Y50.735 E.03005
G1 X105.38 Y50.84 E.01531
G1 X104.671 Y50.84 E.02225
G1 X105.28 Y50.435 E.02294
G1 X106.162 Y50.05 E.03017
G1 X106.604 Y49.784 E.0162
G1 X111.709 Y46.38 E.19236
G1 X115.041 Y46.38 E.1045
G1 X120.293 Y49.879 E.19787
G1 X120.74 Y50.136 E.01615
G1 X121.636 Y50.544 E.03089
G1 X122.08 Y50.84 E.01674
G1 X121.366 Y50.84 E.0224
G1 X120.431 Y50.67 E.02978
G1 X119.921 Y50.644 E.01603
G1 X115.004 Y50.64 E.15415
M204 P1000
G1 X114.863 Y50.551 F9000
G1 E-2.24 F4200
;WIPE_START
G1 F7200
G1 X114.83 Y50.679 E-.09913
G1 X114.756 Y50.829 E-.0926
G1 X114.756 Y52.128 E-.72027
;WIPE_END
G1 E-.048 F4200
G1 Z.4 F720
G1 X133.106 Y56.614 F9000
G1 Z.2 F720
G1 E3.2 F2400
M204 P800
;TYPE:Perimeter
;WIDTH:0.451706
G1 F1200
G1 X133.163 Y56.61 E.00195
;WIDTH:0.442212
G1 X133.561 Y56.653 E.0133
G1 X134.213 Y56.902 E.02317
;WIDTH:0.419999
G1 X134.62 Y57.187 E.01557
G1 X134.896 Y57.474 E.0125
G1 X135.117 Y57.806 E.0125
G1 X135.278 Y58.171 E.0125
G1 X135.373 Y58.558 E.0125
G1 X135.401 Y58.906 E.01096
G1 X135.355 Y59.351 E.01404
G1 X135.244 Y59.734 E.0125
G1 X135.068 Y60.092 E.0125
G1 X134.832 Y60.413 E.0125
G1 X134.545 Y60.689 E.0125
G1 X134.213 Y60.91 E.0125
G1 X133.848 Y61.071 E.0125
G1 X133.41 Y61.17 E.0141
G1 X132.914 Y61.179 E.01555
G1 X132.382 Y61.072 E.01702
G1 X131.927 Y60.861 E.01571
G1 X131.569 Y60.588 E.01412
G1 X131.281 Y60.267 E.01354
G1 X131.109 Y60.006 E.00979
G1 X130.899 Y59.457 E.01844
G1 X130.827 Y58.955 E.01589
G1 X130.871 Y58.461 E.01557
G1 X130.982 Y58.078 E.0125
G1 X131.158 Y57.72 E.0125
G1 X131.394 Y57.399 E.0125
G1 X131.681 Y57.123 E.0125
G1 X132.013 Y56.902 E.0125
;WIDTH:0.451706
G1 X132.663 Y56.648 E.02374
G1 X133.046 Y56.619 E.01305
M204 P1000
G1 X133.029 Y57.004 F9000
M204 P800
;TYPE:External perimeter
;WIDTH:0.419999
G1 F1200
G1 X133.129 Y56.996 E.00315
G1 X133.461 Y57.028 E.01044
G1 X133.782 Y57.117 E.01044
G1 X134.082 Y57.26 E.01044
G1 X134.353 Y57.453 E.01044
G1 X134.587 Y57.691 E.01044
G1 X134.775 Y57.965 E.01044
G1 X134.914 Y58.268 E.01044
G1 X134.997 Y58.59 E.01044
G1 X135.024 Y58.906 E.00993
G1 X134.991 Y59.254 E.01096
G1 X134.902 Y59.575 E.01044
G1 X134.759 Y59.875 E.01044
G1 X134.566 Y60.146 E.01044
G1 X134.328 Y60.38 E.01044
G1 X134.054 Y60.568 E.01044
G1 X133.751 Y60.707 E.01044
G1 X133.377 Y60.794 E.01204
G1 X132.947 Y60.803 E.01349
G1 X132.448 Y60.697 E.016
G1 X132.144 Y60.552 E.01056
G1 X131.836 Y60.322 E.01206
G1 X131.59 Y60.051 E.01148
G1 X131.324 Y59.575 E.01709
G1 X131.229 Y59.222 E.01147
G1 X131.203 Y58.89 E.01044
G1 X131.235 Y58.558 E.01044
G1 X131.324 Y58.237 E.01044
G1 X131.467 Y57.937 E.01044
G1 X131.66 Y57.666 E.01044
G1 X131.898 Y57.432 E.01044
G1 X132.172 Y57.244 E.01044
G1 X132.475 Y57.105 E.01044
G1 X132.797 Y57.022 E.01044
G1 X132.97 Y57.008 E.00541
M204 P1000
G1 X133.069 Y56.912 F9000
G1 E-2.24 F4200
;WIPE_START
G1 F7200
G1 X133.129 Y56.996 E-.0889
G1 X133.461 Y57.028 E-.18452
G1 X133.782 Y57.117 E-.18452
G1 X134.082 Y57.26 E-.18452
G1 X134.353 Y57.453 E-.18452
G1 X134.461 Y57.563 E-.08502
;WIPE_END
G1 E-.048 F4200
G1 Z.4 F720
G1 X116.493 Y63.172 F9000
G1 Z.2 F720
G1 E3.2 F2400
M204 P800
;TYPE:Perimeter
G1 F1200
G1 X117.41 Y62.94 E.02967
G1 X118.738 Y62.731 E.04214
G1 X120.058 Y62.636 E.04147
G1 X121.39 Y62.648 E.04178
G1 X122.705 Y62.764 E.04141
G1 X123.975 Y62.985 E.04042
G1 X125.115 Y63.29 E.03699
G1 X126.266 Y63.727 E.0386
G1 X127.169 Y64.2 E.03196
G1 X127.787 Y64.641 E.02379
G1 X128.11 Y64.9 E.01301
G1 X128.57 Y65.37 E.02061
G1 X128.949 Y65.909 E.02065
G1 X129.192 Y66.425 E.01788
G1 X129.327 Y66.919 E.01607
G1 X129.373 Y67.448 E.01664
G1 X129.318 Y67.965 E.01632
G1 X129.178 Y68.449 E.01577
G1 X128.949 Y68.922 E.01648
G1 X128.638 Y69.365 E.01697
G1 X128.381 Y69.659 E.01224
G1 X127.935 Y70.088 E.01942
G1 X127.365 Y70.488 E.02182
G1 X126.941 Y70.757 E.01574
G1 X126.088 Y71.181 E.02988
G1 X124.978 Y71.583 E.03702
G1 X123.719 Y71.899 E.04069
G1 X122.443 Y72.098 E.0405
G1 X121.124 Y72.193 E.04147
G1 X119.837 Y72.185 E.04036
G1 X118.523 Y72.073 E.04136
G1 X117.256 Y71.858 E.04029
G1 X116.494 Y71.658 E.02471
G1 X116.091 Y72.018 E.01692
G1 X115.34 Y72.503 E.02806
G1 X114.431 Y72.899 E.03108
G1 X113.468 Y73.133 E.03108
G1 X112.478 Y73.2 E.03108
G1 X111.492 Y73.097 E.03108
G1 X110.538 Y72.827 E.03108
G1 X109.645 Y72.398 E.03108
G1 X108.837 Y71.823 E.03109
G1 X108.14 Y71.118 E.03108
G1 X107.573 Y70.305 E.03108
G1 X107.153 Y69.407 E.03108
G1 X106.892 Y68.45 E.03108
G1 X106.799 Y67.463 E.03108
G1 X106.876 Y66.475 E.03108
G1 X107.119 Y65.519 E.03092
G1 X107.527 Y64.606 E.03135
G1 X108.078 Y63.787 E.03098
G1 X108.837 Y63.007 E.03411
G1 X109.562 Y62.482 E.02806
G1 X110.448 Y62.038 E.03108
G1 X111.397 Y61.752 E.03108
G1 X112.433 Y61.634 E.03269
G1 X113.367 Y61.682 E.02933
G1 X114.431 Y61.931 E.03425
G1 X115.254 Y62.281 E.02806
G1 X116.168 Y62.872 E.03411
G1 X116.449 Y63.131 E.01199
M204 P1000
G1 X116.388 Y63.588 F9000
M204 P800
;TYPE:External perimeter
G1 F1200
G1 X117.503 Y63.305 E.03608
G1 X118.766 Y63.107 E.04008
G1 X120.055 Y63.014 E.04053
G1 X121.342 Y63.022 E.04036
G1 X122.626 Y63.134 E.0404
G1 X123.862 Y63.346 E.03931
G1 X125.018 Y63.654 E.03752
G1 X125.651 Y63.893 E.02122
G1 X126.091 Y64.062 E.01477
G1 X126.994 Y64.534 E.03196
G1 X127.841 Y65.164 E.0331
G1 X128.301 Y65.634 E.02061
G1 X128.638 Y66.121 E.01858
G1 X128.849 Y66.58 E.01582
G1 X128.967 Y67.044 E.01503
G1 X128.995 Y67.467 E.01328
G1 X128.939 Y67.923 E.01441
G1 X128.821 Y68.325 E.01313
G1 X128.599 Y68.777 E.01578
G1 X128.248 Y69.259 E.0187
G1 X127.673 Y69.816 E.0251
G1 X126.774 Y70.419 E.03395
G1 X125.923 Y70.842 E.02979
G1 X124.85 Y71.228 E.03574
G1 X123.66 Y71.526 E.03846
G1 X122.415 Y71.722 E.03952
G1 X121.126 Y71.816 E.04052
G1 X119.839 Y71.808 E.04036
G1 X118.555 Y71.698 E.04041
G1 X117.32 Y71.486 E.0393
G1 X116.39 Y71.24 E.03014
G1 X115.912 Y71.681 E.02039
G1 X115.226 Y72.128 E.02569
G1 X114.283 Y72.552 E.0324
G1 X113.381 Y72.766 E.02907
G1 X112.456 Y72.824 E.02907
G1 X111.535 Y72.722 E.02907
G1 X110.644 Y72.465 E.02907
G1 X109.811 Y72.06 E.02906
G1 X109.058 Y71.518 E.02907
G1 X108.41 Y70.855 E.02907
G1 X107.884 Y70.092 E.02907
G1 X107.496 Y69.25 E.02907
G1 X107.257 Y68.355 E.02907
G1 X107.175 Y67.431 E.02907
G1 X107.252 Y66.507 E.02907
G1 X107.483 Y65.615 E.0289
G1 X107.87 Y64.763 E.02933
G1 X108.389 Y64 E.02896
G1 X109.058 Y63.312 E.03007
G1 X109.783 Y62.787 E.02806
G1 X110.614 Y62.377 E.02907
G1 X111.503 Y62.114 E.02907
G1 X112.414 Y62.011 E.02874
G1 X113.348 Y62.059 E.02933
G1 X114.283 Y62.278 E.03012
G1 X115.107 Y62.628 E.02806
G1 X115.912 Y63.149 E.03007
G1 X116.343 Y63.547 E.01839
M204 P1000
G1 X116.604 Y63.251 F9000
G1 E-2.24 F4200
;WIPE_START
G1 F7200
G1 X117.503 Y63.305 E-.65636
G1 X117.959 Y63.234 E-.25564
;WIPE_END
G1 E-.048 F4200
G1 Z.4 F720
G1 X133.891 Y73.778 F9000
G1 Z.2 F720
G1 E3.2 F2400
M204 P800
;TYPE:Perimeter
G1 F1200
G1 X134.299 Y73.969 E.01412
G1 X134.62 Y74.205 E.0125
G1 X134.896 Y74.492 E.0125
G1 X135.117 Y74.824 E.0125
G1 X135.278 Y75.189 E.0125
G1 X135.373 Y75.576 E.0125
G1 X135.401 Y75.924 E.01096
G1 X135.355 Y76.369 E.01404
G1 X135.244 Y76.752 E.0125
G1 X135.068 Y77.11 E.0125
G1 X134.832 Y77.431 E.0125
G1 X134.545 Y77.707 E.0125
G1 X134.213 Y77.928 E.0125
;WIDTH:0.451705
G1 X133.563 Y78.182 E.02374
G1 X133.063 Y78.22 E.01704
;WIDTH:0.442213
G1 X132.665 Y78.177 E.0133
G1 X132.013 Y77.928 E.02317
;WIDTH:0.419999
G1 X131.606 Y77.643 E.01557
G1 X131.33 Y77.356 E.0125
G1 X131.109 Y77.024 E.0125
G1 X130.948 Y76.659 E.0125
G1 X130.853 Y76.272 E.0125
G1 X130.827 Y75.875 E.0125
G1 X130.871 Y75.479 E.0125
G1 X130.982 Y75.096 E.0125
G1 X131.158 Y74.738 E.0125
G1 X131.428 Y74.383 E.01399
G1 X131.681 Y74.141 E.01098
G1 X132.154 Y73.854 E.01734
G1 X132.668 Y73.682 E.01698
G1 X133.197 Y73.641 E.01664
G1 X133.558 Y73.682 E.01141
G1 X133.833 Y73.761 E.00897
M204 P1000
G1 X133.86 Y74.172 F9000
M204 P800
;TYPE:External perimeter
G1 F1200
G1 X134.082 Y74.278 E.00772
G1 X134.353 Y74.471 E.01044
G1 X134.587 Y74.709 E.01044
G1 X134.775 Y74.983 E.01044
G1 X134.914 Y75.286 E.01044
G1 X134.997 Y75.608 E.01044
G1 X135.024 Y75.924 E.00993
G1 X134.991 Y76.272 E.01096
G1 X134.902 Y76.593 E.01044
G1 X134.759 Y76.893 E.01044
G1 X134.566 Y77.164 E.01044
G1 X134.328 Y77.398 E.01044
G1 X134.054 Y77.586 E.01044
G1 X133.751 Y77.725 E.01044
G1 X133.429 Y77.808 E.01044
G1 X133.097 Y77.834 E.01044
G1 X132.765 Y77.802 E.01044
G1 X132.444 Y77.713 E.01044
G1 X132.144 Y77.57 E.01044
G1 X131.873 Y77.377 E.01044
G1 X131.639 Y77.139 E.01044
G1 X131.451 Y76.865 E.01044
G1 X131.312 Y76.562 E.01044
G1 X131.229 Y76.24 E.01044
G1 X131.203 Y75.908 E.01044
G1 X131.235 Y75.576 E.01044
G1 X131.324 Y75.255 E.01044
G1 X131.467 Y74.955 E.01044
G1 X131.694 Y74.649 E.01194
G1 X131.898 Y74.45 E.00893
G1 X132.313 Y74.196 E.01528
G1 X132.795 Y74.04 E.01588
G1 X133.164 Y74.017 E.01157
G1 X133.461 Y74.046 E.00936
G1 X133.806 Y74.146 E.01126
M204 P1000
G1 X134.052 Y74.018 F9000
G1 E-2.24 F4200
;WIPE_START
G1 F7200
G1 X134.082 Y74.278 E-.16978
G1 X134.353 Y74.471 E-.18451
G1 X134.587 Y74.709 E-.18452
G1 X134.775 Y74.983 E-.18452
G1 X134.914 Y75.286 E-.18452
G1 X134.915 Y75.293 E-.00414
;WIPE_END
G1 E-.048 F4200
G1 Z.4 F720
G1 X138.799 Y56.315 F9000
G1 Z.2 F720
G1 E3.2 F2400
M204 P800
;TYPE:Solid infill
;WIDTH:0.420581
G1 F1200
G1 X139.393 Y56.909 E.02637
G1 X139.393 Y57.443 E.01677
G1 X138.435 Y56.485 E.04255
G1 X137.901 Y56.485 E.01677
G1 X139.393 Y57.977 E.06627
G1 X139.393 Y58.511 E.01677
G1 X137.367 Y56.485 E.08999
G1 X136.833 Y56.485 E.01677
G1 X139.393 Y59.045 E.11371
G1 X139.393 Y59.579 E.01677
G1 X136.299 Y56.485 E.13743
G1 X135.764 Y56.485 E.01677
G1 X139.393 Y60.114 E.16115
G1 X139.393 Y60.648 E.01677
G1 X135.23 Y56.485 E.18487
G1 X134.696 Y56.485 E.01677
G1 X139.393 Y61.182 E.20859
G1 X139.393 Y61.716 E.01677
G1 X133.992 Y56.315 E.23984
M204 P1000
G1 E-2.24 F4200
;WIPE_START
G1 F7200
G1 X135.156 Y57.479 E-.912
;WIPE_END
G1 E-.048 F4200
G1 Z.4 F720
G1 X135.42 Y58.276 F9000
G1 Z.2 F720
G1 E3.2 F2400
M204 P800
G1 F1200
G1 X139.393 Y62.25 E.17647
G1 X139.393 Y62.784 E.01677
G1 X135.673 Y59.063 E.16523
G1 X135.645 Y59.353 E.00913
G1 X135.597 Y59.522 E.00551
G1 X139.393 Y63.318 E.1686
G1 X139.393 Y63.852 E.01677
G1 X135.465 Y59.924 E.17444
G1 X135.284 Y60.277 E.01245
G1 X139.393 Y64.386 E.18251
G1 X139.393 Y64.92 E.01677
M73 P1 R110
G1 X135.053 Y60.58 E.19276
G1 X134.789 Y60.85 E.01186
G1 X139.393 Y65.455 E.20449
G1 X139.393 Y65.989 E.01677
G1 X134.482 Y61.077 E.21812
G1 X134.129 Y61.259 E.01245
G1 X139.393 Y66.523 E.23376
G1 X139.393 Y67.057 E.01677
G1 X133.727 Y61.391 E.25163
G1 X133.57 Y61.436 E.00515
G1 X133.265 Y61.463 E.0096
G1 X139.393 Y67.591 E.27215
G1 X139.393 Y68.125 E.01677
G1 X132.476 Y61.208 E.30719
M204 P1000
G1 E-2.24 F4200
;WIPE_START
M73 P1 R109
G1 F7200
G1 X133.64 Y62.371 E-.912
;WIPE_END
G1 E-.048 F4200
G1 Z.4 F720
G1 X132.221 Y56.68 F9000
G1 Z.2 F720
G1 E3.2 F2400
M204 P800
G1 F1200
G1 X132.026 Y56.485 E.00868
G1 X131.492 Y56.485 E.01677
G1 X131.743 Y56.736 E.01115
G1 X131.436 Y56.963 E.01199
G1 X130.958 Y56.485 E.02124
G1 X130.423 Y56.485 E.01677
G1 X131.172 Y57.233 E.03324
G1 X131.102 Y57.307 E.00321
G1 X130.947 Y57.542 E.00883
G1 X129.889 Y56.485 E.04695
G1 X129.355 Y56.485 E.01677
