; generated by PrusaSlicer 2.5.0+win64 on 2022-12-08 at 01:45:54 UTC


;
;

;
;
; 

; external perimeters extrusion width = 0.45mm
; perimeters extrusion width = 0.45mm
; infill extrusion width = 0.45mm
; solid infill extrusion width = 0.45mm
; top infill extrusion width = 0.40mm
; first layer extrusion width = 0.42mm

; external perimeters extrusion width = 0.45mm
; perimeters extrusion width = 0.45mm
; infill extrusion width = 0.45mm
; solid infill extrusion width = 0.45mm
; top infill extrusion width = 0.40mm
; first layer extrusion width = 0.42mm

; external perimeters extrusion width = 0.45mm
; perimeters extrusion width = 0.45mm
; infill extrusion width = 0.45mm
; solid infill extrusion width = 0.45mm
; top infill extrusion width = 0.40mm
; first layer extrusion width = 0.42mm

; external perimeters extrusion width = 0.45mm
; perimeters extrusion width = 0.45mm
; infill extrusion width = 0.45mm
; solid infill extrusion width = 0.45mm
; top infill extrusion width = 0.40mm
; first layer extrusion width = 0.42mm

M73 P0 R37
M201 X2500 Y2500 Z400 E5000 ; sets maximum accelerations, mm/sec^2
M203 X180 Y180 Z12 E80 ; sets maximum feedrates, mm / sec
M204 P1250 R1250 T2500 ; sets acceleration (P, T) and retract acceleration (R), mm/sec^2
M205 X8.00 Y8.00 Z2.00 E10.00 ; sets the jerk limits, mm/sec
M205 S0 T0 ; sets the minimum extruding and travel feed rate, mm/sec
M107
;TYPE:Custom
M862.3 P "MINI" ; printer model check
G90 ; use absolute coordinates
M83 ; extruder relative mode
M104 S170 ; set extruder temp for bed leveling
M140 S60 ; set bed temp
M109 R170 ; wait for bed leveling temp
M190 S60 ; wait for bed temp
M204 T1250 ; set travel acceleration
G28 ; home all without mesh bed level
G29 ; mesh bed leveling 
M204 T2500 ; restore travel acceleration
M104 S215 ; set extruder temp
G92 E0
G1 Y-2 X179 F2400
G1 Z3 F720
M109 S215 ; wait for extruder temp

; intro line
G1 X170 F1000
G1 Z0.2 F720
G1 X110 E8 F900
G1 X40 E10 F700
G92 E0

M221 S95 ; set flow
G21 ; set units to millimeters
G90 ; use absolute coordinates
M83 ; use relative distances for extrusion
M900 K0.2 ; Filament gcode LA 1.5
; ; Filament gcode LA 1.0
M107
;LAYER_CHANGE
;Z:0.2
;HEIGHT:0.2
;BEFORE_LAYER_CHANGE
G92 E0.0
;0.2


G1 E-3.2 F4200
M73 P0 R36
G1 Z.2 F720
;AFTER_LAYER_CHANGE
;0.2
G1 Z.4
G1 X48.112 Y47.479 F9000
G1 Z.2 F720
G1 E3.2 F2400
M204 P800
;TYPE:Skirt/Brim
;WIDTH:0.42
G1 F1200
G1 X55.72 Y42.399 E.28683
G1 X57.04 Y41.999 E.04325
G1 X122.96 Y41.999 E2.06688
G1 X124.28 Y42.399 E.04325
G1 X131.886 Y47.479 E.2868
G1 X132.921 Y49.132 E.06113
G1 X133.523 Y53.506 E.13844
G1 X133.545 Y135.624 E2.57476
G1 X133.153 Y136.931 E.04278
M73 P1 R36
G1 X132.108 Y137.807 E.04278
G1 X131.168 Y138.001 E.03008
G1 X48.832 Y138.001 E2.58159
G1 X47.525 Y137.609 E.04278
G1 X46.649 Y136.564 E.04278
G1 X46.455 Y135.624 E.03008
G1 X46.455 Y53.83 E2.56459
G1 X47.077 Y49.133 E.14856
G1 X48.08 Y47.53 E.05929
M204 P1000
; printing object Tof sensor attachment_v2.STL id:0 copy 0
G1 E-2.24 F4200
;WIPE_START
G1 F7200
G1 X49.446 Y46.612 E-.912
;WIPE_END
G1 E-.048 F4200
G1 Z.4 F720
G1 X122.189 Y120.92 F9000
G1 Z.2 F720
G1 E3.2 F2400
M204 P800
;TYPE:Perimeter
;WIDTH:0.419999
G1 F1200
G1 X122.224 Y121.08 E.00514
G1 X122.321 Y121.227 E.0055
G1 X122.501 Y121.359 E.00699
G1 X122.739 Y121.411 E.00764
G1 X128.53 Y121.41 E.18158
;WIDTH:0.431302
G1 X129.156 Y121.416 E.02022
G1 X128.975 Y121.483 E.00624
;WIDTH:0.425578
G1 X128.449 Y121.825 E.01995
;WIDTH:0.419999
G1 X128.08 Y122.318 E.0193
G1 X127.9 Y122.91 E.01942
G1 X127.908 Y123.436 E.01648
G1 X128.08 Y123.93 E.0164
G1 X128.449 Y124.423 E.0193
G1 X128.878 Y124.706 E.01611
G1 X129.179 Y124.83 E.01021
G1 X129.681 Y124.892 E.01588
G1 X130.229 Y124.75 E.01772
G1 X130.456 Y124.624 E.00815
G1 X130.4 Y125.104 E.01515
G1 X130.383 Y125.623 E.0163
G1 X130.381 Y134.837 E.28888
G1 X124.455 Y134.837 E.1858
G1 X124.455 Y125.448 E.29437
G1 X124.433 Y124.245 E.03775
G1 X124.281 Y123.995 E.00916
G1 X124.108 Y123.881 E.00649
G1 X123.889 Y123.837 E.007
G1 X118.447 Y123.837 E.17066
G1 X118.349 Y123.845 E.00307
G1 X118.056 Y123.993 E.01029
G1 X117.947 Y124.137 E.00565
G1 X117.881 Y124.403 E.00857
G1 X117.881 Y134.837 E.32716
G1 X111.957 Y134.837 E.18574
G1 X111.955 Y126.401 E.2645
G1 X111.945 Y125.305 E.03436
G1 X111.88 Y124.61 E.02189
G1 X112.251 Y124.811 E.01323
G1 X112.718 Y124.873 E.01478
G1 X113.061 Y124.853 E.01076
G1 X113.462 Y124.716 E.01328
G1 X113.642 Y124.615 E.00648
G1 X114.093 Y124.193 E.01938
G1 X114.362 Y123.693 E.01779
G1 X114.455 Y123.157 E.01705
G1 X114.374 Y122.609 E.01739
G1 X114.093 Y122.055 E.01946
G1 X113.642 Y121.633 E.01938
G1 X113.462 Y121.532 E.00648
G1 X112.891 Y121.387 E.01845
G1 X113.482 Y121.41 E.01853
G1 X119.599 Y121.411 E.19181
G1 X119.837 Y121.359 E.00764
G1 X120.017 Y121.227 E.00699
G1 X120.114 Y121.08 E.0055
G1 X120.165 Y120.845 E.00753
G1 X120.165 Y116.029 E.15103
G1 X120.137 Y115.853 E.00558
G1 X120.003 Y115.632 E.00808
G1 X119.734 Y115.479 E.00973
G1 X119.599 Y115.463 E.00425
G1 X114.658 Y115.467 E.15492
G1 X114.279 Y115.497 E.01193
G1 X114.607 Y115.298 E.01203
G1 X119.616 Y111.957 E.18879
G1 X122.721 Y111.957 E.09736
G1 X127.667 Y115.256 E.18639
G1 X128.069 Y115.483 E.01449
G1 X127.715 Y115.467 E.01112
G1 X122.739 Y115.463 E.15601
G1 X122.604 Y115.479 E.00425
G1 X122.395 Y115.579 E.00727
G1 X122.265 Y115.719 E.00598
G1 X122.173 Y116.029 E.01013
G1 X122.176 Y120.861 E.15153
M204 P1000
G1 X122.55 Y120.845 F9000
M204 P800
;TYPE:External perimeter
G1 F1200
G1 X122.599 Y120.973 E.00427
G1 X122.739 Y121.034 E.00477
G1 X130.784 Y121.033 E.25225
G1 X130.842 Y121.671 E.02009
G1 X130.954 Y122.173 E.01614
G1 X130.954 Y122.425 E.00791
;WIDTH:0.464957
G1 X130.931 Y122.686 E.00917
;WIDTH:0.509914
G1 X130.909 Y122.946 E.01015
G1 X130.808 Y122.725 E.00944
;WIDTH:0.464957
G1 X130.706 Y122.504 E.00853
;WIDTH:0.419999
G1 X130.385 Y122.051 E.01742
G1 X129.968 Y121.797 E.01531
G1 X129.682 Y121.737 E.00916
G1 X129.229 Y121.791 E.01431
G1 X128.79 Y122.024 E.01555
G1 X128.467 Y122.392 E.01538
G1 X128.288 Y122.845 E.01526
G1 X128.277 Y123.338 E.01545
G1 X128.434 Y123.8 E.01531
G1 X128.739 Y124.181 E.01529
G1 X129.162 Y124.434 E.01546
G1 X129.646 Y124.513 E.0154
G1 X130.12 Y124.388 E.01535
G1 X130.385 Y124.197 E.01024
G1 X130.706 Y123.744 E.01742
;WIDTH:0.466726
G1 X130.807 Y123.543 E.00791
;WIDTH:0.513452
G1 X130.907 Y123.342 E.00878
G1 X130.912 Y123.385 E.00168
;WIDTH:0.503417
G1 X130.933 Y123.742 E.01371
;WIDTH:0.461708
G1 X130.954 Y124.1 E.01246
;WIDTH:0.419999
G1 X130.839 Y124.598 E.01602
G1 X130.777 Y125.116 E.01637
G1 X130.76 Y125.624 E.01592
G1 X130.758 Y135.214 E.3007
G1 X124.078 Y135.214 E.20945
G1 X124.078 Y124.403 E.33899
G1 X124.02 Y124.267 E.00463
G1 X123.889 Y124.214 E.00442
G1 X118.447 Y124.214 E.17066
G1 X118.316 Y124.266 E.0044
G1 X118.258 Y124.403 E.00465
G1 X118.258 Y135.214 E.33899
G1 X111.58 Y135.214 E.20939
G1 X111.578 Y125.617 E.30089
M73 P2 R36
G1 X111.56 Y125.1 E.01624
G1 X111.495 Y124.577 E.0165
G1 X111.384 Y124.075 E.01614
;WIDTH:0.462112
G1 X111.405 Y123.729 E.01207
;WIDTH:0.504224
G1 X111.426 Y123.384 E.01328
G1 X111.528 Y123.564 E.00794
;WIDTH:0.462112
G1 X111.63 Y123.744 E.00721
;WIDTH:0.419999
G1 X111.951 Y124.197 E.01741
G1 X112.371 Y124.451 E.01539
G1 X112.864 Y124.506 E.01555
G1 X113.34 Y124.36 E.01562
G1 X113.725 Y124.054 E.01543
G1 X113.98 Y123.636 E.01534
G1 X114.076 Y123.157 E.01534
G1 X114.003 Y122.674 E.01531
G1 X113.767 Y122.244 E.01536
G1 X113.4 Y121.922 E.01532
G1 X112.939 Y121.751 E.01541
G1 X112.651 Y121.736 E.00902
G1 X112.215 Y121.86 E.01424
G1 X111.951 Y122.051 E.01021
G1 X111.63 Y122.504 E.01741
;WIDTH:0.465242
G1 X111.529 Y122.725 E.00852
;WIDTH:0.510484
G1 X111.429 Y122.946 E.00944
G1 X111.42 Y122.864 E.00321
;WIDTH:0.491859
G1 X111.402 Y122.506 E.01338
;WIDTH:0.455929
G1 X111.384 Y122.148 E.01231
;WIDTH:0.419999
G1 X111.499 Y121.65 E.01602
G1 X111.564 Y121.033 E.01948
G1 X119.599 Y121.034 E.25194
G1 X119.739 Y120.973 E.00477
G1 X119.788 Y120.845 E.00427
G1 X119.788 Y116.029 E.15103
G1 X119.734 Y115.896 E.00447
G1 X119.599 Y115.84 E.00458
G1 X114.605 Y115.845 E.1566
G1 X113.65 Y115.935 E.03005
G1 X113.173 Y116.04 E.01532
G1 X112.464 Y116.04 E.02225
G1 X113.073 Y115.635 E.02294
G1 X113.955 Y115.25 E.03017
G1 X114.398 Y114.984 E.0162
G1 X119.502 Y111.58 E.19237
G1 X122.836 Y111.58 E.10452
G1 X127.876 Y114.943 E.18997
G1 X128.756 Y115.435 E.03164
G1 X129.23 Y115.625 E.01599
G1 X129.869 Y116.04 E.02389
G1 X129.159 Y116.04 E.02224
G1 X128.225 Y115.87 E.02978
G1 X127.714 Y115.844 E.01603
G1 X122.739 Y115.84 E.15601
G1 X122.624 Y115.879 E.0038
G1 X122.55 Y116.029 E.00524
G1 X122.55 Y120.785 E.14915
M204 P1000
G1 X122.452 Y120.94 F9000
G1 E-2.24 F4200
;WIPE_START
G1 F7200
G1 X122.599 Y120.973 E-.10721
G1 X122.739 Y121.034 E-.08436
G1 X124.039 Y121.034 E-.72043
;WIPE_END
G1 E-.048 F4200
G1 Z.4 F720
G1 X130.909 Y122.946 F9000
G1 Z.2 F720
G1 E3.2 F2400
M204 P800
;WIDTH:0.513452
G1 F1200
G1 X130.907 Y123.342 E.01551
M204 P1000
G1 E-2.24 F4200
;WIPE_START
G1 F7200
G1 X130.909 Y122.946 E-.21964
;WIPE_END
G1 E-.74036 F4200
G1 Z.4 F720
G1 X129.156 Y121.416 F9000
G1 Z.2 F720
G1 E3.2 F2400
M204 P800
;TYPE:Perimeter
;WIDTH:0.431302
G1 F1200
G1 X129.448 Y121.402 E.00946
;WIDTH:0.403341
G1 X129.741 Y121.388 E.00878
;WIDTH:0.417175
G1 X129.865 Y121.408 E.00393
;WIDTH:0.45897
G1 X129.99 Y121.429 E.00437
;WIDTH:0.500765
G1 X130.114 Y121.45 E.00481
;WIDTH:0.54256
G1 X130.239 Y121.471 E.00525
;WIDTH:0.584354
G1 X130.364 Y121.492 E.00568
M204 P1000
G1 E-2.24 F4200
;WIPE_START
G1 F7200
G1 X130.239 Y121.471 E-.06997
G1 X130.114 Y121.45 E-.06997
G1 X129.99 Y121.429 E-.06997
G1 X129.865 Y121.408 E-.06997
G1 X129.741 Y121.388 E-.06997
G1 X129.448 Y121.402 E-.16232
G1 X129.156 Y121.416 E-.16232
;WIPE_END
G1 E-.28551 F4200
G1 Z.4 F720
G1 X111.97 Y121.48 F9000
G1 Z.2 F720
G1 E3.2 F2400
M204 P800
;WIDTH:0.560522
G1 F1200
G1 X112.099 Y121.459 E.0056
;WIDTH:0.518717
G1 X112.227 Y121.438 E.00514
;WIDTH:0.476912
G1 X112.355 Y121.417 E.00469
;WIDTH:0.435107
G1 X112.484 Y121.396 E.00424
;WIDTH:0.393302
G1 X112.891 Y121.387 E.01188
M204 P1000
G1 E-2.24 F4200
;WIPE_START
G1 F7200
G1 X112.484 Y121.396 E-.22588
G1 X112.355 Y121.417 E-.07206
G1 X112.227 Y121.438 E-.07206
G1 X112.099 Y121.459 E-.07206
G1 X111.97 Y121.48 E-.07206
;WIPE_END
G1 E-.44588 F4200
G1 Z.4 F720
G1 X111.431 Y123.342 F9000
G1 Z.2 F720
G1 E3.2 F2400
M204 P800
;TYPE:External perimeter
;WIDTH:0.514022
G1 F1200
G1 X111.429 Y122.946 E.01552
M204 P1000
G1 E-2.24 F4200
;WIPE_START
G1 F7200
G1 X111.431 Y123.342 E-.21957
;WIPE_END
G1 E-.74043 F4200
G1 Z.4 F720
G1 X124.881 Y113.534 F9000
G1 Z.2 F720
G1 E3.2 F2400
M204 P800
;TYPE:Solid infill
;WIDTH:0.421958
G1 F1200
G1 X126.53 Y115.183 E.07352
G1 X125.994 Y115.183 E.01691
G1 X123.883 Y113.072 E.09408
G1 X122.636 Y112.24 E.04725
G1 X122.515 Y112.24 E.00381
G1 X125.457 Y115.182 E.13115
G1 X124.921 Y115.182 E.01691
G1 X121.979 Y112.24 E.13113
G1 X121.443 Y112.24 E.01689
G1 X124.384 Y115.181 E.13111
G1 X123.848 Y115.181 E.01691
G1 X120.907 Y112.24 E.13109
G1 X120.371 Y112.24 E.01689
G1 X123.311 Y115.181 E.13107
G1 X122.775 Y115.18 E.01691
G1 X119.835 Y112.24 E.13105
G1 X119.702 Y112.24 E.00418
G1 X119.46 Y112.401 E.00917
G1 X122.35 Y115.292 E.12882
G1 X122.228 Y115.35 E.00427
G1 X122.054 Y115.531 E.00792
G1 X119.138 Y112.616 E.12996
G1 X118.817 Y112.83 E.01218
G1 X121.906 Y115.92 E.1377
G1 X121.89 Y116.021 E.00324
G1 X121.89 Y116.44 E.0132
G1 X118.495 Y113.045 E.15133
G1 X118.174 Y113.259 E.01218
G1 X121.891 Y116.976 E.16567
G1 X121.891 Y117.512 E.0169
G1 X120.448 Y116.069 E.06432
G1 X120.407 Y115.766 E.00965
G1 X120.311 Y115.565 E.00701
G1 X120.206 Y115.435 E.00526
G1 X120.11 Y115.35 E.00405
G1 X119.805 Y115.204 E.01066
G1 X119.559 Y115.18 E.0078
G1 X117.852 Y113.474 E.07607
G1 X117.53 Y113.688 E.01218
G1 X119.023 Y115.181 E.06653
G1 X118.487 Y115.181 E.01688
G1 X117.209 Y113.902 E.05699
G1 X116.887 Y114.117 E.01218
G1 X117.952 Y115.181 E.04745
G1 X117.416 Y115.182 E.01688
G1 X116.566 Y114.331 E.03791
G1 X116.244 Y114.546 E.01218
G1 X116.881 Y115.182 E.02837
G1 X116.345 Y115.183 E.01688
G1 X115.923 Y114.76 E.01883
G1 X115.601 Y114.975 E.01218
G1 X115.979 Y115.353 E.01685
M204 P1000
G1 E-2.24 F4200
;WIPE_START
G1 F7200
G1 X115.601 Y114.975 E-.29622
G1 X115.923 Y114.76 E-.2142
G1 X116.345 Y115.183 E-.33108
G1 X116.472 Y115.183 E-.07049
;WIPE_END
G1 E-.048 F4200
G1 Z.4 F720
G1 X120.278 Y116.435 F9000
G1 Z.2 F720
G1 E3.2 F2400
M204 P800
G1 F1200
G1 X121.891 Y118.049 E.07191
G1 X121.892 Y118.585 E.0169
G1 X120.447 Y117.141 E.06438
G1 X120.447 Y117.677 E.01688
G1 X121.892 Y119.122 E.06441
G1 X121.892 Y119.658 E.0169
G1 X120.447 Y118.212 E.06444
G1 X120.446 Y118.748 E.01688
G1 X122.062 Y120.364 E.07203
M204 P1000
G1 E-2.24 F4200
;WIPE_START
G1 F7200
G1 X120.899 Y119.2 E-.912
;WIPE_END
G1 E-.048 F4200
G1 Z.4 F720
G1 X130.282 Y125.368 F9000
G1 Z.2 F720
G1 E3.2 F2400
M204 P800
G1 F1200
G1 X130.022 Y125.107 E.01163
G1 X129.661 Y125.175 E.01157
G1 X129.539 Y125.16 E.00388
G1 X130.27 Y125.892 E.0326
M204 P1000
G1 E-2.24 F4200
;WIPE_START
G1 F7200
G1 X129.539 Y125.16 E-.57322
G1 X129.661 Y125.175 E-.06818
G1 X130.022 Y125.107 E-.20351
G1 X130.107 Y125.193 E-.06709
;WIPE_END
G1 E-.048 F4200
G1 Z.4 F720
G1 X128.082 Y122.095 F9000
G1 Z.2 F720
G1 E3.2 F2400
M204 P800
G1 F1200
G1 X127.68 Y121.693 E.01793
G1 X127.144 Y121.693 E.01689
G1 X127.776 Y122.326 E.0282
G1 X127.666 Y122.625 E.01006
G1 X127.647 Y122.732 E.00343
G1 X126.608 Y121.693 E.04632
G1 X126.072 Y121.693 E.01689
G1 X127.794 Y123.415 E.07675
M204 P1000
G1 E-2.24 F4200
;WIPE_START
G1 F7200
G1 X126.63 Y122.251 E-.912
;WIPE_END
G1 E-.048 F4200
G1 Z.4 F720
G1 X125.366 Y121.524 F9000
G1 Z.2 F720
G1 E3.2 F2400
M204 P800
G1 F1200
G1 X130.1 Y126.258 E.21101
G1 X130.1 Y126.794 E.01689
G1 X125 Y121.693 E.22733
G1 X124.464 Y121.694 E.01689
G1 X130.1 Y127.33 E.25121
G1 X130.1 Y127.866 E.01689
G1 X123.928 Y121.694 E.2751
G1 X123.392 Y121.694 E.01689
G1 X130.1 Y128.402 E.29898
G1 X130.1 Y128.937 E.01689
G1 X122.856 Y121.694 E.32286
G1 X122.728 Y121.694 E.00403
G1 X122.382 Y121.617 E.01119
G1 X122.112 Y121.42 E.01053
G1 X121.965 Y121.198 E.0084
G1 X121.893 Y120.923 E.00893
G1 X121.893 Y120.731 E.00608
G1 X120.446 Y119.284 E.06449
G1 X120.446 Y119.819 E.01688
G1 X130.1 Y129.473 E.43029
G1 X130.099 Y130.009 E.01689
G1 X124.731 Y124.64 E.2393
G1 X124.731 Y125.177 E.01691
G1 X130.099 Y130.545 E.23928
G1 X130.099 Y131.081 E.01689
G1 X124.731 Y125.713 E.23925
G1 X124.732 Y126.25 E.01691
G1 X130.099 Y131.617 E.23923
G1 X130.099 Y132.153 E.01689
G1 X124.732 Y126.786 E.23921
G1 X124.733 Y127.323 E.01691
G1 X130.099 Y132.689 E.23918
G1 X130.099 Y133.225 E.01689
G1 X124.733 Y127.859 E.23916
G1 X124.733 Y128.395 E.01691
G1 X130.099 Y133.761 E.23914
G1 X130.098 Y134.297 E.01689
G1 X124.734 Y128.932 E.23911
G1 X124.734 Y129.468 E.01691
G1 X129.82 Y134.554 E.22669
G1 X129.284 Y134.554 E.01689
G1 X124.735 Y130.005 E.20278
G1 X124.735 Y130.541 E.01691
G1 X128.748 Y134.554 E.17887
G1 X128.212 Y134.554 E.01689
G1 X124.735 Y131.078 E.15496
G1 X124.736 Y131.614 E.01691
G1 X127.676 Y134.554 E.13105
G1 X127.14 Y134.554 E.01689
G1 X124.736 Y132.15 E.10714
G1 X124.736 Y132.687 E.01691
M73 P3 R36
G1 X126.604 Y134.554 E.08323
G1 X126.068 Y134.554 E.01689
G1 X124.737 Y133.223 E.05932
G1 X124.737 Y133.76 E.01691
G1 X125.532 Y134.554 E.03541
G1 X124.996 Y134.554 E.01689
G1 X124.568 Y134.126 E.01907
M204 P1000
G1 E-2.24 F4200
;WIPE_START
G1 F7200
G1 X124.996 Y134.554 E-.33525
G1 X125.532 Y134.554 E-.29706
G1 X125.175 Y134.197 E-.2797
;WIPE_END
G1 E-.048 F4200
G1 Z.4 F720
G1 X123.814 Y123.724 F9000
G1 Z.2 F720
G1 E3.2 F2400
M204 P800
G1 F1200
G1 X120.445 Y120.355 E.15015
G1 X120.445 Y120.891 E.01688
G1 X123.108 Y123.554 E.11871
G1 X122.573 Y123.555 E.01688
G1 X120.31 Y121.292 E.10084
G1 X120.226 Y121.42 E.00482
G1 X120.039 Y121.557 E.0073
G1 X122.038 Y123.556 E.0891
G1 X121.503 Y123.557 E.01685
G1 X119.629 Y121.683 E.08355
G1 X119.094 Y121.684 E.01686
G1 X120.969 Y123.559 E.08357
G1 X120.434 Y123.56 E.01685
G1 X118.559 Y121.685 E.08359
G1 X118.023 Y121.686 E.01686
G1 X119.899 Y123.561 E.08361
