; generated by PrusaSlicer 2.5.0+win64 on 2022-12-14 at 20:21:48 UTC


;
;

;
;
; 

; external perimeters extrusion width = 0.45mm
; perimeters extrusion width = 0.45mm
; infill extrusion width = 0.45mm
; solid infill extrusion width = 0.45mm
; top infill extrusion width = 0.40mm
; first layer extrusion width = 0.42mm

; external perimeters extrusion width = 0.45mm
; perimeters extrusion width = 0.45mm
; infill extrusion width = 0.45mm
; solid infill extrusion width = 0.45mm
; top infill extrusion width = 0.40mm
; first layer extrusion width = 0.42mm

; external perimeters extrusion width = 0.45mm
; perimeters extrusion width = 0.45mm
; infill extrusion width = 0.45mm
; solid infill extrusion width = 0.45mm
; top infill extrusion width = 0.40mm
; first layer extrusion width = 0.42mm

; external perimeters extrusion width = 0.45mm
; perimeters extrusion width = 0.45mm
; infill extrusion width = 0.45mm
; solid infill extrusion width = 0.45mm
; top infill extrusion width = 0.40mm
; first layer extrusion width = 0.42mm

; external perimeters extrusion width = 0.45mm
; perimeters extrusion width = 0.45mm
; infill extrusion width = 0.45mm
; solid infill extrusion width = 0.45mm
; top infill extrusion width = 0.40mm
; first layer extrusion width = 0.42mm

; external perimeters extrusion width = 0.45mm
; perimeters extrusion width = 0.45mm
; infill extrusion width = 0.45mm
; solid infill extrusion width = 0.45mm
; top infill extrusion width = 0.40mm
; first layer extrusion width = 0.42mm

; external perimeters extrusion width = 0.45mm
; perimeters extrusion width = 0.45mm
; infill extrusion width = 0.45mm
; solid infill extrusion width = 0.45mm
; top infill extrusion width = 0.40mm
; first layer extrusion width = 0.42mm

; external perimeters extrusion width = 0.45mm
; perimeters extrusion width = 0.45mm
; infill extrusion width = 0.45mm
; solid infill extrusion width = 0.45mm
; top infill extrusion width = 0.40mm
; first layer extrusion width = 0.42mm

; external perimeters extrusion width = 0.45mm
; perimeters extrusion width = 0.45mm
; infill extrusion width = 0.45mm
; solid infill extrusion width = 0.45mm
; top infill extrusion width = 0.40mm
; first layer extrusion width = 0.42mm

M73 P0 R78
M201 X2500 Y2500 Z400 E5000 ; sets maximum accelerations, mm/sec^2
M203 X180 Y180 Z12 E80 ; sets maximum feedrates, mm / sec
M204 P1250 R1250 T2500 ; sets acceleration (P, T) and retract acceleration (R), mm/sec^2
M205 X8.00 Y8.00 Z2.00 E10.00 ; sets the jerk limits, mm/sec
M205 S0 T0 ; sets the minimum extruding and travel feed rate, mm/sec
M107
;TYPE:Custom
M862.3 P "MINI" ; printer model check
G90 ; use absolute coordinates
M83 ; extruder relative mode
M104 S170 ; set extruder temp for bed leveling
M140 S60 ; set bed temp
M109 R170 ; wait for bed leveling temp
M190 S60 ; wait for bed temp
M204 T1250 ; set travel acceleration
G28 ; home all without mesh bed level
G29 ; mesh bed leveling 
M204 T2500 ; restore travel acceleration
M104 S215 ; set extruder temp
G92 E0
G1 Y-2 X179 F2400
G1 Z3 F720
M109 S215 ; wait for extruder temp

; intro line
G1 X170 F1000
G1 Z0.2 F720
G1 X110 E8 F900
G1 X40 E10 F700
G92 E0

M221 S95 ; set flow
G21 ; set units to millimeters
G90 ; use absolute coordinates
M83 ; use relative distances for extrusion
M900 K0.2 ; Filament gcode LA 1.5
; ; Filament gcode LA 1.0
M107
;LAYER_CHANGE
;Z:0.2
;HEIGHT:0.2
;BEFORE_LAYER_CHANGE
G92 E0.0
;0.2


G1 E-3.2 F4200
M73 P0 R77
G1 Z.2 F720
;AFTER_LAYER_CHANGE
;0.2
G1 Z.4
G1 X36.11 Y39.75 F9000
G1 Z.2 F720
G1 E3.2 F2400
M204 P800
;TYPE:Skirt/Brim
;WIDTH:0.42
G1 F1200
G1 X43.719 Y34.672 E.28683
G1 X45.038 Y34.272 E.04322
G1 X134.96 Y34.272 E2.81944
G1 X136.279 Y34.672 E.04322
G1 X143.886 Y39.75 E.28679
G1 X144.798 Y40.909 E.04622
G1 X146.402 Y45.285 E.14613
G1 X146.547 Y46.103 E.02605
G1 X146.547 Y143.351 E3.04914
G1 X146.155 Y144.658 E.04278
G1 X145.11 Y145.534 E.04278
G1 X144.17 Y145.728 E.03008
G1 X35.83 Y145.728 E3.39692
G1 X34.523 Y145.337 E.04278
G1 X33.647 Y144.291 E.04278
G1 X33.453 Y143.351 E.03008
G1 X33.453 Y46.103 E3.04915
G1 X33.597 Y45.287 E.02599
G1 X35.197 Y40.911 E.14609
G1 X36.073 Y39.797 E.04441
M204 P1000
; printing object Tof sensor attachment_v3.STL id:0 copy 0
G1 E-2.24 F4200
;WIPE_START
G1 F7200
G1 X37.44 Y38.881 E-.912
;WIPE_END
G1 E-.048 F4200
G1 Z.4 F720
G1 X56.555 Y132.081 F9000
G1 Z.2 F720
G1 E3.2 F2400
M204 P800
;TYPE:Perimeter
;WIDTH:0.352882
G1 F1200
G1 X57.076 Y132.093 E.01346
G1 X57.076 Y132.941 E.02186
G1 X56.921 Y132.529 E.01133
G1 X56.81 Y132.352 E.00538
G1 X56.596 Y132.125 E.00806
M204 P1000
G1 E-2.24 F4200
;WIPE_START
G1 F7200
G1 X57.076 Y132.093 E-.26703
G1 X57.076 Y132.941 E-.46992
G1 X56.965 Y132.645 E-.17505
;WIPE_END
G1 E-.048 F4200
G1 Z.4 F720
G1 X54.028 Y132.112 F9000
G1 Z.2 F720
G1 E3.2 F2400
M204 P800
;WIDTH:0.419999
G1 F1200
G1 X53.722 Y132.479 E.01497
G1 X53.548 Y132.929 E.01514
G1 X53.51 Y133.13 E.0064
G1 X53.509 Y133.569 E.01377
G1 X53.566 Y133.825 E.00823
;WIDTH:0.454028
G1 X53.667 Y134.1 E.01
;WIDTH:0.488057
G1 X53.769 Y134.374 E.01083
;WIDTH:0.490216
G1 X53.934 Y134.572 E.00957
G1 X54.081 Y134.694 E.00713
;WIDTH:0.455108
G1 X54.229 Y134.816 E.00657
;WIDTH:0.419999
G1 X54.795 Y135.103 E.0199
G1 X55.33 Y135.189 E.01697
G1 X55.863 Y135.103 E.01694
G1 X56.429 Y134.816 E.01989
G1 X56.863 Y134.352 E.01992
G1 X57.043 Y133.957 E.0136
G1 X57.043 Y142.564 E.26986
G1 X53.615 Y142.564 E.10748
G1 X53.615 Y135.612 E.21796
;WIDTH:0.45764
G1 X53.607 Y134.954 E.02272
;WIDTH:0.484017
G1 X53.507 Y134.745 E.00849
G1 X53.263 Y134.597 E.01044
;WIDTH:0.435673
G1 X53.049 Y134.564 E.00706
;WIDTH:0.419999
G1 X41.145 Y134.564 E.37326
;WIDTH:0.435579
G1 X40.394 Y134.597 E.02455
;WIDTH:0.461483
G1 X40.3 Y134.64 E.00357
;WIDTH:0.487387
G1 X40.207 Y134.683 E.00379
;WIDTH:0.489447
G1 X40.087 Y134.828 E.007
G1 X40.064 Y134.979 E.00566
;WIDTH:0.454723
G1 X40.041 Y135.13 E.00522
;WIDTH:0.419999
G1 X40.041 Y142.564 E.2331
G1 X36.617 Y142.564 E.10735
G1 X36.617 Y133.966 E.26959
G1 X36.696 Y134.182 E.00723
G1 X37.079 Y134.69 E.01992
G1 X37.612 Y135.036 E.01994
G1 X38.231 Y135.18 E.01993
G1 X38.43 Y135.18 E.00622
G1 X39.046 Y135.036 E.01985
;WIDTH:0.45743
G1 X39.594 Y134.702 E.02211
;WIDTH:0.487387
G1 X39.889 Y134.374 E.01631
G1 X40.002 Y134.07 E.01197
;WIDTH:0.453693
G1 X40.114 Y133.766 E.01107
;WIDTH:0.419999
G1 X40.148 Y133.354 E.01298
G1 X40.11 Y132.928 E.01341
G1 X39.946 Y132.502 E.0143
G1 X39.63 Y132.112 E.01574
G1 X40.191 Y132.137 E.01761
G1 X45.259 Y132.138 E.1589
G1 X45.497 Y132.086 E.00764
G1 X45.677 Y131.954 E.00699
G1 X45.774 Y131.807 E.0055
G1 X45.825 Y131.573 E.00753
G1 X45.825 Y126.754 E.15109
G1 X45.797 Y126.578 E.00558
G1 X45.663 Y126.358 E.00808
G1 X45.394 Y126.204 E.00973
G1 X45.259 Y126.188 E.00425
G1 X40.318 Y126.192 E.15493
G1 X39.94 Y126.222 E.01189
G1 X40.267 Y126.024 E.01199
G1 X45.276 Y122.684 E.18877
G1 X48.382 Y122.684 E.09736
G1 X53.327 Y125.982 E.18638
G1 X53.728 Y126.208 E.01444
G1 X53.375 Y126.192 E.0111
G1 X48.399 Y126.188 E.15601
G1 X48.264 Y126.204 E.00425
G1 X48.055 Y126.304 E.00728
G1 X47.925 Y126.444 E.00598
G1 X47.833 Y126.754 E.01012
G1 X47.833 Y131.573 E.15109
G1 X47.884 Y131.807 E.00753
G1 X47.981 Y131.954 E.0055
G1 X48.161 Y132.086 E.00699
G1 X48.399 Y132.138 E.00764
G1 X53.493 Y132.136 E.15972
G1 X53.968 Y132.115 E.01492
M204 P1000
G1 E-2.24 F4200
;WIPE_START
G1 F7200
G1 X53.722 Y132.479 E-.24336
G1 X53.548 Y132.929 E-.26762
G1 X53.51 Y133.13 E-.11316
G1 X53.509 Y133.569 E-.24342
G1 X53.527 Y133.647 E-.04444
;WIPE_END
G1 E-.048 F4200
G1 Z.4 F720
G1 X55.703 Y132.054 F9000
G1 Z.2 F720
G1 E3.2 F2400
M204 P800
;TYPE:External perimeter
;WIDTH:0.428634
G1 F1200
G1 X55.801 Y132.063 E.00315
G1 X56.261 Y132.271 E.0162
;WIDTH:0.419999
G1 X56.6 Y132.651 E.01595
;WIDTH:0.465828
G1 X56.679 Y132.81 E.00626
;WIDTH:0.511657
G1 X56.758 Y132.97 E.00694
;WIDTH:0.557486
G1 X56.837 Y133.13 E.00762
;WIDTH:0.560778
G1 X56.836 Y133.617 E.02097
G1 X56.749 Y133.781 E.008
;WIDTH:0.513852
G1 X56.662 Y133.945 E.00728
;WIDTH:0.466926
G1 X56.575 Y134.109 E.00655
;WIDTH:0.419999
G1 X56.241 Y134.489 E.01585
G1 X55.797 Y134.732 E.01586
G1 X55.297 Y134.809 E.01586
G1 X54.8 Y134.709 E.01589
G1 X54.367 Y134.447 E.01587
G1 X54.05 Y134.053 E.01586
G1 X53.886 Y133.57 E.01598
G1 X53.9 Y133.064 E.01588
G1 X54.098 Y132.588 E.01616
;WIDTH:0.424458
G1 X54.445 Y132.232 E.01578
;WIDTH:0.439211
G1 X54.694 Y132.103 E.00925
G1 X55.289 Y132.02 E.01978
;WIDTH:0.428634
G1 X55.643 Y132.049 E.01142
M204 P1000
G1 E-2.24 F4200
;WIPE_START
G1 F7200
G1 X55.801 Y132.063 E-.08759
G1 X56.261 Y132.271 E-.27999
G1 X56.6 Y132.651 E-.28189
G1 X56.679 Y132.81 E-.09871
G1 X56.758 Y132.97 E-.09871
G1 X56.81 Y133.075 E-.0651
;WIPE_END
G1 E-.048 F4200
G1 Z.4 F720
G1 X37.104 Y132.081 F9000
G1 Z.2 F720
G1 E3.2 F2400
M204 P800
;TYPE:Perimeter
;WIDTH:0.352287
G1 F1200
G1 X36.85 Y132.35 E.00951
G1 X36.738 Y132.527 E.0054
G1 X36.583 Y132.932 E.01114
G1 X36.583 Y132.092 E.02159
G1 X37.044 Y132.082 E.01186
M204 P1000
G1 X38.28 Y132.018 F9000
M204 P800
;TYPE:External perimeter
;WIDTH:0.439838
G1 F1200
G1 X38.287 Y132.017 E.00022
;WIDTH:0.426829
G1 X38.801 Y132.063 E.01646
G1 X39.261 Y132.271 E.01613
;WIDTH:0.419999
G1 X39.598 Y132.646 E.01579
G1 X39.77 Y133.13 E.01612
G1 X39.76 Y133.637 E.01589
G1 X39.575 Y134.109 E.01592
M73 P1 R77
G1 X39.241 Y134.489 E.01585
G1 X38.797 Y134.732 E.01586
G1 X38.297 Y134.809 E.01586
G1 X37.8 Y134.709 E.01589
G1 X37.367 Y134.447 E.01587
G1 X37.05 Y134.053 E.01586
;WIDTH:0.464876
G1 X36.973 Y133.892 E.00625
;WIDTH:0.509753
G1 X36.896 Y133.731 E.00692
;WIDTH:0.554629
G1 X36.819 Y133.571 E.00758
;WIDTH:0.555227
G1 X36.82 Y133.131 E.01874
G1 X36.899 Y132.97 E.00762
;WIDTH:0.510151
G1 X36.979 Y132.81 E.00695
;WIDTH:0.465075
G1 X37.059 Y132.65 E.00628
;WIDTH:0.419999
G1 X37.397 Y132.271 E.01593
;WIDTH:0.439838
G1 X37.694 Y132.103 E.01127
G1 X38.221 Y132.027 E.01757
M204 P1000
G1 X38.283 Y132.012 F9000
G1 E-2.24 F4200
;WIPE_START
G1 F7200
G1 X38.287 Y132.017 E-.03697
G1 X38.801 Y132.063 E-.28574
G1 X39.261 Y132.271 E-.27997
G1 X39.598 Y132.646 E-.27904
G1 X39.616 Y132.697 E-.03027
;WIPE_END
G1 E-.048 F4200
G1 Z.4 F720
G1 X48.21 Y126.754 F9000
G1 Z.2 F720
G1 E3.2 F2400
M204 P800
;WIDTH:0.419999
G1 F1200
G1 X48.21 Y131.573 E.15109
G1 X48.259 Y131.7 E.00427
G1 X48.399 Y131.761 E.00477
G1 X53.714 Y131.749 E.16665
;WIDTH:0.439211
G1 X54.647 Y131.71 E.03078
G1 X55.274 Y131.648 E.02075
;WIDTH:0.420865
G1 X56.37 Y131.734 E.03457
;WIDTH:0.419999
G1 X57.42 Y131.756 E.03292
G1 X57.42 Y132.244 E.01529
G1 X57.42 Y132.501 E.00805
;WIDTH:0.465828
G1 X57.397 Y132.71 E.00741
;WIDTH:0.511657
G1 X57.374 Y132.92 E.00821
;WIDTH:0.557486
G1 X57.351 Y133.129 E.00901
;WIDTH:0.560778
G1 X57.35 Y133.661 E.02293
G1 X57.373 Y133.839 E.00771
;WIDTH:0.513852
G1 X57.397 Y134.016 E.00701
;WIDTH:0.466926
G1 X57.42 Y134.194 E.00631
;WIDTH:0.419999
G1 X57.42 Y142.941 E.27426
G1 X53.238 Y142.941 E.13112
G1 X53.238 Y135.171 E.24363
G1 X53.194 Y135.008 E.00528
G1 X53.049 Y134.941 E.00499
G1 X40.672 Y134.941 E.3881
G1 X40.481 Y134.989 E.00617
G1 X40.418 Y135.13 E.00483
G1 X40.418 Y142.941 E.24492
G1 X36.24 Y142.941 E.131
G1 X36.24 Y134.196 E.27419
;WIDTH:0.466168
G1 X36.263 Y134.017 E.00635
;WIDTH:0.512337
G1 X36.286 Y133.839 E.00704
;WIDTH:0.558506
G1 X36.309 Y133.66 E.00773
G1 X36.308 Y133.13 E.02271
;WIDTH:0.555227
G1 X36.285 Y132.92 E.00902
;WIDTH:0.510151
G1 X36.263 Y132.709 E.00823
;WIDTH:0.465075
G1 X36.24 Y132.499 E.00743
;WIDTH:0.419999
G1 X36.24 Y131.756 E.02327
G1 X36.727 Y131.746 E.01527
;WIDTH:0.439838
G1 X37.643 Y131.71 E.03027
G1 X38.367 Y131.647 E.02399
;WIDTH:0.426829
G1 X39.509 Y131.73 E.03654
;WIDTH:0.419999
G1 X40.191 Y131.76 E.02142
G1 X45.259 Y131.761 E.1589
G1 X45.399 Y131.7 E.00477
G1 X45.448 Y131.573 E.00427
G1 X45.448 Y126.754 E.15109
G1 X45.394 Y126.622 E.00447
G1 X45.259 Y126.565 E.00458
G1 X40.265 Y126.57 E.1566
G1 X39.31 Y126.66 E.03006
G1 X38.833 Y126.765 E.01531
G1 X38.124 Y126.765 E.02225
G1 X38.733 Y126.361 E.02293
G1 X39.615 Y125.976 E.03017
G1 X40.058 Y125.71 E.0162
G1 X45.162 Y122.307 E.19235
G1 X48.496 Y122.307 E.10452
G1 X53.536 Y125.669 E.18996
G1 X54.417 Y126.161 E.03163
G1 X54.89 Y126.351 E.01598
G1 X55.529 Y126.765 E.02387
G1 X54.819 Y126.765 E.02224
G1 X53.885 Y126.595 E.02978
G1 X53.374 Y126.569 E.01603
G1 X48.399 Y126.565 E.15601
G1 X48.284 Y126.604 E.0038
G1 X48.237 Y126.7 E.00336
M204 P1000
G1 X47.824 Y126.857 F9000
G1 E-2.24 F4200
;WIPE_START
G1 F7200
G1 X48.228 Y128.346 E-.912
;WIPE_END
G1 E-.048 F4200
G1 Z.4 F720
G1 X56.396 Y134.965 F9000
G1 Z.2 F720
G1 E3.2 F2400
M204 P800
;TYPE:Solid infill
;WIDTH:0.423637
G1 F1200
G1 X56.76 Y135.329 E.01628
G1 X56.76 Y135.867 E.01704
G1 X56.179 Y135.286 E.02602
G1 X55.92 Y135.38 E.00872
G1 X55.76 Y135.405 E.00513
G1 X56.76 Y136.405 E.04477
G1 X56.76 Y136.944 E.01704
G1 X55.282 Y135.465 E.06619
G1 X54.739 Y135.38 E.0174
G1 X54.612 Y135.334 E.00427
G1 X56.76 Y137.482 E.09617
G1 X56.76 Y138.021 E.01704
G1 X53.899 Y135.159 E.12811
G1 X53.899 Y135.698 E.01704
G1 X56.76 Y138.559 E.12811
G1 X56.76 Y139.097 E.01704
G1 X53.899 Y136.236 E.12811
G1 X53.899 Y136.774 E.01704
G1 X56.76 Y139.636 E.12811
G1 X56.76 Y140.174 E.01704
G1 X53.898 Y137.313 E.12812
G1 X53.898 Y137.851 E.01704
G1 X56.76 Y140.713 E.12812
G1 X56.76 Y141.251 E.01704
G1 X53.898 Y138.389 E.12812
G1 X53.898 Y138.928 E.01704
G1 X56.76 Y141.79 E.12812
G1 X56.76 Y142.281 E.01556
G1 X56.713 Y142.281 E.00148
G1 X53.898 Y139.466 E.12603
G1 X53.898 Y140.004 E.01704
G1 X56.175 Y142.281 E.10193
G1 X55.637 Y142.281 E.01704
G1 X53.898 Y140.543 E.07783
G1 X53.898 Y141.081 E.01704
G1 X55.098 Y142.281 E.05373
G1 X54.56 Y142.281 E.01704
G1 X53.898 Y141.619 E.02963
G1 X53.898 Y142.158 E.01704
G1 X54.191 Y142.451 E.01312
M204 P1000
G1 E-2.24 F4200
;WIPE_START
G1 F7200
G1 X53.898 Y142.158 E-.2297
G1 X53.898 Y141.619 E-.29834
G1 X54.388 Y142.109 E-.38396
;WIPE_END
G1 E-.048 F4200
G1 Z.4 F720
G1 X53.536 Y132.643 F9000
G1 Z.2 F720
G1 E3.2 F2400
M204 P800
G1 F1200
G1 X53.308 Y132.414 E.01024
G1 X52.77 Y132.415 E.01702
G1 X53.267 Y132.912 E.02224
G1 X53.228 Y133.121 E.00672
G1 X53.227 Y133.411 E.00918
G1 X52.232 Y132.416 E.04453
G1 X51.694 Y132.417 E.01702
G1 X53.348 Y134.07 E.07404
G1 X53.445 Y134.356 E.00955
G1 X53.36 Y134.323 E.00286
G1 X53.021 Y134.281 E.01083
G1 X51.157 Y132.417 E.08345
G1 X50.619 Y132.418 E.01702
G1 X52.482 Y134.281 E.08341
G1 X51.944 Y134.281 E.01704
G1 X50.081 Y132.419 E.08338
G1 X49.544 Y132.419 E.01702
G1 X51.405 Y134.281 E.08335
G1 X50.867 Y134.281 E.01704
G1 X48.837 Y132.251 E.0909
M204 P1000
G1 E-2.24 F4200
;WIPE_START
G1 F7200
G1 X50 Y133.414 E-.912
;WIPE_END
G1 E-.048 F4200
G1 Z.4 F720
G1 X50.531 Y124.253 F9000
G1 Z.2 F720
G1 E3.2 F2400
M204 P800
G1 F1200
G1 X52.186 Y125.908 E.07409
G1 X51.647 Y125.908 E.01706
G1 X49.527 Y123.788 E.09492
G1 X48.296 Y122.967 E.04683
G1 X48.167 Y122.967 E.00407
G1 X51.108 Y125.907 E.13164
G1 X50.569 Y125.907 E.01706
G1 X47.629 Y122.967 E.13162
G1 X47.091 Y122.967 E.01704
G1 X50.03 Y125.907 E.1316
G1 X49.491 Y125.906 E.01706
G1 X46.552 Y122.967 E.13158
G1 X46.014 Y122.967 E.01704
G1 X48.952 Y125.906 E.13156
G1 X48.414 Y125.905 E.01706
G1 X45.475 Y122.967 E.13154
G1 X45.362 Y122.967 E.00359
G1 X45.107 Y123.137 E.0097
G1 X47.994 Y126.024 E.12926
G1 X47.888 Y126.075 E.00374
G1 X47.703 Y126.271 E.00853
G1 X44.784 Y123.352 E.13067
G1 X44.461 Y123.568 E.01229
G1 X47.562 Y126.669 E.13885
G1 X47.55 Y127.196 E.01667
G1 X44.138 Y123.783 E.15278
G1 X43.815 Y123.998 E.01229
G1 X47.551 Y127.734 E.16726
G1 X47.551 Y128.273 E.01705
G1 X46.108 Y126.83 E.06461
G1 X46.067 Y126.491 E.01081
G1 X45.971 Y126.29 E.00704
G1 X45.866 Y126.16 E.00528
G1 X45.77 Y126.075 E.00406
G1 X45.465 Y125.929 E.01071
G1 X45.183 Y125.905 E.00895
G1 X43.492 Y124.214 E.07573
G1 X43.169 Y124.429 E.01229
G1 X44.645 Y125.906 E.06611
G1 X44.107 Y125.906 E.01703
G1 X42.846 Y124.644 E.05649
G1 X42.522 Y124.86 E.01229
G1 X43.569 Y125.907 E.04686
G1 X43.031 Y125.907 E.01703
G1 X42.199 Y125.075 E.03724
G1 X41.876 Y125.29 E.01229
G1 X42.493 Y125.907 E.02762
G1 X41.955 Y125.908 E.01703
G1 X41.553 Y125.506 E.018
G1 X41.23 Y125.721 E.01229
