; generated by PrusaSlicer 2.5.2+win64 on 2023-05-11 at 19:14:38 UTC


;
;

;
;
; 

; external perimeters extrusion width = 0.45mm
; perimeters extrusion width = 0.45mm
; infill extrusion width = 0.45mm
; solid infill extrusion width = 0.45mm
; top infill extrusion width = 0.40mm
; first layer extrusion width = 0.42mm

M73 P0 R86
M201 X2500 Y2500 Z400 E5000 ; sets maximum accelerations, mm/sec^2
M203 X180 Y180 Z12 E80 ; sets maximum feedrates, mm / sec
M204 P1250 R1250 T2500 ; sets acceleration (P, T) and retract acceleration (R), mm/sec^2
M205 X8.00 Y8.00 Z2.00 E10.00 ; sets the jerk limits, mm/sec
M205 S0 T0 ; sets the minimum extruding and travel feed rate, mm/sec
M107
;TYPE:Custom
M862.3 P "MINI" ; printer model check
G90 ; use absolute coordinates
M83 ; extruder relative mode
M104 S170 ; set extruder temp for bed leveling
M140 S60 ; set bed temp
M109 R170 ; wait for bed leveling temp
M190 S60 ; wait for bed temp
M204 T1250 ; set travel acceleration
G28 ; home all without mesh bed level
G29 ; mesh bed leveling 
M204 T2500 ; restore travel acceleration
M104 S215 ; set extruder temp
G92 E0
G1 Y-2 X179 F2400
G1 Z3 F720
M109 S215 ; wait for extruder temp

; intro line
G1 X170 F1000
G1 Z0.2 F720
G1 X110 E8 F900
G1 X40 E10 F700
G92 E0

M221 S95 ; set flow
G21 ; set units to millimeters
G90 ; use absolute coordinates
M83 ; use relative distances for extrusion
M900 K0.2 ; Filament gcode LA 1.5
; ; Filament gcode LA 1.0
M107
;LAYER_CHANGE
;Z:0.2
;HEIGHT:0.2
;BEFORE_LAYER_CHANGE
G92 E0.0
;0.2


G1 E-3.2 F4200
G1 Z.2 F720
;AFTER_LAYER_CHANGE
;0.2
G1 Z.4
G1 X57.165 Y50.843 F9000
G1 Z.2 F720
G1 E3.2 F2400
M204 P800
;TYPE:Skirt/Brim
;WIDTH:0.42
G1 F1200
G1 X58.735 Y49.81 E.05893
G1 X88.735 Y44.483 E.95536
G1 X89.798 Y44.382 E.03346
G1 X91.05 Y44.454 E.03931
G1 X121.265 Y49.81 E.96215
G1 X122.484 Y50.424 E.04278
G1 X123.227 Y52.151 E.05893
G1 X123.227 Y127.849 E2.37349
G1 X122.835 Y129.157 E.04278
G1 X121.265 Y130.19 E.05893
G1 X91.265 Y135.517 E.95536
G1 X90.2 Y135.618 E.03354
G1 X88.735 Y135.517 E.04602
G1 X58.735 Y130.19 E.95536
G1 X57.516 Y129.576 E.04278
G1 X56.773 Y127.849 E.05893
G1 X56.773 Y52.151 E2.37349
G1 X57.148 Y50.901 E.0409
M204 P1000
; printing object Uno_Top.STL id:0 copy 0
G1 E-2.24 F4200
;WIPE_START
G1 F7200
G1 X58.504 Y49.969 E-.912
;WIPE_END
G1 E-.048 F4200
G1 Z.4 F720
G1 X94.109 Y127.106 F9000
G1 Z.2 F720
G1 E3.2 F2400
M204 P800
;TYPE:Perimeter
;WIDTH:0.419999
G1 F1200
G1 X94.096 Y127.177 E.00226
G1 X94.176 Y127.706 E.01677
G1 X94.208 Y128.369 E.0208
G1 X94.121 Y129.11 E.02341
G1 X93.914 Y129.799 E.02254
G1 X93.596 Y130.441 E.02246
G1 X93.197 Y130.985 E.02117
G1 X92.818 Y131.362 E.01677
G1 X92.425 Y131.675 E.01574
G1 X91.964 Y131.967 E.01711
G1 X92.128 Y131.581 E.01317
G1 X92.23 Y131.239 E.01117
G1 X92.285 Y130.799 E.01392
G1 X92.26 Y130.403 E.01243
G1 X92.164 Y130.014 E.01258
G1 X92.005 Y129.651 E.01242
G1 X91.782 Y129.317 E.01257
G1 X91.508 Y129.031 E.01244
G1 X91.187 Y128.795 E.01249
G1 X90.826 Y128.619 E.01258
G1 X90.299 Y128.488 E.01702
G1 X89.7 Y128.488 E.01877
G1 X89.264 Y128.586 E.01403
G1 X88.901 Y128.745 E.01242
G1 X88.613 Y128.935 E.01081
G1 X88.281 Y129.242 E.01418
G1 X88.05 Y129.556 E.01222
G1 X87.903 Y129.849 E.01026
G1 X87.774 Y130.244 E.01305
G1 X87.715 Y130.704 E.01452
G1 X87.741 Y131.097 E.01237
G1 X87.837 Y131.488 E.0126
G1 X88.091 Y131.993 E.01773
G1 X87.941 Y131.922 E.0052
G1 X87.343 Y131.518 E.02263
G1 X86.828 Y131.02 E.02245
G1 X86.404 Y130.441 E.02252
G1 X86.086 Y129.799 E.02246
G1 X85.879 Y129.11 E.02254
G1 X85.792 Y128.37 E.02336
G1 X85.831 Y127.647 E.0227
G1 X85.901 Y127.076 E.01804
G1 X85.815 Y126.839 E.0079
G1 X85.608 Y126.647 E.00885
G1 X85.339 Y126.58 E.00867
G1 X60.425 Y126.576 E.78118
G1 X60.425 Y53.425 E2.2936
G1 X85.439 Y53.411 E.78432
G1 X85.701 Y53.289 E.00904
G1 X85.858 Y53.079 E.00825
G1 X85.904 Y52.823 E.00815
G1 X85.824 Y52.294 E.01677
G1 X85.792 Y51.631 E.0208
G1 X85.879 Y50.89 E.02341
G1 X86.086 Y50.201 E.02254
G1 X86.404 Y49.56 E.02245
G1 X86.803 Y49.017 E.02113
G1 X87.183 Y48.639 E.01682
G1 X87.575 Y48.326 E.01572
G1 X88.037 Y48.033 E.01716
G1 X87.871 Y48.421 E.01326
G1 X87.769 Y48.761 E.01112
G1 X87.715 Y49.204 E.01398
G1 X87.74 Y49.597 E.01236
G1 X87.836 Y49.987 E.01257
G1 X87.996 Y50.349 E.01241
G1 X88.216 Y50.68 E.01248
G1 X88.492 Y50.969 E.01254
G1 X88.813 Y51.204 E.01247
G1 X89.17 Y51.382 E.01251
G1 X89.558 Y51.493 E.01265
G1 X89.951 Y51.535 E.0124
G1 X90.346 Y51.51 E.0124
G1 X90.732 Y51.417 E.01245
G1 X91.103 Y51.253 E.01273
G1 X91.387 Y51.064 E.0107
G1 X91.72 Y50.758 E.01417
G1 X91.946 Y50.448 E.01203
G1 X92.098 Y50.148 E.01053
G1 X92.226 Y49.757 E.01292
G1 X92.285 Y49.299 E.01448
G1 X92.26 Y48.903 E.01243
G1 X92.163 Y48.513 E.01261
G1 X91.912 Y48.009 E.01765
G1 X92.059 Y48.078 E.00509
G1 X92.656 Y48.484 E.02264
G1 X93.172 Y48.983 E.02249
G1 X93.596 Y49.56 E.02247
G1 X93.914 Y50.201 E.02245
G1 X94.121 Y50.89 E.02254
G1 X94.208 Y51.63 E.02336
G1 X94.169 Y52.354 E.02274
G1 X94.099 Y52.92 E.01787
G1 X94.19 Y53.168 E.00829
G1 X94.394 Y53.354 E.00865
G1 X94.661 Y53.42 E.00861
G1 X119.575 Y53.425 E.78118
G1 X119.575 Y126.576 E2.2936
G1 X94.661 Y126.58 E.78118
M73 P0 R85
G1 X94.554 Y126.59 E.00335
G1 X94.296 Y126.713 E.00898
G1 X94.14 Y126.926 E.00826
G1 X94.119 Y127.047 E.00386
M204 P1000
G1 X94.473 Y127.156 F9000
M204 P800
;TYPE:External perimeter
G1 F1200
G1 X94.551 Y127.668 E.01623
G1 X94.587 Y128.381 E.0224
G1 X94.492 Y129.187 E.02544
G1 X94.266 Y129.938 E.02458
G1 X93.919 Y130.637 E.02448
G1 X93.457 Y131.269 E.02454
G1 X92.896 Y131.812 E.02449
G1 X92.285 Y132.225 E.02314
G1 X91.854 Y132.436 E.01503
;WIDTH:0.422502
G1 X91.378 Y132.638 E.01632
;WIDTH:0.436029
G1 X90.748 Y132.834 E.02157
G1 X90.023 Y132.928 E.02387
;WIDTH:0.43133
G1 X89.602 Y132.889 E.01366
;WIDTH:0.428481
G1 X88.982 Y132.753 E.02036
G1 X88.476 Y132.591 E.01703
;WIDTH:0.419999
G1 X87.754 Y132.251 E.02503
G1 X87.104 Y131.812 E.02459
G1 X86.543 Y131.269 E.02448
G1 X86.081 Y130.637 E.02454
G1 X85.734 Y129.938 E.02448
G1 X85.508 Y129.187 E.02458
G1 X85.413 Y128.382 E.02542
G1 X85.45 Y127.711 E.02108
G1 X85.525 Y127.175 E.01696
G1 X85.484 Y127.024 E.00492
G1 X85.339 Y126.957 E.00499
G1 X60.048 Y126.953 E.793
G1 X60.048 Y53.048 E2.31724
G1 X85.339 Y53.043 E.793
M73 P1 R85
G1 X85.47 Y52.99 E.00443
G1 X85.527 Y52.844 E.00492
G1 X85.449 Y52.332 E.01623
G1 X85.413 Y51.619 E.0224
G1 X85.508 Y50.813 E.02544
G1 X85.734 Y50.062 E.02458
G1 X86.08 Y49.363 E.02447
G1 X86.543 Y48.734 E.02449
G1 X87.105 Y48.19 E.02451
G1 X87.714 Y47.776 E.02311
G1 X88.149 Y47.564 E.01517
;WIDTH:0.42249
G1 X88.623 Y47.364 E.01624
G1 X89.365 Y47.144 E.02443
;WIDTH:0.419816
G1 X89.898 Y47.075 E.01684
;WIDTH:0.417137
G1 X90.397 Y47.111 E.01556
;WIDTH:0.428043
G1 X91.018 Y47.248 E.02039
G1 X91.524 Y47.411 E.017
;WIDTH:0.419999
G1 X92.246 Y47.749 E.02501
G1 X92.895 Y48.19 E.02461
G1 X93.457 Y48.734 E.02451
G1 X93.92 Y49.363 E.02449
G1 X94.266 Y50.062 E.02447
G1 X94.492 Y50.813 E.02458
G1 X94.587 Y51.618 E.02542
G1 X94.55 Y52.29 E.02111
G1 X94.475 Y52.825 E.01692
G1 X94.519 Y52.979 E.00503
G1 X94.661 Y53.043 E.00488
G1 X119.952 Y53.048 E.793
G1 X119.952 Y78.339 E.793
G1 X119.952 Y126.953 E1.52424
G1 X94.661 Y126.957 E.793
G1 X94.529 Y127.011 E.00448
G1 X94.494 Y127.1 E.00299
M204 P1000
G1 X94.1 Y127.302 F9000
G1 E-2.24 F4200
;WIPE_START
G1 F7200
G1 X94.551 Y127.668 E-.31613
G1 X94.587 Y128.381 E-.39598
G1 X94.545 Y128.74 E-.19988
;WIPE_END
G1 E-.048 F4200
G1 Z.4 F720
G1 X91.347 Y50.591 F9000
G1 Z.2 F720
G1 E3.2 F2400
M204 P800
G1 F1200
G1 X91.171 Y50.755 E.00755
G1 X90.669 Y51.041 E.0181
G1 X90.314 Y51.134 E.0115
G1 X89.983 Y51.159 E.01042
G1 X89.654 Y51.128 E.01038
G1 X89.331 Y51.041 E.01049
G1 X88.84 Y50.763 E.01769
G1 X88.526 Y50.465 E.01357
G1 X88.244 Y49.989 E.01734
G1 X88.116 Y49.565 E.01387
G1 X88.091 Y49.235 E.01038
G1 X88.133 Y48.86 E.01183
G1 X88.212 Y48.581 E.00909
G1 X88.359 Y48.277 E.01058
G1 X88.56 Y48.009 E.01053
;WIDTH:0.42249
G1 X88.811 Y47.782 E.01069
;WIDTH:0.428245
G1 X89.102 Y47.614 E.01074
G1 X89.414 Y47.518 E.01048
;WIDTH:0.419816
G1 X89.947 Y47.446 E.01684
;WIDTH:0.417137
G1 X90.327 Y47.474 E.01187
;WIDTH:0.428465
G1 X90.885 Y47.61 E.01842
G1 X91.255 Y47.838 E.01392
;WIDTH:0.419999
G1 X91.464 Y48.036 E.00901
G1 X91.66 Y48.309 E.01055
G1 X91.799 Y48.612 E.01045
G1 X91.884 Y48.935 E.01047
G1 X91.909 Y49.267 E.01045
G1 X91.862 Y49.658 E.01236
G1 X91.663 Y50.189 E.01778
G1 X91.453 Y50.491 E.01151
G1 X91.39 Y50.55 E.00269
M204 P1000
G1 X91.413 Y50.822 F9000
G1 E-2.24 F4200
;WIPE_START
G1 F7200
G1 X91.171 Y50.755 E-.16665
G1 X90.669 Y51.041 E-.31995
G1 X90.314 Y51.134 E-.20327
G1 X89.983 Y51.159 E-.18414
G1 X89.915 Y51.153 E-.03799
;WIPE_END
G1 E-.048 F4200
G1 Z.4 F720
G1 X91.217 Y132.193 F9000
G1 Z.2 F720
G1 E3.2 F2400
M204 P800
;WIDTH:0.422502
G1 F1200
G1 X91.189 Y132.218 E.00118
;WIDTH:0.428903
G1 X90.886 Y132.39 E.01121
G1 X90.328 Y132.526 E.01842
;WIDTH:0.413576
G1 X89.718 Y132.532 E.01878
;WIDTH:0.428887
G1 X89.114 Y132.39 E.01991
;WIDTH:0.432715
G1 X89.065 Y132.372 E.00172
G1 X88.747 Y132.163 E.01232
;WIDTH:0.419999
G1 X88.536 Y131.962 E.00915
G1 X88.34 Y131.69 E.0105
G1 X88.201 Y131.389 E.01041
G1 X88.116 Y131.065 E.01047
G1 X88.091 Y130.735 E.01038
G1 X88.138 Y130.343 E.0124
G1 X88.337 Y129.809 E.01786
G1 X88.547 Y129.509 E.01149
G1 X88.83 Y129.244 E.01213
G1 X89.059 Y129.087 E.00871
G1 X89.362 Y128.95 E.01043
G1 X89.7 Y128.865 E.01094
G1 X90.299 Y128.865 E.01877
G1 X90.668 Y128.961 E.01194
G1 X91.16 Y129.237 E.0177
G1 X91.474 Y129.534 E.01353
G1 X91.754 Y130.007 E.01725
G1 X91.884 Y130.435 E.01401
G1 X91.909 Y130.767 E.01045
G1 X91.867 Y131.14 E.01178
G1 X91.788 Y131.42 E.0091
G1 X91.641 Y131.721 E.0105
G1 X91.441 Y131.988 E.01047
;WIDTH:0.422502
G1 X91.261 Y132.152 E.00769
M204 P1000
G1 E-2.24 F4200
;WIPE_START
G1 F7200
G1 X91.189 Y132.218 E-.05394
G1 X90.886 Y132.39 E-.19349
G1 X90.328 Y132.526 E-.31811
G1 X89.718 Y132.532 E-.33774
G1 X89.703 Y132.528 E-.00873
;WIPE_END
G1 E-.048 F4200
G1 Z.4 F720
G1 X93.939 Y50.677 F9000
G1 Z.2 F720
G1 E3.2 F2400
M204 P800
;TYPE:Solid infill
;WIDTH:0.420591
G1 F1200
G1 X92.568 Y49.305 E.0609
G1 X92.541 Y49.628 E.01017
G1 X92.505 Y49.777 E.0048
G1 X93.866 Y51.137 E.06043
G1 X93.925 Y51.639 E.01586
G1 X93.92 Y51.725 E.00273
G1 X92.382 Y50.188 E.06827
G1 X92.258 Y50.474 E.00979
G1 X92.208 Y50.548 E.0028
G1 X94.049 Y52.388 E.08175
M204 P1000
G1 E-2.24 F4200
;WIPE_START
G1 F7200
G1 X92.885 Y51.225 E-.912
;WIPE_END
G1 E-.048 F4200
G1 Z.4 F720
G1 X87.606 Y49.15 F9000
G1 Z.2 F720
G1 E3.2 F2400
M204 P800
G1 F1200
G1 X87.338 Y48.882 E.0119
G1 X87.067 Y49.145 E.01186
G1 X87.65 Y49.728 E.02591
M204 P1000
G1 E-2.24 F4200
;WIPE_START
G1 F7200
G1 X87.067 Y49.145 E-.45722
G1 X87.338 Y48.882 E-.20932
G1 X87.606 Y49.15 E-.20999
;WIPE_END
G1 E-.08346 F4200
G1 Z.4 F720
G1 X119.462 Y54.301 F9000
G1 Z.2 F720
G1 E3.2 F2400
M204 P800
G1 F1200
G1 X118.868 Y53.707 E.02638
G1 X118.334 Y53.707 E.01678
G1 X119.293 Y54.666 E.04257
G1 X119.293 Y55.2 E.01677
G1 X117.8 Y53.707 E.06629
G1 X117.266 Y53.707 E.01678
G1 X119.293 Y55.734 E.09001
G1 X119.293 Y56.268 E.01677
G1 X116.732 Y53.707 E.11374
G1 X116.197 Y53.707 E.01678
G1 X119.293 Y56.802 E.13746
G1 X119.293 Y57.336 E.01677
G1 X115.663 Y53.707 E.16119
G1 X115.129 Y53.707 E.01678
G1 X119.293 Y57.87 E.18491
G1 X119.293 Y58.404 E.01677
G1 X114.595 Y53.707 E.20864
G1 X114.061 Y53.706 E.01678
G1 X119.293 Y58.938 E.23236
G1 X119.293 Y59.473 E.01677
G1 X113.526 Y53.706 E.25609
G1 X112.992 Y53.706 E.01678
G1 X119.293 Y60.007 E.27981
G1 X119.293 Y60.541 E.01677
G1 X112.458 Y53.706 E.30353
G1 X111.924 Y53.706 E.01678
G1 X119.293 Y61.075 E.32726
G1 X119.293 Y61.609 E.01677
G1 X111.39 Y53.706 E.35098
G1 X110.855 Y53.706 E.01678
G1 X119.293 Y62.143 E.37471
G1 X119.293 Y62.677 E.01677
G1 X110.321 Y53.706 E.39843
G1 X109.787 Y53.706 E.01678
G1 X119.293 Y63.211 E.42216
G1 X119.293 Y63.745 E.01677
G1 X109.253 Y53.706 E.44588
G1 X108.719 Y53.706 E.01678
G1 X119.293 Y64.28 E.4696
G1 X119.293 Y64.814 E.01677
G1 X108.184 Y53.705 E.49333
G1 X107.65 Y53.705 E.01678
G1 X119.293 Y65.348 E.51705
G1 X119.293 Y65.882 E.01677
G1 X107.116 Y53.705 E.54078
G1 X106.582 Y53.705 E.01678
G1 X119.293 Y66.416 E.5645
G1 X119.293 Y66.95 E.01677
G1 X106.048 Y53.705 E.58823
G1 X105.513 Y53.705 E.01678
G1 X119.293 Y67.484 E.61195
G1 X119.293 Y68.018 E.01677
G1 X104.979 Y53.705 E.63568
G1 X104.445 Y53.705 E.01678
G1 X119.293 Y68.552 E.6594
G1 X119.293 Y69.086 E.01677
G1 X103.911 Y53.705 E.68312
G1 X103.377 Y53.705 E.01678
G1 X119.293 Y69.621 E.70685
G1 X119.293 Y70.155 E.01677
G1 X102.842 Y53.705 E.73057
G1 X102.308 Y53.704 E.01678
G1 X119.293 Y70.689 E.7543
G1 X119.293 Y71.223 E.01677
G1 X101.774 Y53.704 E.77802
G1 X101.24 Y53.704 E.01678
G1 X119.293 Y71.757 E.80175
G1 X119.293 Y72.291 E.01677
G1 X100.706 Y53.704 E.82547
G1 X100.171 Y53.704 E.01678
G1 X119.293 Y72.825 E.84919
G1 X119.293 Y73.359 E.01677
G1 X99.637 Y53.704 E.87292
G1 X99.103 Y53.704 E.01678
G1 X119.293 Y73.893 E.89664
G1 X119.293 Y74.428 E.01677
G1 X98.569 Y53.704 E.92037
G1 X98.035 Y53.704 E.01678
G1 X119.293 Y74.962 E.94409
G1 X119.293 Y75.496 E.01677
G1 X97.5 Y53.704 E.96782
G1 X96.966 Y53.704 E.01678
G1 X119.293 Y76.03 E.99154
G1 X119.293 Y76.564 E.01677
G1 X96.432 Y53.703 E1.01527
G1 X95.898 Y53.703 E.01678
M73 P1 R84
G1 X119.293 Y77.098 E1.03899
G1 X119.293 Y77.632 E.01677
M73 P2 R84
G1 X95.194 Y53.534 E1.07025
M204 P1000
G1 E-2.24 F4200
;WIPE_START
G1 F7200
G1 X96.358 Y54.697 E-.912
;WIPE_END
G1 E-.048 F4200
G1 Z.4 F720
G1 X91.87 Y50.744 F9000
G1 Z.2 F720
G1 E3.2 F2400
M204 P800
G1 F1200
G1 X93.829 Y52.703 E.08701
G1 X93.813 Y52.809 E.00338
G1 X93.833 Y53.043 E.00737
G1 X93.912 Y53.255 E.00711
G1 X94.07 Y53.465 E.00825
G1 X94.261 Y53.604 E.00742
G1 X94.503 Y53.689 E.00804
G1 X94.829 Y53.703 E.01027
G1 X119.293 Y78.166 E1.08644
G1 X119.293 Y78.7 E.01677
G1 X91.729 Y51.137 E1.22413
G1 X91.601 Y51.26 E.00559
G1 X91.433 Y51.375 E.00638
G1 X119.293 Y79.235 E1.23726
G1 X119.293 Y79.769 E.01677
G1 X91.093 Y51.569 E1.25237
G1 X90.943 Y51.641 E.00522
G1 X90.699 Y51.71 E.00796
G1 X119.293 Y80.303 E1.26986
G1 X119.293 Y80.837 E.01677
G1 X90.255 Y51.799 E1.28961
G1 X89.999 Y51.82 E.00805
G1 X89.718 Y51.797 E.00885
G1 X119.293 Y81.371 E1.31343
G1 X119.293 Y81.905 E.01677
G1 X89.003 Y51.615 E1.34522
G1 X88.715 Y51.477 E.01002
G1 X88.4 Y51.26 E.01201
G1 X88.047 Y50.923 E.01533
G1 X87.742 Y50.474 E.01703
G1 X87.65 Y50.262 E.00725
G1 X86.836 Y49.449 E.03613
G1 X86.618 Y49.765 E.01206
G1 X119.293 Y82.439 E1.45112
G1 X119.293 Y82.973 E.01677
G1 X86.441 Y50.122 E1.45899
G1 X86.35 Y50.306 E.00645
G1 X86.29 Y50.505 E.00653
G1 X119.293 Y83.507 E1.4657
G1 X119.293 Y84.042 E.01677
G1 X86.166 Y50.915 E1.47118
G1 X86.105 Y51.388 E.01497
G1 X119.293 Y84.576 E1.47391
G1 X119.293 Y85.11 E.01677
G1 X86.088 Y51.905 E1.47464
G1 X86.106 Y52.265 E.01132
G1 X86.14 Y52.491 E.00716
G1 X119.293 Y85.644 E1.47236
G1 X119.293 Y86.178 E.01677
G1 X86.165 Y53.05 E1.47125
G1 X86.088 Y53.255 E.00688
G1 X85.979 Y53.399 E.00566
G1 X119.293 Y86.712 E1.47947
G1 X119.293 Y87.246 E.01677
G1 X85.675 Y53.629 E1.49298
G1 X85.47 Y53.694 E.00676
G1 X85.206 Y53.694 E.00829
G1 X119.293 Y87.78 E1.51382
G1 X119.293 Y88.314 E.01677
G1 X84.672 Y53.694 E1.53752
G1 X84.139 Y53.695 E.01676
G1 X119.293 Y88.848 E1.56123
G1 X119.293 Y89.383 E.01677
G1 X83.605 Y53.695 E1.58494
G1 X83.071 Y53.695 E.01676
M73 P3 R84
G1 X119.293 Y89.917 E1.60865
G1 X119.293 Y90.451 E.01677
G1 X82.537 Y53.695 E1.63235
G1 X82.003 Y53.696 E.01676
G1 X119.293 Y90.985 E1.65606
G1 X119.293 Y91.519 E.01677
M73 P3 R83
G1 X81.47 Y53.696 E1.67977
G1 X80.936 Y53.696 E.01676
G1 X119.293 Y92.053 E1.70347
G1 X119.293 Y92.587 E.01677
G1 X80.402 Y53.697 E1.72718
G1 X79.868 Y53.697 E.01676
G1 X119.293 Y93.121 E1.75089
G1 X119.293 Y93.655 E.01677
G1 X79.334 Y53.697 E1.7746
G1 X78.8 Y53.697 E.01676
G1 X119.293 Y94.19 E1.7983
G1 X119.293 Y94.724 E.01677
G1 X78.267 Y53.698 E1.82201
G1 X77.733 Y53.698 E.01676
G1 X119.293 Y95.258 E1.84572
G1 X119.293 Y95.792 E.01677
G1 X77.199 Y53.698 E1.86943
G1 X76.665 Y53.699 E.01676
G1 X119.293 Y96.326 E1.89313
G1 X119.293 Y96.86 E.01677
G1 X76.131 Y53.699 E1.91684
