; generated by PrusaSlicer 2.5.2+win64 on 2023-05-16 at 19:59:14 UTC


;
;

;
;
; 

; external perimeters extrusion width = 0.45mm
; perimeters extrusion width = 0.45mm
; infill extrusion width = 0.45mm
; solid infill extrusion width = 0.45mm
; top infill extrusion width = 0.40mm
; first layer extrusion width = 0.42mm

M73 P0 R88
M201 X2500 Y2500 Z400 E5000 ; sets maximum accelerations, mm/sec^2
M203 X180 Y180 Z12 E80 ; sets maximum feedrates, mm / sec
M204 P1250 R1250 T2500 ; sets acceleration (P, T) and retract acceleration (R), mm/sec^2
M205 X8.00 Y8.00 Z2.00 E10.00 ; sets the jerk limits, mm/sec
M205 S0 T0 ; sets the minimum extruding and travel feed rate, mm/sec
M107
;TYPE:Custom
M862.3 P "MINI" ; printer model check
G90 ; use absolute coordinates
M83 ; extruder relative mode
M104 S170 ; set extruder temp for bed leveling
M140 S60 ; set bed temp
M109 R170 ; wait for bed leveling temp
M190 S60 ; wait for bed temp
M204 T1250 ; set travel acceleration
G28 ; home all without mesh bed level
G29 ; mesh bed leveling 
M204 T2500 ; restore travel acceleration
M104 S215 ; set extruder temp
G92 E0
G1 Y-2 X179 F2400
G1 Z3 F720
M109 S215 ; wait for extruder temp

; intro line
G1 X170 F1000
G1 Z0.2 F720
G1 X110 E8 F900
G1 X40 E10 F700
G92 E0

M221 S95 ; set flow
G21 ; set units to millimeters
G90 ; use absolute coordinates
M83 ; use relative distances for extrusion
M900 K0.2 ; Filament gcode LA 1.5
; ; Filament gcode LA 1.0
M107
;LAYER_CHANGE
;Z:0.2
;HEIGHT:0.2
;BEFORE_LAYER_CHANGE
G92 E0.0
;0.2


G1 E-3.2 F4200
G1 Z.2 F720
;AFTER_LAYER_CHANGE
;0.2
G1 Z.4
G1 X57.06 Y50.516 F9000
G1 Z.2 F720
G1 E3.2 F2400
M204 P800
;TYPE:Skirt/Brim
;WIDTH:0.42
G1 F1200
G1 X58.539 Y49.613 E.05435
G1 X88.738 Y44.283 E.96149
G1 X89.792 Y44.182 E.03321
G1 X90.797 Y44.233 E.03156
G1 X121.462 Y49.613 E.97613
G1 X122.681 Y50.226 E.04278
G1 X123.42 Y51.794 E.05435
G1 X125.826 Y87.502 E1.12215
G1 X125.821 Y92.662 E.16179
G1 X123.42 Y128.209 E1.11707
G1 X122.941 Y129.486 E.04278
G1 X121.461 Y130.389 E.05436
G1 X91.262 Y135.719 E.96151
G1 X90.2 Y135.819 E.03346
G1 X88.738 Y135.719 E.04594
G1 X58.539 Y130.389 E.96149
G1 X57.32 Y129.777 E.04278
G1 X56.581 Y128.209 E.05435
G1 X54.174 Y92.502 E1.1221
G1 X54.179 Y87.342 E.1618
G1 X56.581 Y51.794 E1.11713
G1 X57.039 Y50.572 E.0409
M204 P1000
; printing object Uno_Top.STL id:0 copy 0
G1 E-2.24 F4200
;WIPE_START
G1 F7200
G1 X58.425 Y49.686 E-.912
;WIPE_END
G1 E-.048 F4200
G1 Z.4 F720
G1 X94.107 Y127.308 F9000
G1 Z.2 F720
G1 E3.2 F2400
M204 P800
;TYPE:Perimeter
;WIDTH:0.419999
G1 F1200
G1 X94.095 Y127.378 E.00224
G1 X94.177 Y127.906 E.01675
G1 X94.209 Y128.571 E.02086
G1 X94.121 Y129.313 E.02343
G1 X93.915 Y129.999 E.02248
G1 X93.596 Y130.642 E.02247
G1 X93.172 Y131.22 E.0225
G1 X92.812 Y131.568 E.01569
G1 X92.43 Y131.872 E.0153
G1 X91.966 Y132.167 E.01726
G1 X92.129 Y131.785 E.01302
G1 X92.23 Y131.443 E.01117
G1 X92.288 Y130.917 E.01661
G1 X92.197 Y130.377 E.01717
G1 X92.109 Y130.078 E.00975
G1 X91.809 Y129.56 E.01879
G1 X91.508 Y129.232 E.01396
G1 X91.187 Y128.996 E.01249
G1 X90.826 Y128.82 E.01258
G1 X90.299 Y128.689 E.01702
G1 X89.7 Y128.689 E.01877
G1 X89.222 Y128.8 E.0154
G1 X88.774 Y129.026 E.01573
G1 X88.317 Y129.41 E.0187
G1 X88.052 Y129.756 E.01368
G1 X87.902 Y130.052 E.0104
G1 X87.775 Y130.442 E.01287
G1 X87.715 Y130.902 E.01453
G1 X87.74 Y131.298 E.01244
G1 X87.837 Y131.689 E.01262
G1 X88.09 Y132.193 E.01769
G1 X87.941 Y132.123 E.00517
G1 X87.345 Y131.719 E.02258
G1 X86.828 Y131.22 E.02251
G1 X86.403 Y130.641 E.02252
G1 X86.084 Y129.999 E.02247
G1 X85.879 Y129.314 E.02244
G1 X85.792 Y128.572 E.02342
G1 X85.829 Y127.859 E.0224
G1 X85.9 Y127.277 E.01837
G1 X85.815 Y127.04 E.00791
G1 X85.607 Y126.848 E.00888
G1 X85.339 Y126.781 E.00865
G1 X60.225 Y126.776 E.78744
G1 X60.225 Y92.281 E1.08157
M73 P0 R87
G1 X60.207 Y92.139 E.00449
G1 X60.069 Y91.891 E.00889
G1 X59.846 Y91.747 E.00832
G1 X59.659 Y91.715 E.00595
G1 X57.338 Y91.715 E.07278
G1 X57.338 Y88.289 E.10741
G1 X59.051 Y88.289 E.05371
G1 X59.846 Y88.257 E.02496
G1 X59.984 Y88.187 E.00485
G1 X60.17 Y87.966 E.00904
G1 X60.225 Y87.723 E.00781
G1 X60.225 Y53.226 E1.08165
G1 X85.376 Y53.22 E.78858
G1 X85.647 Y53.13 E.00895
G1 X85.84 Y52.918 E.00901
G1 X85.905 Y52.655 E.00847
G1 X85.823 Y52.096 E.01772
G1 X85.791 Y51.433 E.02081
G1 X85.879 Y50.69 E.02345
G1 X86.084 Y50.004 E.02245
G1 X86.403 Y49.361 E.02251
G1 X86.802 Y48.819 E.02111
G1 X87.185 Y48.439 E.0169
G1 X87.576 Y48.128 E.01567
G1 X88.04 Y47.832 E.01725
G1 X87.871 Y48.222 E.01333
G1 X87.77 Y48.561 E.01109
G1 X87.715 Y49.002 E.01393
G1 X87.74 Y49.398 E.01243
G1 X87.836 Y49.787 E.01258
G1 X87.995 Y50.15 E.01242
G1 X88.318 Y50.593 E.01717
G1 X88.749 Y50.955 E.01766
G1 X89.174 Y51.182 E.01511
G1 X89.552 Y51.293 E.01236
G1 X89.947 Y51.338 E.01245
G1 X90.352 Y51.31 E.01273
G1 X90.736 Y51.215 E.01241
G1 X91.099 Y51.056 E.01242
G1 X91.394 Y50.86 E.01109
G1 X91.719 Y50.559 E.01391
G1 X91.954 Y50.238 E.01247
G1 X92.177 Y49.737 E.01718
G1 X92.281 Y49.147 E.01878
G1 X92.28 Y48.951 E.00615
G1 X92.13 Y48.219 E.02345
G1 X91.912 Y47.81 E.01453
G1 X92.059 Y47.878 E.00509
G1 X92.655 Y48.285 E.02261
G1 X93.172 Y48.784 E.02255
G1 X93.596 Y49.361 E.02243
G1 X93.914 Y50.004 E.02251
G1 X94.121 Y50.691 E.02249
G1 X94.208 Y51.432 E.02338
G1 X94.176 Y52.052 E.01948
G1 X94.095 Y52.624 E.01811
G1 X94.138 Y52.876 E.008
G1 X94.298 Y53.091 E.00842
G1 X94.394 Y53.155 E.00361
G1 X94.66 Y53.221 E.00858
G1 X119.775 Y53.226 E.78748
G1 X119.775 Y87.723 E1.08165
G1 X119.793 Y87.865 E.00449
G1 X119.931 Y88.113 E.00889
G1 X120.154 Y88.257 E.00832
G1 X120.341 Y88.289 E.00595
G1 X122.662 Y88.289 E.07278
G1 X122.662 Y91.715 E.10741
G1 X120.291 Y91.717 E.07433
G1 X120.016 Y91.817 E.00919
G1 X119.83 Y92.038 E.00904
G1 X119.775 Y92.281 E.00781
G1 X119.775 Y126.776 E1.08157
G1 X94.66 Y126.781 E.78747
G1 X94.554 Y126.791 E.00333
G1 X94.295 Y126.914 E.00899
G1 X94.139 Y127.127 E.00827
G1 X94.117 Y127.249 E.00388
M204 P1000
G1 X94.472 Y127.357 F9000
M204 P800
;TYPE:External perimeter
G1 F1200
G1 X94.552 Y127.867 E.01619
G1 X94.587 Y128.584 E.0225
G1 X94.492 Y129.39 E.02545
G1 X94.266 Y130.139 E.02452
G1 X93.919 Y130.838 E.02448
G1 X93.457 Y131.469 E.02453
G1 X92.894 Y132.013 E.02454
G1 X92.281 Y132.428 E.02322
G1 X91.853 Y132.636 E.01491
;WIDTH:0.422494
G1 X91.377 Y132.837 E.01632
;WIDTH:0.436066
G1 X90.747 Y133.035 E.02158
G1 X90.023 Y133.129 E.02385
;WIDTH:0.431333
G1 X89.602 Y133.09 E.01366
;WIDTH:0.428263
G1 X88.981 Y132.953 E.0204
G1 X88.476 Y132.79 E.01698
;WIDTH:0.419999
G1 X87.754 Y132.452 E.02502
G1 X87.106 Y132.013 E.02453
G1 X86.543 Y131.469 E.02454
G1 X86.08 Y130.838 E.02454
G1 X85.732 Y130.139 E.0245
G1 X85.508 Y129.39 E.02449
G1 X85.413 Y128.584 E.02545
G1 X85.448 Y127.927 E.02063
G1 X85.525 Y127.377 E.01744
G1 X85.483 Y127.225 E.00493
G1 X85.339 Y127.158 E.00499
G1 X59.848 Y127.153 E.79926
G1 X59.848 Y92.281 E1.0934
G1 X59.796 Y92.151 E.00439
G1 X59.659 Y92.092 E.00466
G1 X56.961 Y92.092 E.08461
G1 X56.961 Y87.912 E.13106
G1 X59.659 Y87.912 E.08461
G1 X59.796 Y87.853 E.00466
G1 X59.848 Y87.723 E.00439
G1 X59.848 Y52.849 E1.09347
G1 X85.339 Y52.844 E.79925
M73 P1 R87
G1 X85.482 Y52.779 E.00492
G1 X85.526 Y52.629 E.0049
G1 X85.448 Y52.135 E.01568
G1 X85.413 Y51.42 E.02243
G1 X85.508 Y50.614 E.02546
G1 X85.732 Y49.865 E.02449
G1 X86.08 Y49.164 E.02454
G1 X86.543 Y48.535 E.02449
G1 X87.107 Y47.991 E.02456
G1 X87.714 Y47.577 E.02306
G1 X88.15 Y47.364 E.01521
;WIDTH:0.422459
G1 X88.623 Y47.165 E.01618
G1 X89.364 Y46.945 E.02441
;WIDTH:0.419738
G1 X89.897 Y46.875 E.01684
;WIDTH:0.417235
G1 X90.398 Y46.911 E.01561
;WIDTH:0.427952
G1 X91.018 Y47.049 E.02036
G1 X91.524 Y47.212 E.017
;WIDTH:0.419999
G1 X92.246 Y47.55 E.025
G1 X92.893 Y47.991 E.02457
G1 X93.457 Y48.535 E.02456
G1 X93.919 Y49.164 E.02447
G1 X94.266 Y49.865 E.02453
G1 X94.492 Y50.614 E.02452
G1 X94.587 Y51.419 E.02543
G1 X94.552 Y52.072 E.02048
G1 X94.471 Y52.663 E.01871
G1 X94.539 Y52.801 E.00482
G1 X94.66 Y52.844 E.00401
G1 X120.152 Y52.849 E.7993
G1 X120.152 Y87.723 E1.09347
G1 X120.204 Y87.853 E.00439
G1 X120.341 Y87.912 E.00466
G1 X123.039 Y87.912 E.08461
G1 X123.039 Y92.092 E.13106
G1 X120.341 Y92.092 E.08461
G1 X120.204 Y92.151 E.00466
G1 X120.152 Y92.281 E.00439
G1 X120.152 Y127.153 E1.09339
G1 X94.66 Y127.158 E.79929
G1 X94.528 Y127.212 E.00448
G1 X94.493 Y127.301 E.00299
M204 P1000
G1 X94.099 Y127.504 F9000
G1 E-2.24 F4200
;WIPE_START
G1 F7200
G1 X94.552 Y127.867 E-.3154
G1 X94.587 Y128.584 E-.39761
G1 X94.545 Y128.941 E-.19899
;WIPE_END
G1 E-.048 F4200
G1 Z.4 F720
G1 X89.064 Y47.437 F9000
G1 Z.2 F720
G1 E3.2 F2400
M204 P800
;WIDTH:0.428135
G1 F1200
G1 X89.414 Y47.318 E.01184
;WIDTH:0.419738
G1 X89.946 Y47.246 E.01684
;WIDTH:0.417235
G1 X90.328 Y47.274 E.01189
;WIDTH:0.428363
G1 X90.886 Y47.411 E.01842
G1 X91.254 Y47.638 E.01386
;WIDTH:0.419999
G1 X91.463 Y47.838 E.00908
G1 X91.659 Y48.108 E.01045
G1 X91.805 Y48.429 E.01108
G1 X91.912 Y49.062 E.02011
G1 X91.825 Y49.561 E.01588
G1 X91.759 Y49.787 E.00739
G1 X91.474 Y50.267 E.01751
G1 X91.178 Y50.552 E.01288
G1 X90.941 Y50.714 E.00899
G1 X90.638 Y50.851 E.01043
G1 X90.317 Y50.935 E.01039
G1 X89.982 Y50.962 E.01057
G1 X89.651 Y50.929 E.01043
G1 X89.332 Y50.84 E.01037
G1 X88.991 Y50.666 E.012
G1 X88.56 Y50.304 E.01766
G1 X88.337 Y49.992 E.01202
G1 X88.138 Y49.46 E.0178
G1 X88.091 Y49.034 E.01344
G1 X88.134 Y48.66 E.01179
G1 X88.212 Y48.382 E.00906
G1 X88.359 Y48.077 E.01062
G1 X88.56 Y47.812 E.01045
;WIDTH:0.422459
G1 X88.812 Y47.583 E.01072
;WIDTH:0.428135
G1 X89.012 Y47.467 E.0074
M204 P1000
G1 E-2.24 F4200
;WIPE_START
G1 F7200
G1 X89.414 Y47.318 E-.23749
G1 X89.946 Y47.246 E-.29783
G1 X90.328 Y47.274 E-.21178
G1 X90.617 Y47.345 E-.1649
;WIPE_END
G1 E-.048 F4200
G1 Z.4 F720
G1 X89.331 Y129.166 F9000
G1 Z.2 F720
G1 E3.2 F2400
M204 P800
;WIDTH:0.419999
G1 F1200
G1 X89.7 Y129.066 E.01198
G1 X90.299 Y129.066 E.01877
G1 X90.668 Y129.162 E.01194
G1 X90.97 Y129.305 E.01048
G1 X91.241 Y129.498 E.01045
G1 X91.483 Y129.749 E.01091
G1 X91.783 Y130.267 E.01879
G1 X91.909 Y130.917 E.02075
G1 X91.865 Y131.347 E.01355
G1 X91.789 Y131.622 E.00893
G1 X91.641 Y131.921 E.01048
G1 X91.44 Y132.192 E.01057
;WIDTH:0.422494
G1 X91.189 Y132.419 E.0107
;WIDTH:0.428693
G1 X90.885 Y132.591 E.01118
G1 X90.328 Y132.727 E.01841
;WIDTH:0.413596
G1 X89.718 Y132.733 E.01879
;WIDTH:0.428693
G1 X89.114 Y132.591 E.01992
G1 X88.745 Y132.361 E.01395
;WIDTH:0.419999
G1 X88.536 Y132.165 E.00899
G1 X88.34 Y131.89 E.01057
G1 X88.201 Y131.59 E.01039
G1 X88.116 Y131.266 E.01048
G1 X88.091 Y130.934 E.01045
G1 X88.139 Y130.54 E.01244
G1 X88.337 Y130.012 E.01769
G1 X88.56 Y129.698 E.01204
G1 X89.016 Y129.315 E.0187
G1 X89.277 Y129.191 E.00905
M204 P1000
G1 X89.387 Y128.788 F9000
G1 E-2.24 F4200
;WIPE_START
G1 F7200
G1 X89.7 Y129.066 E-.24455
G1 X90.299 Y129.066 E-.33179
G1 X90.668 Y129.162 E-.21109
G1 X90.871 Y129.258 E-.12456
;WIPE_END
G1 E-.048 F4200
G1 Z.4 F720
G1 X118.896 Y53.338 F9000
G1 Z.2 F720
G1 E3.2 F2400
M204 P800
;TYPE:Solid infill
;WIDTH:0.421344
G1 F1200
G1 X119.492 Y53.934 E.02652
G1 X119.492 Y54.47 E.01684
G1 X118.531 Y53.508 E.0428
G1 X117.995 Y53.508 E.01685
G1 X119.492 Y55.005 E.06663
G1 X119.492 Y55.54 E.01684
G1 X117.459 Y53.507 E.09046
G1 X116.924 Y53.507 E.01685
G1 X119.492 Y56.075 E.1143
G1 X119.492 Y56.61 E.01684
G1 X116.388 Y53.506 E.13813
G1 X115.853 Y53.506 E.01685
G1 X119.492 Y57.146 E.16196
G1 X119.492 Y57.681 E.01684
G1 X115.317 Y53.506 E.18579
G1 X114.782 Y53.505 E.01685
G1 X119.493 Y58.216 E.20963
G1 X119.493 Y58.751 E.01684
G1 X114.246 Y53.505 E.23346
G1 X113.711 Y53.505 E.01685
G1 X119.493 Y59.287 E.25729
G1 X119.493 Y59.822 E.01684
G1 X113.175 Y53.504 E.28113
G1 X112.64 Y53.504 E.01685
G1 X119.493 Y60.357 E.30496
G1 X119.493 Y60.892 E.01684
G1 X112.104 Y53.504 E.32879
G1 X111.569 Y53.503 E.01685
G1 X119.493 Y61.427 E.35262
G1 X119.493 Y61.963 E.01684
G1 X111.033 Y53.503 E.37646
G1 X110.497 Y53.502 E.01685
G1 X119.493 Y62.498 E.40029
G1 X119.493 Y63.033 E.01684
G1 X109.962 Y53.502 E.42412
G1 X109.426 Y53.502 E.01685
G1 X119.493 Y63.568 E.44795
G1 X119.493 Y64.103 E.01684
G1 X108.891 Y53.501 E.47179
G1 X108.355 Y53.501 E.01685
G1 X119.493 Y64.639 E.49562
G1 X119.493 Y65.174 E.01684
G1 X107.82 Y53.501 E.51945
G1 X107.284 Y53.5 E.01685
G1 X119.493 Y65.709 E.54329
G1 X119.493 Y66.244 E.01684
G1 X106.749 Y53.5 E.56712
G1 X106.213 Y53.5 E.01685
G1 X119.493 Y66.779 E.59095
G1 X119.493 Y67.315 E.01684
G1 X105.678 Y53.499 E.61478
G1 X105.142 Y53.499 E.01685
G1 X119.493 Y67.85 E.63862
G1 X119.493 Y68.385 E.01684
G1 X104.607 Y53.498 E.66245
G1 X104.071 Y53.498 E.01685
G1 X119.493 Y68.92 E.68628
G1 X119.493 Y69.455 E.01684
G1 X103.536 Y53.498 E.71011
G1 X103 Y53.497 E.01685
G1 X119.493 Y69.991 E.73395
G1 X119.493 Y70.526 E.01684
G1 X102.464 Y53.497 E.75778
G1 X101.929 Y53.497 E.01685
G1 X119.493 Y71.061 E.78161
G1 X119.493 Y71.596 E.01684
G1 X101.393 Y53.496 E.80544
G1 X100.858 Y53.496 E.01685
G1 X119.493 Y72.131 E.82928
G1 X119.493 Y72.667 E.01684
G1 X100.322 Y53.496 E.85311
G1 X99.787 Y53.495 E.01685
G1 X119.493 Y73.202 E.87694
G1 X119.493 Y73.737 E.01684
M73 P1 R86
G1 X99.251 Y53.495 E.90078
G1 X98.716 Y53.494 E.01685
G1 X119.494 Y74.272 E.92461
G1 X119.494 Y74.807 E.01684
G1 X98.18 Y53.494 E.94844
G1 X97.645 Y53.494 E.01685
G1 X119.494 Y75.343 E.97227
G1 X119.494 Y75.878 E.01684
G1 X97.109 Y53.493 E.99611
G1 X96.574 Y53.493 E.01685
G1 X119.494 Y76.413 E1.01994
G1 X119.494 Y76.948 E.01684
G1 X96.038 Y53.493 E1.04377
G1 X95.502 Y53.492 E.01685
G1 X119.494 Y77.484 E1.0676
G1 X119.494 Y78.019 E.01684
M73 P2 R86
G1 X94.797 Y53.322 E1.09899
M204 P1000
G1 E-2.24 F4200
;WIPE_START
G1 F7200
G1 X95.961 Y54.486 E-.912
;WIPE_END
G1 E-.048 F4200
G1 Z.4 F720
G1 X93.872 Y50.257 F9000
G1 Z.2 F720
G1 E3.2 F2400
M204 P800
G1 F1200
G1 X92.562 Y48.946 E.05831
G1 X92.571 Y49.103 E.00493
G1 X92.515 Y49.434 E.01058
G1 X93.845 Y50.765 E.0592
G1 X93.917 Y51.371 E.01921
G1 X92.427 Y49.881 E.0663
G1 X92.267 Y50.257 E.01285
G1 X93.901 Y51.891 E.07271
G1 X93.849 Y52.374 E.01528
G1 X92.057 Y50.582 E.07974
G1 X91.806 Y50.866 E.01193
G1 X119.494 Y78.554 E1.23212
G1 X119.494 Y79.089 E.01684
G1 X91.515 Y51.111 E1.24504
G1 X91.193 Y51.324 E.01215
G1 X119.494 Y79.624 E1.25936
G1 X119.494 Y80.16 E.01684
G1 X90.818 Y51.484 E1.27606
G1 X90.515 Y51.568 E.00991
G1 X90.382 Y51.583 E.0042
G1 X119.494 Y80.695 E1.29547
G1 X119.494 Y81.23 E.01684
G1 X89.688 Y51.424 E1.32635
M204 P1000
G1 E-2.24 F4200
;WIPE_START
G1 F7200
G1 X90.852 Y52.588 E-.912
;WIPE_END
G1 E-.048 F4200
G1 Z.4 F720
G1 X87.617 Y48.818 F9000
G1 Z.2 F720
G1 E3.2 F2400
M204 P800
G1 F1200
G1 X87.412 Y48.613 E.00912
G1 X87.14 Y48.876 E.01191
G1 X87.636 Y49.372 E.0221
M204 P1000
G1 X86.775 Y49.046 F9000
M204 P800
G1 F1200
G1 X87.563 Y49.834 E.03505
G1 X87.609 Y49.99 E.00511
G1 X87.741 Y50.276 E.00993
G1 X88.049 Y50.727 E.01719
G1 X88.688 Y51.263 E.02623
G1 X89.061 Y51.442 E.01302
G1 X89.215 Y51.486 E.00502
G1 X119.494 Y81.765 E1.34743
G1 X119.494 Y82.3 E.01684
G1 X86.67 Y49.476 E1.46066
G1 X86.487 Y49.828 E.01249
G1 X119.494 Y82.836 E1.46881
G1 X119.494 Y83.371 E.01684
G1 X86.321 Y50.198 E1.47619
G1 X86.198 Y50.61 E.01353
G1 X119.494 Y83.906 E1.48168
G1 X119.494 Y84.441 E.01684
G1 X86.119 Y51.066 E1.48517
G1 X86.075 Y51.443 E.01193
G1 X86.081 Y51.563 E.00379
G1 X119.494 Y84.976 E1.48689
G1 X119.494 Y85.512 E.01684
G1 X86.114 Y52.131 E1.48541
G1 X86.188 Y52.654 E.01661
G1 X86.179 Y52.732 E.00246
G1 X119.494 Y86.047 E1.48251
G1 X119.494 Y86.582 E.01684
G1 X86.036 Y53.124 E1.48888
G1 X85.929 Y53.267 E.00562
G1 X85.761 Y53.384 E.00644
G1 X119.664 Y87.287 E1.50866
M204 P1000
G1 E-2.24 F4200
;WIPE_START
G1 F7200
G1 X118.5 Y86.123 E-.912
;WIPE_END
G1 E-.048 F4200
G1 Z.4 F720
G1 X121.85 Y88.402 F9000
G1 Z.2 F720
G1 E3.2 F2400
M204 P800
G1 F1200
G1 X122.379 Y88.932 E.02356
G1 X122.379 Y89.467 E.01684
G1 X121.484 Y88.572 E.03983
G1 X120.949 Y88.572 E.01684
G1 X122.379 Y90.002 E.06364
G1 X122.379 Y90.537 E.01684
G1 X120.414 Y88.572 E.08746
G1 X120.061 Y88.526 E.01119
G1 X119.852 Y88.418 E.0074
G1 X119.65 Y88.218 E.00895
G1 X119.541 Y88.009 E.00742
G1 X119.494 Y87.79 E.00705
G1 X119.494 Y87.652 E.00432
