; generated by PrusaSlicer 2.5.2+win64 on 2023-04-06 at 19:58:49 UTC


;
;

;
;
; 

; external perimeters extrusion width = 0.45mm
; perimeters extrusion width = 0.45mm
; infill extrusion width = 0.45mm
; solid infill extrusion width = 0.45mm
; top infill extrusion width = 0.40mm
; first layer extrusion width = 0.42mm

M73 P0 R15
M201 X2500 Y2500 Z400 E5000 ; sets maximum accelerations, mm/sec^2
M203 X180 Y180 Z12 E80 ; sets maximum feedrates, mm / sec
M204 P2000 R1250 T2500 ; sets acceleration (P, T) and retract acceleration (R), mm/sec^2
M205 X8.00 Y8.00 Z2.00 E10.00 ; sets the jerk limits, mm/sec
M205 S0 T0 ; sets the minimum extruding and travel feed rate, mm/sec
M107
;TYPE:Custom
M862.3 P "MINI" ; printer model check
G90 ; use absolute coordinates
M83 ; extruder relative mode
M104 S170 ; set extruder temp for bed leveling
M140 S60 ; set bed temp
M109 R170 ; wait for bed leveling temp
M190 S60 ; wait for bed temp
M204 T1250 ; set travel acceleration
G28 ; home all without mesh bed level
G29 ; mesh bed leveling 
M204 T2500 ; restore travel acceleration
M104 S215 ; set extruder temp
G92 E0
G1 Y-2 X179 F2400
G1 Z3 F720
M109 S215 ; wait for extruder temp

; intro line
G1 X170 F1000
G1 Z0.2 F720
G1 X110 E8 F900
G1 X40 E10 F700
G92 E0

M221 S95 ; set flow
G21 ; set units to millimeters
G90 ; use absolute coordinates
M83 ; use relative distances for extrusion
M900 K0.2 ; Filament gcode LA 1.5
; ; Filament gcode LA 1.0
M107
;LAYER_CHANGE
;Z:0.2
;HEIGHT:0.2
;BEFORE_LAYER_CHANGE
G92 E0.0
;0.2


M73 P1 R15
G1 E-3.2 F4200
G1 Z.2 F720
;AFTER_LAYER_CHANGE
;0.2
G1 Z.4
G1 X67.309 Y75.318 F9000
G1 Z.2 F720
G1 E3.2 F2400
M204 P600
;TYPE:Skirt/Brim
;WIDTH:0.42
G1 F1200
G1 X68.594 Y74.24 E.05262
G1 X70.271 Y73.155 E.06261
G1 X72.376 Y72.191 E.07259
G1 X74.292 Y71.631 E.06261
G1 X76.267 Y71.332 E.06261
G1 X102.055 Y71.288 E.80859
G1 X104.051 Y71.362 E.06261
G1 X105.708 Y71.631 E.05263
G1 X107.624 Y72.191 E.06261
G1 X109.449 Y73.003 E.06261
G1 X111.406 Y74.24 E.07259
G1 X112.922 Y75.539 E.06261
G1 X114.051 Y76.78 E.05262
M73 P2 R15
G1 X115.177 Y78.373 E.06114
G1 X116.126 Y80.182 E.06407
G1 X116.804 Y82.061 E.06261
G1 X117.224 Y84.013 E.06261
G1 X117.378 Y86.323 E.07259
G1 X117.265 Y87.997 E.05262
G1 X116.925 Y89.763 E.05637
G1 X116.247 Y91.85 E.06881
G1 X115.197 Y93.913 E.07259
G1 X114.044 Y95.543 E.06261
G1 X112.913 Y96.784 E.05262
G1 X111.396 Y98.082 E.06261
G1 X109.719 Y99.166 E.06261
G1 X92.938 Y108.417 E.60081
G1 X91.791 Y108.713 E.03714
G1 X88.209 Y108.713 E.11229
G1 X87.062 Y108.417 E.03714
G1 X70.403 Y99.237 E.5964
G1 X68.862 Y98.27 E.05704
G1 X67.087 Y96.784 E.07259
G1 X65.956 Y95.543 E.05262
G1 X64.803 Y93.913 E.06261
G1 X63.753 Y91.85 E.07259
G1 X63.2 Y90.265 E.05262
G1 X62.778 Y88.314 E.06261
G1 X62.622 Y86.004 E.07259
G1 X62.776 Y84.013 E.06261
G1 X63.112 Y82.368 E.05263
G1 X63.874 Y80.182 E.07259
G1 X64.634 Y78.686 E.05262
G1 X65.75 Y77.03 E.06261
G1 X67.268 Y75.363 E.07071
M204 P1000
; printing object v2 Sonar sensor Attachment .STL id:0 copy 0
G1 E-2.24 F4200
;WIPE_START
G1 F7200
G1 X68.524 Y74.299 E-.912
;WIPE_END
G1 E-.048 F4200
G1 Z.4 F720
G1 X91.036 Y96.838 F9000
G1 Z.2 F720
G1 E3.2 F2400
M204 P600
;TYPE:Perimeter
;WIDTH:0.419999
G1 F1200
G1 X91.004 Y96.934 E.00317
G1 X91.004 Y101.477 E.14244
G1 X91.032 Y101.653 E.00558
G1 X91.166 Y101.873 E.00808
G1 X91.435 Y102.026 E.00972
G1 X91.57 Y102.043 E.00425
G1 X96.51 Y102.039 E.1549
G1 X96.889 Y102.009 E.01193
G1 X96.561 Y102.208 E.01203
G1 X91.552 Y105.548 E.18878
G1 X88.448 Y105.548 E.09734
G1 X83.439 Y102.208 E.18878
G1 X83.103 Y102.022 E.01202
G1 X83.454 Y102.039 E.011
G1 X88.43 Y102.043 E.15604
G1 X88.565 Y102.026 E.00425
G1 X88.834 Y101.873 E.00972
G1 X88.968 Y101.653 E.00808
G1 X88.996 Y101.477 E.00558
G1 X88.996 Y96.934 E.14244
G1 X88.883 Y96.595 E.01122
;WIDTH:0.46396
G1 X88.77 Y96.516 E.00482
;WIDTH:0.507921
G1 X88.657 Y96.438 E.00532
;WIDTH:0.551882
G1 X88.544 Y96.359 E.00583
;WIDTH:0.595842
G1 X88.431 Y96.28 E.00633
G1 X88.594 Y96.258 E.00758
;WIDTH:0.551882
G1 X88.758 Y96.237 E.00698
;WIDTH:0.507921
G1 X88.921 Y96.215 E.00637
;WIDTH:0.46396
G1 X89.084 Y96.193 E.00577
;WIDTH:0.419999
G1 X90.916 Y96.193 E.05742
;WIDTH:0.466437
G1 X91.051 Y96.216 E.00482
;WIDTH:0.512874
G1 X91.186 Y96.239 E.00535
;WIDTH:0.559311
G1 X91.321 Y96.262 E.00588
;WIDTH:0.605748
G1 X91.455 Y96.285 E.00641
G1 X91.371 Y96.363 E.00537
;WIDTH:0.559311
G1 X91.286 Y96.44 E.00492
;WIDTH:0.512874
G1 X91.201 Y96.517 E.00448
;WIDTH:0.466437
G1 X91.117 Y96.595 E.00404
;WIDTH:0.419999
G1 X91.055 Y96.781 E.00617
M204 P1000
G1 E-2.24 F4200
;WIPE_START
G1 F7200
G1 X91.004 Y96.934 E-.08921
G1 X91.004 Y98.419 E-.82279
;WIPE_END
G1 E-.048 F4200
G1 Z.4 F720
G1 X93.522 Y96.264 F9000
G1 Z.2 F720
G1 E3.2 F2400
M204 P600
;WIDTH:0.629348
G1 F1200
G1 X93.584 Y96.232 E.00341
;WIDTH:0.585748
G1 X93.646 Y96.2 E.00316
;WIDTH:0.542147
G1 X93.708 Y96.168 E.0029
;WIDTH:0.498546
G1 X93.771 Y96.136 E.00265
;WIDTH:0.454945
G1 X93.833 Y96.104 E.0024
;WIDTH:0.411344
G1 X93.895 Y96.072 E.00214
;WIDTH:0.398386
G1 X94.111 Y96.025 E.00654
;WIDTH:0.419999
G1 X94.809 Y95.651 E.02483
G1 X95.245 Y95.215 E.01935
G1 X95.402 Y94.968 E.00915
G1 X95.657 Y94.443 E.01832
G1 X100.757 Y94.443 E.15992
G1 X102.066 Y94.775 E.04232
G1 X103.435 Y94.893 E.04309
G1 X104.994 Y94.765 E.04904
G1 X106.415 Y94.393 E.04606
G1 X107.754 Y93.788 E.04606
G1 X108.972 Y92.967 E.04606
G1 X109.972 Y92.025 E.04309
G1 X110.915 Y90.776 E.04904
G1 X111.584 Y89.469 E.04606
G1 X112.025 Y88.067 E.04606
G1 X112.219 Y86.706 E.04309
G1 X112.213 Y86.188 E.01625
M73 P3 R15
G1 X112.177 Y85.143 E.03279
G1 X111.91 Y83.795 E.04309
G1 X111.396 Y82.419 E.04606
G1 X110.603 Y81.071 E.04904
G1 X109.65 Y79.953 E.04606
G1 X108.523 Y79.01 E.04606
G1 X107.254 Y78.269 E.04606
G1 X105.971 Y77.778 E.04309
G1 X104.558 Y77.488 E.04523
G1 X104.433 Y77.472 E.00393
G1 X102.915 Y77.445 E.04763
G1 X101.515 Y77.65 E.04436
G1 X100.205 Y78.067 E.04309
G1 X98.815 Y78.784 E.04904
G1 X97.717 Y79.61 E.04309
G1 X96.642 Y80.746 E.04904
G1 X95.832 Y81.972 E.04606
G1 X95.239 Y83.316 E.04606
G1 X94.896 Y84.646 E.04309
G1 X94.827 Y85.37 E.0228
G1 X85.173 Y85.37 E.30267
G1 X85.104 Y84.646 E.0228
G1 X84.73 Y83.226 E.04606
G1 X84.122 Y81.888 E.04606
G1 X83.299 Y80.671 E.04606
G1 X82.284 Y79.61 E.04605
G1 X81.104 Y78.733 E.04607
G1 X79.795 Y78.067 E.04606
G1 X78.389 Y77.628 E.04618
G1 X76.884 Y77.434 E.04759
G1 X75.563 Y77.472 E.04143
G1 X74.029 Y77.778 E.04904
G1 X72.66 Y78.31 E.04606
G1 X71.933 Y78.74 E.02649
G1 X71.401 Y79.063 E.0195
G1 X70.283 Y80.02 E.04614
G1 X69.342 Y81.149 E.04606
G1 X68.604 Y82.419 E.04606
G1 X68.09 Y83.792 E.04596
G1 X67.813 Y85.238 E.04617
G1 X67.787 Y86.186 E.02975
G1 X67.781 Y86.706 E.01631
G1 X67.997 Y88.16 E.04606
G1 X68.452 Y89.556 E.04606
G1 X69.135 Y90.856 E.04602
G1 X70.067 Y92.062 E.04779
G1 X71.102 Y93.026 E.04436
G1 X72.33 Y93.834 E.04606
G1 X73.675 Y94.424 E.04606
G1 X75.006 Y94.765 E.04309
G1 X76.565 Y94.893 E.04904
G1 X77.934 Y94.775 E.04309
G1 X79.243 Y94.443 E.04232
G1 X84.343 Y94.443 E.15992
G1 X84.37 Y94.521 E.00261
G1 X84.755 Y95.215 E.02486
G1 X85.334 Y95.755 E.02484
G1 X85.888 Y96.026 E.01935
;WIDTH:0.39929
G1 X86.055 Y96.066 E.00508
;WIDTH:0.414647
G1 X86.126 Y96.099 E.00241
;WIDTH:0.457587
G1 X86.196 Y96.132 E.00268
;WIDTH:0.500527
G1 X86.267 Y96.165 E.00296
;WIDTH:0.543467
G1 X86.337 Y96.198 E.00324
;WIDTH:0.586407
G1 X86.408 Y96.231 E.00352
;WIDTH:0.629346
G1 X86.478 Y96.264 E.00379
G1 X86.412 Y96.286 E.00341
;WIDTH:0.585746
G1 X86.345 Y96.307 E.00316
;WIDTH:0.542145
G1 X86.279 Y96.329 E.0029
;WIDTH:0.498544
G1 X86.212 Y96.351 E.00265
;WIDTH:0.454943
G1 X86.146 Y96.373 E.0024
;WIDTH:0.411342
G1 X86.079 Y96.395 E.00214
;WIDTH:0.39929
G1 X85.804 Y96.379 E.00818
;WIDTH:0.419999
G1 X71.777 Y96.368 E.43979
G1 X70.595 Y95.622 E.04383
G1 X69.39 Y94.613 E.0493
G1 X68.33 Y93.451 E.0493
G1 X67.436 Y92.157 E.0493
G1 X66.723 Y90.756 E.0493
G1 X66.204 Y89.271 E.0493
G1 X65.895 Y87.763 E.04828
G1 X65.783 Y86.161 E.05034
G1 X65.887 Y84.593 E.04928
G1 X66.195 Y83.084 E.04828
G1 X66.72 Y81.567 E.05034
G1 X67.431 Y80.165 E.04928
G1 X68.324 Y78.871 E.0493
G1 X69.383 Y77.708 E.0493
G1 X70.587 Y76.698 E.0493
G1 X71.917 Y75.858 E.0493
G1 X73.346 Y75.203 E.0493
G1 X74.851 Y74.746 E.0493
G1 X76.403 Y74.494 E.0493
G1 X77.975 Y74.453 E.0493
G1 X79.538 Y74.622 E.0493
G1 X81.065 Y75 E.0493
G1 X82.527 Y75.578 E.0493
G1 X83.899 Y76.347 E.0493
G1 X85.155 Y77.293 E.0493
G1 X86.274 Y78.399 E.04933
G1 X87.605 Y80.101 E.06775
G1 X88.013 Y80.46 E.01704
G1 X88.474 Y80.748 E.01704
G1 X88.975 Y80.957 E.01704
G1 X89.504 Y81.082 E.01704
G1 X90.046 Y81.119 E.01704
G1 X90.587 Y81.067 E.01704
G1 X91.112 Y80.927 E.01704
G1 X91.616 Y80.699 E.01735
G1 X92.06 Y80.404 E.01672
G1 X92.462 Y80.028 E.01724
G1 X93.726 Y78.399 E.06466
G1 X94.845 Y77.293 E.04933
G1 X96.101 Y76.347 E.0493
G1 X97.473 Y75.578 E.0493
G1 X98.935 Y75 E.0493
G1 X100.462 Y74.622 E.0493
G1 X102.025 Y74.453 E.0493
G1 X103.597 Y74.494 E.0493
M73 P3 R14
G1 X105.149 Y74.746 E.0493
G1 X106.654 Y75.203 E.0493
G1 X108.083 Y75.858 E.0493
G1 X109.413 Y76.698 E.0493
G1 X110.617 Y77.708 E.0493
G1 X111.676 Y78.871 E.0493
G1 X112.569 Y80.165 E.0493
G1 X113.281 Y81.567 E.0493
G1 X113.798 Y83.052 E.0493
G1 X114.117 Y84.66 E.0514
G1 X114.217 Y86.162 E.04719
G1 X114.111 Y87.731 E.0493
G1 X113.796 Y89.271 E.0493
G1 X113.277 Y90.756 E.0493
G1 X112.564 Y92.157 E.0493
M73 P4 R14
G1 X111.67 Y93.451 E.0493
G1 X110.61 Y94.613 E.0493
G1 X109.405 Y95.622 E.0493
G1 X108.223 Y96.368 E.04383
G1 X94.813 Y96.368 E.42044
G1 X93.982 Y96.392 E.02609
;WIDTH:0.415405
G1 X93.905 Y96.371 E.00246
;WIDTH:0.458194
G1 X93.828 Y96.349 E.00275
;WIDTH:0.500982
G1 X93.752 Y96.328 E.00303
;WIDTH:0.543771
G1 X93.675 Y96.307 E.00331
;WIDTH:0.58656
G1 X93.598 Y96.285 E.0036
;WIDTH:0.629348
G1 X93.58 Y96.28 E.00095
M204 P1000
G1 E-2.24 F4200
;WIPE_START
G1 F7200
G1 X93.584 Y96.232 E-.02679
G1 X93.646 Y96.2 E-.03876
G1 X93.708 Y96.168 E-.03876
G1 X93.771 Y96.136 E-.03876
G1 X93.833 Y96.104 E-.03876
G1 X93.895 Y96.072 E-.03876
G1 X94.111 Y96.025 E-.12259
G1 X94.809 Y95.651 E-.43888
G1 X94.975 Y95.485 E-.12994
;WIPE_END
G1 E-.048 F4200
G1 Z.4 F720
G1 X91.381 Y96.934 F9000
G1 Z.2 F720
G1 E3.2 F2400
M204 P600
;TYPE:External perimeter
;WIDTH:0.419999
G1 F1200
G1 X91.381 Y101.477 E.14244
G1 X91.435 Y101.609 E.00447
G1 X91.569 Y101.665 E.00458
G1 X96.564 Y101.661 E.15659
G1 X97.518 Y101.57 E.03005
G1 X97.995 Y101.465 E.01531
G1 X98.704 Y101.465 E.02225
G1 X98.095 Y101.87 E.02294
G1 X97.213 Y102.255 E.03017
G1 X96.771 Y102.521 E.0162
G1 X91.666 Y105.925 E.19236
G1 X88.334 Y105.925 E.1045
G1 X83.229 Y102.521 E.19236
G1 X82.363 Y102.049 E.03094
G1 X81.902 Y101.868 E.01554
G1 X81.296 Y101.465 E.02281
G1 X82.009 Y101.465 E.02237
G1 X82.944 Y101.636 E.02978
G1 X83.454 Y101.661 E.01603
G1 X88.431 Y101.665 E.15604
G1 X88.545 Y101.627 E.00379
G1 X88.619 Y101.477 E.00524
G1 X88.619 Y96.934 E.14244
G1 X88.582 Y96.821 E.00374
G1 X88.431 Y96.745 E.00529
G1 X71.668 Y96.745 E.52558
G1 X70.372 Y95.928 E.04804
G1 X69.128 Y94.886 E.05089
G1 X68.034 Y93.686 E.05089
G1 X67.111 Y92.351 E.05089
G1 X66.375 Y90.904 E.05089
G1 X65.84 Y89.372 E.05089
G1 X65.521 Y87.814 E.04986
G1 X65.405 Y86.162 E.05193
G1 X65.513 Y84.543 E.05088
G1 X65.831 Y82.985 E.04986
G1 X66.372 Y81.419 E.05193
G1 X67.106 Y79.972 E.05088
G1 X68.028 Y78.636 E.05089
G1 X69.121 Y77.436 E.05089
G1 X70.364 Y76.392 E.05089
G1 X71.737 Y75.525 E.05089
G1 X73.212 Y74.85 E.05089
G1 X74.765 Y74.378 E.05089
G1 X76.368 Y74.118 E.05089
G1 X77.99 Y74.075 E.05089
G1 X79.604 Y74.25 E.05089
G1 X81.18 Y74.64 E.05089
G1 X82.689 Y75.237 E.05089
G1 X84.105 Y76.03 E.05089
G1 X85.402 Y77.007 E.05089
G1 X86.556 Y78.148 E.0509
G1 X87.794 Y79.744 E.06331
G1 X88.193 Y80.124 E.01728
G1 X88.588 Y80.382 E.0148
G1 X89.038 Y80.581 E.01542
G1 X89.505 Y80.701 E.01511
G1 X89.985 Y80.743 E.01511
G1 X90.465 Y80.706 E.01511
G1 X90.933 Y80.591 E.01511
G1 X91.376 Y80.402 E.01511
G1 X91.785 Y80.142 E.0152
G1 X92.164 Y79.797 E.01605
G1 X93.444 Y78.148 E.06544
G1 X94.598 Y77.007 E.0509
G1 X95.895 Y76.03 E.05089
G1 X97.311 Y75.237 E.05089
G1 X98.82 Y74.64 E.05089
G1 X100.396 Y74.25 E.05089
G1 X102.01 Y74.075 E.05089
G1 X103.632 Y74.118 E.05089
G1 X105.235 Y74.378 E.05089
G1 X106.788 Y74.85 E.05089
G1 X108.263 Y75.525 E.05089
G1 X109.636 Y76.392 E.05089
G1 X110.879 Y77.436 E.05089
G1 X111.972 Y78.636 E.05089
G1 X112.894 Y79.972 E.05089
G1 X113.629 Y81.419 E.05089
G1 X114.163 Y82.952 E.05089
G1 X114.469 Y84.452 E.04799
G1 X114.595 Y86.162 E.05378
G1 X114.486 Y87.782 E.05089
G1 X114.16 Y89.372 E.05089
G1 X113.625 Y90.904 E.05089
G1 X112.889 Y92.351 E.05089
G1 X111.966 Y93.686 E.05089
G1 X110.872 Y94.886 E.05089
G1 X109.628 Y95.928 E.05089
G1 X108.332 Y96.745 E.04804
G1 X91.569 Y96.745 E.52558
G1 X91.418 Y96.821 E.00529
M73 P5 R14
G1 X91.4 Y96.877 E.00186
M204 P1000
G1 X90.994 Y97.038 F9000
G1 E-2.24 F4200
;WIPE_START
G1 F7200
G1 X91.393 Y98.523 E-.912
;WIPE_END
G1 E-.048 F4200
G1 Z.4 F720
G1 X84.643 Y94.065 F9000
G1 Z.2 F720
G1 E3.2 F2400
M204 P600
G1 F1200
G1 X79.194 Y94.065 E.17083
G1 X77.902 Y94.399 E.04185
G1 X76.533 Y94.517 E.04309
G1 X75.131 Y94.405 E.04408
G1 X73.769 Y94.059 E.04408
G1 X72.483 Y93.489 E.04408
G1 X71.311 Y92.712 E.04408
G1 X70.326 Y91.787 E.04238
G1 X69.437 Y90.629 E.04577
G1 X68.787 Y89.383 E.04407
G1 X68.356 Y88.045 E.04408
G1 X68.155 Y86.653 E.04408
G1 X68.189 Y85.248 E.04408
G1 X68.468 Y83.837 E.04507
G1 X68.957 Y82.553 E.04309
G1 X69.667 Y81.34 E.04408
G1 X70.571 Y80.263 E.04408
G1 X71.644 Y79.352 E.04411
G1 X72.852 Y78.635 E.04406
G1 X74.195 Y78.121 E.04507
G1 X75.542 Y77.852 E.04309
G1 X76.894 Y77.811 E.0424
G1 X78.339 Y78.002 E.04571
G1 X79.681 Y78.426 E.04412
G1 X80.931 Y79.068 E.04408
G1 X82.057 Y79.911 E.04409
G1 X83.045 Y80.955 E.04507
G1 X83.808 Y82.098 E.04309
G1 X84.387 Y83.383 E.04417
G1 X84.739 Y84.741 E.04399
G1 X84.827 Y85.747 E.03168
G1 X95.173 Y85.747 E.3244
G1 X95.261 Y84.741 E.03168
G1 X95.604 Y83.41 E.04309
G1 X96.176 Y82.126 E.04408
G1 X96.955 Y80.955 E.04408
G1 X97.943 Y79.911 E.04507
G1 X99.042 Y79.085 E.04309
G1 X100.29 Y78.438 E.04408
G1 X101.629 Y78.009 E.04408
G1 X102.967 Y77.818 E.04238
G1 X104.484 Y77.857 E.04757
G1 X105.836 Y78.13 E.04325
G1 X107.12 Y78.621 E.04309
G1 X108.331 Y79.334 E.04408
G1 X109.406 Y80.24 E.04408
G1 X110.314 Y81.314 E.04408
G1 X111.043 Y82.553 E.04507
G1 X111.541 Y83.868 E.04408
G1 X111.807 Y85.216 E.04309
G1 X111.836 Y86.198 E.03081
G1 X111.845 Y86.653 E.01426
G1 X111.651 Y88.014 E.04309
G1 X111.225 Y89.354 E.04408
G1 X110.58 Y90.603 E.04408
G1 X109.714 Y91.75 E.04507
G1 X108.714 Y92.693 E.04309
G1 X107.545 Y93.474 E.04408
G1 X106.261 Y94.048 E.04408
G1 X104.9 Y94.399 E.04408
G1 X103.499 Y94.517 E.04408
G1 X102.098 Y94.399 E.04408
G1 X100.806 Y94.065 E.04185
G1 X95.357 Y94.065 E.17083
G1 X95.294 Y94.35 E.00914
G1 X95.013 Y94.9 E.01936
G1 X94.543 Y95.384 E.02118
G1 X93.945 Y95.699 E.02117
G1 X93.259 Y95.815 E.02183
G1 X86.741 Y95.815 E.20435
G1 X86.16 Y95.725 E.01844
G1 X85.505 Y95.419 E.02267
G1 X85.021 Y94.948 E.02118
G1 X84.706 Y94.35 E.02119
G1 X84.656 Y94.124 E.00726
M204 P1000
G1 X84.326 Y94.31 F9000
G1 E-2.24 F4200
;WIPE_START
G1 F7200
G1 X83.01 Y94.106 E-.912
;WIPE_END
G1 E-.048 F4200
G1 Z.4 F720
G1 X93.522 Y96.264 F9000
G1 Z.2 F720
G1 E3.2 F2400
M204 P600
;TYPE:Perimeter
;WIDTH:0.629348
G1 F1200
G1 X93.259 Y96.28 E.01286
;WIDTH:0.595844
G1 X91.569 Y96.28 E.07767
;WIDTH:0.605748
G1 X91.455 Y96.285 E.00533
M204 P1000
G1 E-2.24 F4200
;WIPE_START
G1 F7200
G1 X91.569 Y96.28 E-.06311
G1 X93.101 Y96.28 E-.84889
;WIPE_END
G1 E-.048 F4200
G1 Z.4 F720
G1 X88.431 Y96.28 F9000
G1 Z.2 F720
G1 E3.2 F2400
M204 P600
;WIDTH:0.595844
G1 F1200
G1 X86.741 Y96.28 E.07767
;WIDTH:0.629346
G1 X86.478 Y96.264 E.01286
M204 P1000
G1 E-2.24 F4200
;WIPE_START
G1 F7200
G1 X86.741 Y96.28 E-.14612
G1 X88.123 Y96.28 E-.76588
;WIPE_END
G1 E-.048 F4200
G1 Z.4 F720
G1 X90.251 Y96.362 F9000
G1 Z.2 F720
G1 E3.2 F2400
M204 P600
;TYPE:Solid infill
;WIDTH:0.429104
G1 F1200
G1 X90.698 Y96.809 E.02028
G1 X90.664 Y96.91 E.00341
G1 X90.664 Y97.321 E.01322
G1 X89.875 Y96.532 E.03585
G1 X89.329 Y96.532 E.01754
