;FLAVOR:Marlin
;TIME:13691
;Filament used: 10.2714m
;Layer height: 0.15
;MINX:45.617
;MINY:22.755
;MINZ:0.2
;MAXX:204.358
;MAXY:181.531
;MAXZ:6.35
;Generated with Cura_SteamEngine 5.3.1
M82 ;absolute extrusion mode
G21 ; set units to millimeters
G90 ; use absolute positioning
M82 ; absolute extrusion mode
M104 S210.0 ; set extruder temp
M140 S60.0 ; set bed temp
M190 S60.0 ; wait for bed temp
M109 S210.0 ; wait for extruder temp
G28 W ; home all without mesh bed level
G80 ; mesh bed leveling
G92 E0.0 ; reset extruder distance position
G1 Y-3.0 F1000.0 ; go outside print area
G1 X60.0 E9.0 F1000.0 ; intro line
G1 X100.0 E21.5 F1000.0 ; intro line
G92 E0.0 ; reset extruder distance position
G92 E0
G92 E0
G1 F2100 E-0.8
;LAYER_COUNT:38
;LAYER:0
M107
M204 S1000
M205 X10 Y10
G1 F600 Z0.8
G0 F10800 X62.285 Y53.44 Z0.8
M205 X8 Y8
;TYPE:SKIRT
G1 F600 Z0.2
G1 F2100 E0
G1 F1500 X66.911 Y48.048 E0.22448
G1 X67.353 Y47.547 E0.24559
G1 X67.785 Y47.106 E0.2651
G1 X72.677 Y42.455 E0.47838
G1 X73.413 Y41.783 E0.50987
G1 X78.954 Y37.492 E0.73131
G1 X79.732 Y36.907 E0.76207
G1 X85.768 Y33.143 E0.98683
G1 X86.344 Y32.795 E1.0081
G1 X86.846 Y32.524 E1.02612
G1 X92.967 Y29.521 E1.24155
G1 X93.555 Y29.243 E1.2621
G1 X94.14 Y29.002 E1.28209
G1 X100.406 Y26.681 E1.49323
G1 X101.423 Y26.327 E1.52725
G1 X108.247 Y24.56 E1.74998
G1 X108.877 Y24.407 E1.77047
G1 X109.51 Y24.286 E1.79083
G1 X116.168 Y23.266 E2.00366
G1 X116.826 Y23.175 E2.02465
G1 X117.368 Y23.115 E2.04188
G1 X119.469 Y22.948 E2.10847
G1 X120.365 Y22.889 E2.13684
G1 X124.238 Y22.764 E2.25928
G1 X125.196 Y22.755 E2.28955
G1 X125.8 Y22.779 E2.30865
G1 X132.22 Y23.105 E2.51177
G1 X132.964 Y23.155 E2.53533
G1 X133.468 Y23.214 E2.55136
G1 X140.2 Y24.245 E2.76656
G1 X140.871 Y24.359 E2.78806
G1 X141.419 Y24.479 E2.80579
G1 X147.912 Y26.16 E3.01771
G1 X148.841 Y26.422 E3.04821
G1 X149.328 Y26.59 E3.06449
G1 X155.503 Y28.878 E3.27256
G1 X156.199 Y29.148 E3.29615
G1 X156.874 Y29.454 E3.31957
G1 X162.778 Y32.351 E3.52737
G1 X163.688 Y32.82 E3.55971
G1 X169.621 Y36.517 E3.7806
G1 X170.498 Y37.087 E3.81364
G1 X176.06 Y41.391 E4.03586
G1 X176.649 Y41.867 E4.05979
G1 X177.516 Y42.653 E4.09677
G1 X181.364 Y46.272 E4.26368
G1 X182.072 Y46.961 E4.29489
G1 X182.601 Y47.521 E4.31923
G1 X183.098 Y48.087 E4.34303
G1 X187.261 Y52.936 E4.54497
G1 X187.707 Y53.472 E4.567
G1 X188.03 Y53.901 E4.58397
G1 X191.885 Y59.439 E4.79717
G1 X192.47 Y60.314 E4.83043
G1 X195.867 Y66.435 E5.05162
G1 X196.356 Y67.355 E5.08454
G1 X199.135 Y73.833 E5.30727
G1 X199.401 Y74.492 E5.32972
G1 X199.794 Y75.651 E5.36839
G1 X201.47 Y80.933 E5.54349
G1 X201.769 Y81.936 E5.57656
G1 X202.049 Y83.068 E5.61341
G1 X202.506 Y85.025 E5.6769
G1 X202.778 Y86.264 E5.71699
G1 X203.027 Y87.566 E5.75887
G1 X203.31 Y89.168 E5.81027
G1 X203.507 Y90.381 E5.8491
G1 X203.659 Y91.515 E5.88525
G1 X203.946 Y93.917 E5.96169
G1 X204.047 Y94.879 E5.99225
G1 X204.219 Y97.198 E6.06573
G1 X204.322 Y99.096 E6.12579
G1 X204.358 Y100.507 E6.17039
G1 X204.308 Y105.134 E6.31659
G1 X204.287 Y105.966 E6.34289
G1 X204.188 Y107.668 E6.39676
G1 X204.093 Y108.926 E6.43662
G1 X203.949 Y110.343 E6.48163
G1 X203.743 Y112.13 E6.53847
G1 X203.538 Y113.706 E6.58868
G1 X203.4 Y114.608 E6.61751
G1 X203.161 Y115.972 E6.66127
G1 X202.87 Y117.514 E6.71085
G1 X202.43 Y119.608 E6.77846
G1 X202.053 Y121.224 E6.83089
G1 X201.881 Y121.92 E6.85355
G1 X201.71 Y122.515 E6.87311
G1 X199.691 Y128.948 E7.08615
G1 X199.36 Y129.929 E7.11886
G1 X196.621 Y136.312 E7.33833
G1 X196.313 Y137.003 E7.36223
G1 X196.055 Y137.511 E7.38024
G1 X192.754 Y143.459 E7.59518
G1 X192.425 Y144.032 E7.61606
G1 X192.037 Y144.629 E7.63855
G1 X188.27 Y150.04 E7.84688
G1 X187.696 Y150.84 E7.87799
G1 X183.065 Y156.237 E8.10269
G1 X182.623 Y156.738 E8.1238
G1 X182.21 Y157.161 E8.14248
G1 X177.336 Y161.796 E8.35501
G1 X176.556 Y162.509 E8.3884
G1 X171.022 Y166.794 E8.60955
G1 X170.176 Y167.422 E8.64284
G1 X164.208 Y171.142 E8.86504
G1 X163.632 Y171.49 E8.88631
G1 X163.131 Y171.761 E8.9043
G1 X157.03 Y174.754 E9.11903
G1 X156.418 Y175.043 E9.14041
G1 X155.846 Y175.279 E9.15996
G1 X149.529 Y177.62 E9.37283
G1 X148.87 Y177.854 E9.39492
G1 X148.304 Y178.023 E9.41359
G1 X141.786 Y179.711 E9.62633
G1 X140.776 Y179.951 E9.65913
G1 X133.836 Y181.016 E9.88098
G1 X133.157 Y181.11 E9.90264
G1 X132.59 Y181.16 E9.92063
G1 X125.777 Y181.505 E10.13617
G1 X125.061 Y181.531 E10.15881
G1 X124.466 Y181.522 E10.17762
G1 X117.767 Y181.183 E10.38956
G1 X116.784 Y181.115 E10.42069
G1 X109.805 Y180.044 E10.64379
G1 X109.138 Y179.932 E10.66516
G1 X108.503 Y179.792 E10.6857
G1 X101.985 Y178.103 E10.89846
G1 X101.032 Y177.836 E10.92973
G1 X94.499 Y175.416 E11.14986
G1 X93.576 Y175.061 E11.18111
G1 X87.2 Y171.935 E11.40548
G1 X86.358 Y171.508 E11.43531
G1 X80.355 Y167.768 E11.65879
G1 X79.72 Y167.36 E11.68264
G1 X79.272 Y167.04 E11.70003
G1 X73.924 Y162.9 E11.91373
G1 X73.371 Y162.459 E11.93608
G1 X72.988 Y162.124 E11.95216
G1 X68.05 Y157.432 E12.16739
G1 X67.526 Y156.92 E12.19053
G1 X67.135 Y156.497 E12.20873
G1 X62.715 Y151.349 E12.42313
G1 X62.269 Y150.813 E12.44516
G1 X61.946 Y150.384 E12.46213
G1 X58.088 Y144.844 E12.67544
G1 X57.675 Y144.232 E12.69877
G1 X57.374 Y143.733 E12.71718
G1 X54.108 Y137.85 E12.92979
G1 X53.764 Y137.21 E12.95275
G1 X53.511 Y136.675 E12.97145
G1 X50.84 Y130.45 E13.18548
G1 X50.503 Y129.635 E13.21335
G1 X48.335 Y122.732 E13.44197
G1 X48.028 Y121.661 E13.47717
G1 X47.475 Y119.296 E13.55391
G1 X47.23 Y118.172 E13.59026
G1 X46.793 Y115.853 E13.66483
G1 X46.562 Y114.526 E13.70739
G1 X46.424 Y113.609 E13.73669
G1 X46.235 Y112.16 E13.78286
G1 X46.018 Y110.283 E13.84256
G1 X45.889 Y109.016 E13.8828
G1 X45.787 Y107.669 E13.92549
G1 X45.724 Y106.653 E13.95765
G1 X45.676 Y105.641 E13.98966
G1 X45.617 Y100.904 E14.13935
G1 X45.619 Y100.063 E14.16592
G1 X45.657 Y98.918 E14.20212
G1 X45.757 Y97.202 E14.25643
G1 X45.899 Y95.278 E14.31739
G1 X45.982 Y94.341 E14.34711
G1 X46.427 Y90.728 E14.46214
G1 X46.548 Y89.867 E14.48961
G1 X46.632 Y89.355 E14.506
G1 X46.998 Y87.293 E14.57218
G1 X47.156 Y86.461 E14.59893
G1 X47.456 Y85.084 E14.64346
G1 X47.951 Y82.973 E14.71197
G1 X48.188 Y82.029 E14.74273
G1 X50.281 Y75.346 E14.96401
G1 X50.575 Y74.458 E14.99356
G1 X53.364 Y67.954 E15.21717
G1 X53.793 Y67.005 E15.25007
G1 X57.223 Y60.823 E15.47346
G1 X57.559 Y60.239 E15.49475
G1 X57.895 Y59.72 E15.51428
G1 X61.707 Y54.244 E15.7251
G1 X62.285 Y53.44 E15.75639
M205 X10 Y10
G1 F2100 E14.95639
G1 F600 Z0.8
;MESH:Lily Bottom Flex.STL
G0 F10800 X75.136 Y104.142 Z0.8
M204 S800
M205 X8 Y8
;TYPE:WALL-INNER
G1 F600 Z0.2
G1 F2100 E15.75639
G1 F1500 X75.549 Y104.078 E15.7696
G1 X75.872 Y103.913 E15.78106
G1 X76.188 Y103.573 E15.79572
G1 X76.333 Y103.222 E15.80772
G1 X76.374 Y102.868 E15.81898
G1 X76.357 Y102.664 E15.82545
G1 X76.213 Y102.24 E15.8396
G1 X75.999 Y101.956 E15.85084
G1 X75.622 Y101.705 E15.86515
G1 X75.139 Y101.608 E15.88071
G1 X74.948 Y101.627 E15.88678
G1 X74.595 Y101.753 E15.89862
G1 X74.253 Y102.017 E15.91227
G1 X74.021 Y102.371 E15.92565
G1 X73.918 Y102.887 E15.94227
G1 X73.935 Y103.093 E15.9488
G1 X74.088 Y103.534 E15.96355
G1 X74.175 Y103.673 E15.96873
G1 X74.45 Y103.939 E15.98082
G1 X74.788 Y104.096 E15.9926
G1 X75.136 Y104.142 E16.00369
M204 S1000
M205 X10 Y10
G0 F10800 X75.14 Y104.546
M204 S800
M205 X8 Y8
;TYPE:WALL-OUTER
G1 F1500 X75.673 Y104.464 E16.02073
G1 X76.096 Y104.248 E16.03574
G1 X76.283 Y104.089 E16.04349
G1 X76.524 Y103.794 E16.05553
G1 X76.727 Y103.306 E16.07223
G1 X76.776 Y102.874 E16.08597
G1 X76.751 Y102.582 E16.09523
G1 X76.577 Y102.066 E16.11243
G1 X76.261 Y101.65 E16.12894
G1 X75.802 Y101.344 E16.14637
G1 X75.558 Y101.258 E16.15454
G1 X75.145 Y101.206 E16.1677
G1 X74.86 Y101.233 E16.17674
G1 X74.401 Y101.398 E16.19215
G1 X73.956 Y101.741 E16.20991
G1 X73.659 Y102.193 E16.227
G1 X73.569 Y102.455 E16.23575
G1 X73.516 Y102.879 E16.24925
G1 X73.541 Y103.175 E16.25864
G1 X73.724 Y103.708 E16.27644
G1 X73.862 Y103.927 E16.28462
G1 X74.22 Y104.273 E16.30035
G1 X74.675 Y104.484 E16.3162
G1 X75.14 Y104.546 E16.33102
M204 S1000
M205 X10 Y10
G0 F10800 X75.337 Y104.516
G0 X75.136 Y103.758
M205 X8 Y8
;TYPE:SKIN
G1 F1500 X74.895 Y103.724 E16.33871
G1 X74.665 Y103.617 E16.34673
G1 X74.487 Y103.445 E16.35455
G1 X74.308 Y103.008 E16.36947
G1 X74.371 Y102.533 E16.38461
G1 X74.539 Y102.278 E16.39426
G1 X74.776 Y102.095 E16.40372
G1 X75.144 Y101.995 E16.41577
G1 X75.464 Y102.055 E16.42606
G1 X75.74 Y102.24 E16.43656
G1 X75.869 Y102.414 E16.4434
G1 X75.978 Y102.732 E16.45402
G1 X75.957 Y103.137 E16.46684
G1 X75.863 Y103.365 E16.47463
G1 X75.648 Y103.6 E16.48469
G1 X75.428 Y103.712 E16.49249
G1 X75.136 Y103.758 E16.50183
M205 X10 Y10
G0 F10800 X74.527 Y102.811
M205 X8 Y8
G1 F1500 X75.251 Y103.535 E16.53419
M205 X10 Y10
G0 F10800 X75.617 Y103.335
M205 X8 Y8
G1 F1500 X74.693 Y102.411 E16.57548
M205 X10 Y10
G0 F10800 X75.069 Y102.222
M205 X8 Y8
G1 F1500 X75.767 Y102.92 E16.60667
G1 X75.837 Y102.99
M205 X10 Y10
G1 F2100 E15.80667
G1 F600 Z0.8
G0 F10800 X75.794 Y116.767 Z0.8
M204 S800
M205 X8 Y8
;TYPE:WALL-OUTER
G1 F600 Z0.2
G1 F2100 E16.60667
G1 F1500 X76.209 Y116.539 E16.62163
G1 X76.352 Y116.406 E16.6278
G1 X76.631 Y115.963 E16.64434
G1 X76.714 Y115.731 E16.65213
G1 X76.777 Y115.256 E16.66727
G1 X76.755 Y114.992 E16.67564
G1 X76.595 Y114.501 E16.69195
G1 X76.394 Y114.208 E16.70318
G1 X76.024 Y113.914 E16.71811
G1 X75.795 Y113.819 E16.72595
G1 X75.794 Y116.767 E16.81909
M204 S1000
M205 X10 Y10
G0 F10800 X75.969 Y116.671
G0 X76.259 Y115.622
M204 S800
M205 X8 Y8
;TYPE:WALL-INNER
G1 F1092.9 X76.278 Y115.087 E16.84231
M204 S1000
M205 X10 Y10
G1 F2100 E16.04231
G1 F600 Z0.8
G0 F10800 X74.398 Y115.172 Z0.8
M204 S800
M205 X8 Y8
G1 F600 Z0.2
G1 F2100 E16.84231
G1 F1354.4 X74.407 Y114.892 E16.85211
G1 F1382.5 X74.407 Y114.275 E16.87327
G1 X74.112 Y114.542 E16.88691
G1 X73.979 Y114.833 E16.89788
G1 F1366.7 X73.959 Y115.378 E16.91679
G1 F1348.3 X74.112 Y115.829 E16.93353
G1 X74.291 Y116.07 E16.94408
G1 X74.402 Y116.158 E16.94906
G1 F1339.3 X74.398 Y115.172 E16.98395
M204 S1000
M205 X10 Y10
G1 F2100 E16.18395
G1 F600 Z0.8
G0 F10800 X74.822 Y117.681 Z0.8
M204 S800
M205 X8 Y8
;TYPE:WALL-OUTER
G1 F600 Z0.2
G1 F2100 E16.98395
G1 F1600 X74.841 Y116.86 E17.00828
G1 F1570.7 X74.826 Y116.502 E17.01909
G1 F1507.5 X74.824 Y113.66 E17.10844
G1 F1500 X74.279 Y113.846 E17.12664
G1 X73.894 Y114.146 E17.14206
G1 X73.753 Y114.322 E17.14919
G1 X73.573 Y114.718 E17.16293
G1 X73.517 Y115.159 E17.17698
G1 X73.543 Y115.464 E17.18665
G1 X73.733 Y116.028 E17.20545
G1 X73.986 Y116.368 E17.21885
G1 F1507.5 X74.413 Y116.703 E17.23591
G1 F1550.4 X74.485 Y116.892 E17.24209
G1 F1566.6 X74.172 Y117.519 E17.26329
G1 F1522.8 X74.024 Y117.566 E17.26813
G1 F1500 X73.562 Y117.314 E17.28475
G1 X73.247 Y117.045 E17.29784
G1 X72.98 Y116.722 E17.31108
G1 X72.81 Y116.432 E17.32171
G1 X72.667 Y116.08 E17.33371
G1 X72.576 Y115.693 E17.34627
G1 X72.544 Y115.21 E17.36157
G1 X72.577 Y114.767 E17.3756
G1 X72.77 Y114.104 E17.39742
G1 X72.963 Y113.772 E17.40956
G1 X73.188 Y113.501 E17.42068
G1 X73.528 Y113.21 E17.43483
G1 X73.925 Y112.971 E17.44947
G1 X74.312 Y112.812 E17.46269
G1 X74.714 Y112.717 E17.47574
G1 X75.148 Y112.689 E17.48948
G1 X75.62 Y112.729 E17.50445
G1 X75.979 Y112.818 E17.51613
G1 X76.413 Y113.004 E17.53105
G1 X76.791 Y113.253 E17.54536
G1 X77.104 Y113.535 E17.55867
G1 X77.523 Y114.145 E17.58205
G1 X77.726 Y114.853 E17.60532
G1 X77.717 Y115.68 E17.63146
G1 X77.627 Y116.059 E17.64376
G1 X77.488 Y116.402 E17.65546
G1 X77.096 Y116.957 E17.67693
G1 X76.745 Y117.272 E17.69183
G1 X76.405 Y117.49 E17.70459
G1 F1315.8 X75.594 Y117.819 E17.73612
G1 F1200 X75.024 Y117.854 E17.75867
G1 F1376.1 X74.822 Y117.681 E17.76783
M204 S1000
M205 X10 Y10
G0 F10800 X74.826 Y117.481
G1 F2100 E16.96783
G1 F600 Z0.8
G0 F10800 X72.628 Y118.503 Z0.8
M204 S800
M205 X8 Y8
G1 F600 Z0.2
G1 F2100 E17.76783
G1 F1500 X72.784 Y118.391 E17.7739
G1 X74.421 Y118.386 E17.82562
G1 F1351.4 X75.024 Y118.343 E17.84683
G1 F1200 X75.616 Y118.33 E17.87021
G1 F1315.8 X76.085 Y118.387 E17.88723
G1 F1500 X77.493 Y118.388 E17.93172
G1 X77.612 Y118.449 E17.93595
G1 X77.664 Y118.552 E17.93959
G1 X77.665 Y119.186 E17.95962
G1 X77.625 Y119.28 E17.96285
G1 X77.466 Y119.357 E17.96843
G1 X77.36 Y119.361 E17.97179
G1 X77.611 Y119.724 E17.98573
G1 X77.708 Y119.973 E17.99417
G1 X77.745 Y120.328 E18.00545
G1 X77.681 Y120.647 E18.01573
G1 X77.557 Y120.896 E18.02452
G1 X77.463 Y120.973 E18.02836
G1 X77.296 Y120.964 E18.03365
G1 X76.778 Y120.636 E18.05302
G1 X76.703 Y120.529 E18.05715
G1 X76.774 Y120.168 E18.06877
G1 X76.693 Y119.922 E18.07696
G1 X76.444 Y119.67 E18.08815
G1 X75.931 Y119.456 E18.10571
G1 X75.286 Y119.378 E18.12624
G1 X74.466 Y119.358 E18.15216
G1 X72.808 Y119.357 E18.20455
G1 X72.705 Y119.317 E18.20804
G1 X72.629 Y119.194 E18.21261
G1 X72.628 Y118.503 E18.23444
M204 S1000
M205 X10 Y10
G0 F10800 X72.784 Y118.391
G0 X72.792 Y118.391
G1 F2100 E17.43444
G1 F600 Z0.8
G0 F10800 X66.568 Y121.295 Z0.8
M204 S800
M205 X8 Y8
G1 F600 Z0.2
G1 F2100 E18.23444
G1 F1500 X65.999 Y121.192 E18.25271
G1 X65.746 Y121.073 E18.26154
G1 X65.321 Y120.723 E18.27894
G1 X65.136 Y120.461 E18.28908
G1 X64.945 Y119.94 E18.30661
G1 X64.941 Y119.366 E18.32475
G1 X65.131 Y118.831 E18.34269
G1 X65.303 Y118.582 E18.35225
G1 X65.742 Y118.214 E18.37035
G1 X66 Y118.093 E18.37935
G1 X66.56 Y117.989 E18.39735
G1 X67.108 Y118.085 E18.41493
G1 X67.389 Y118.212 E18.42467
G1 X67.833 Y118.577 E18.44283
G1 X68.117 Y119.07 E18.46081
G1 X68.219 Y119.635 E18.47895
G1 X68.123 Y120.209 E18.49734
G1 X67.839 Y120.696 E18.51515
G1 X67.394 Y121.071 E18.53354
G1 X67.143 Y121.189 E18.5423
G1 X66.568 Y121.295 E18.56078
M204 S1000
M205 X10 Y10
G0 F10800 X66.372 Y121.26
G1 F2100 E17.76078
G1 F600 Z0.8
G0 F10800 X76.872 Y109.55 Z0.8
M204 S800
M205 X8 Y8
G1 F600 Z0.2
G1 F2100 E18.56078
G1 F1222 X76.872 Y109.55
G1 F1348.3 X77.538 Y109.607 E18.58427
G1 F1500 X77.666 Y109.715 E18.58957
G1 X77.666 Y110.409 E18.61149
G1 X79.373 Y110.409 E18.66543
G1 X79.498 Y110.487 E18.67009
G1 X79.535 Y110.572 E18.67302
G1 X79.536 Y111.214 E18.6933
G1 X79.496 Y111.303 E18.69638
G1 X79.365 Y111.378 E18.70115
G1 X77.666 Y111.379 E18.75484
G1 X77.666 Y111.993 E18.77424
G1 X77.627 Y112.113 E18.77822
G1 X77.529 Y112.191 E18.78218
G1 X76.821 Y112.193 E18.80455
G1 X76.697 Y112.063 E18.81023
G1 X76.696 Y111.379 E18.83184
G1 X72.786 Y111.38 E18.95539
G1 X72.704 Y111.339 E18.95828
G1 X72.627 Y111.205 E18.96317
G1 X72.629 Y110.573 E18.98314
G1 X72.665 Y110.488 E18.98605
G1 X72.776 Y110.408 E18.99038
G1 X76.696 Y110.409 E19.11424
G1 X76.696 Y109.744 E19.13525
G1 F1418.4 X76.796 Y109.596 E19.14122
G1 F1282.1 X76.872 Y109.55 E19.1445
M204 S1000
M205 X10 Y10
G0 F10800 X77.071 Y109.567
G0 X76.892 Y109.062
M204 S800
M205 X8 Y8
G1 F1351.4 X76.747 Y108.962 E19.15068
G1 F1500 X76.301 Y108.521 E19.1705
G1 X76.303 Y108.355 E19.17574
G1 X76.714 Y107.86 E19.19607
G1 X76.771 Y107.629 E19.20359
G1 X76.73 Y107.461 E19.20905
G1 X76.567 Y107.289 E19.21654
G1 X76.461 Y107.245 E19.22017
G1 X76.272 Y107.24 E19.22614
G1 X76.147 Y107.286 E19.23035
G1 X75.958 Y107.443 E19.23811
G1 X75.663 Y107.893 E19.25512
G1 X75.317 Y108.441 E19.27559
G1 X74.92 Y108.849 E19.29358
G1 X74.513 Y109.039 E19.30777
G1 X74.111 Y109.098 E19.32061
G1 X73.62 Y109.031 E19.33627
G1 X73.189 Y108.826 E19.35135
G1 X72.774 Y108.378 E19.37065
G1 X72.599 Y107.979 E19.38441
G1 X72.543 Y107.536 E19.39852
G1 X72.648 Y106.911 E19.41855
G1 X72.919 Y106.398 E19.43688
G1 F1411.8 X73.334 Y105.99 E19.45642
G1 F1401.9 X73.508 Y106.06 E19.46276
G1 F1488.8 X73.936 Y106.441 E19.481
G1 F1500 X74.003 Y106.599 E19.48642
G1 X73.974 Y106.699 E19.48971
G1 X73.648 Y107.076 E19.50546
G1 X73.541 Y107.328 E19.51411
G1 X73.518 Y107.507 E19.51981
G1 X73.55 Y107.73 E19.52693
G1 X73.628 Y107.882 E19.53233
G1 X73.775 Y108.032 E19.53896
G1 X74.047 Y108.125 E19.54805
G1 X74.302 Y108.061 E19.55635
G1 X74.474 Y107.91 E19.56359
G1 X75.087 Y106.929 E19.60014
G1 X75.471 Y106.528 E19.61768
G1 X75.97 Y106.298 E19.63504
G1 X76.304 Y106.258 E19.64567
G1 X76.61 Y106.28 E19.65536
G1 X77.02 Y106.416 E19.66901
G1 X77.352 Y106.659 E19.68201
G1 X77.598 Y106.985 E19.69492
