; generated by PrusaSlicer 2.5.0+win64 on 2023-03-21 at 19:15:57 UTC


;
;
; 

; external perimeters extrusion width = 0.45mm
; perimeters extrusion width = 0.45mm
; infill extrusion width = 0.45mm
; solid infill extrusion width = 0.45mm
; top infill extrusion width = 0.40mm
; first layer extrusion width = 0.42mm

M73 P0 R80
M73 Q0 S81
M201 X1000 Y1000 Z200 E5000 ; sets maximum accelerations, mm/sec^2
M203 X200 Y200 Z12 E120 ; sets maximum feedrates, mm / sec
M204 P1250 R1250 T1250 ; sets acceleration (P, T) and retract acceleration (R), mm/sec^2
M205 X8.00 Y8.00 Z0.40 E4.50 ; sets the jerk limits, mm/sec
M205 S0 T0 ; sets the minimum extruding and travel feed rate, mm/sec
M107
;TYPE:Custom
M862.3 P "MK3S" ; printer model check
M862.1 P0.4 ; nozzle diameter check
M115 U3.11.0 ; tell printer latest fw version
G90 ; use absolute coordinates
M83 ; extruder relative mode
M104 S215 ; set extruder temp
M140 S60 ; set bed temp
M190 S60 ; wait for bed temp
M109 S215 ; wait for extruder temp
G28 W ; home all without mesh bed level
G80 ; mesh bed leveling

G1 Z0.2 F720
G1 Y-3 F1000 ; go outside print area
G92 E0
G1 X60 E9 F1000 ; intro line
G1 X100 E12.5 F1000 ; intro line

G92 E0
M221 S95

; Don't change E values below. Excessive value can damage the printer.
M907 E430 ; set extruder motor current
G21 ; set units to millimeters
G90 ; use absolute coordinates
M83 ; use relative distances for extrusion
M900 K0.05 ; Filament gcode LA 1.5
M900 K30 ; Filament gcode LA 1.0
M107
;LAYER_CHANGE
;Z:0.2
;HEIGHT:0.2
;BEFORE_LAYER_CHANGE
G92 E0.0
;0.2


G1 E-.8 F2100
G1 Z.4 F720
;AFTER_LAYER_CHANGE
;0.2
G1 X89.015 Y56.693 F10800
G1 Z.2 F720
G1 E.8 F2100
M204 S800
;TYPE:Skirt/Brim
;WIDTH:0.42
G1 F1200
G1 X90.06 Y55.817 E.04278
G1 X91 Y55.623 E.03008
G1 X159 Y55.623 E2.13209
G1 X160.307 Y56.015 E.04278
G1 X161.183 Y57.06 E.04278
G1 X161.377 Y58 E.03008
G1 X161.377 Y152 E2.9473
G1 X160.985 Y153.307 E.04278
G1 X159.94 Y154.183 E.04278
G1 X159 Y154.377 E.03008
G1 X91 Y154.377 E2.13209
G1 X89.693 Y153.985 E.04278
G1 X88.817 Y152.94 E.04278
G1 X88.623 Y152 E.03008
G1 X88.623 Y58 E2.9473
G1 X88.997 Y56.75 E.0409
M204 S1000
; printing object Lily Battery holder.STL id:0 copy 0
;WIPE_START
G1 F8640
G1 X90.06 Y55.817 E-.32671
G1 X91 Y55.623 E-.22155
G1 X91.917 Y55.623 E-.21174
;WIPE_END
G1 E-.04 F2100
G1 Z.6 F720
G1 X158.24 Y106.852 F10800
G1 Z.2 F720
G1 E.8 F2100
M204 S800
;TYPE:Perimeter
;WIDTH:0.419999
G1 F1200
G1 X158.213 Y108 E.03598
G1 X158.213 Y151.213 E1.35492
G1 X91.787 Y151.213 E2.08273
M73 Q0 S80
G1 X91.787 Y108 E1.35492
G1 X91.74 Y106.863 E.03567
G1 X92.132 Y107.09 E.0142
G1 X92.53 Y107.23 E.01324
G1 X92.944 Y107.284 E.01308
G1 X93.346 Y107.26 E.01263
G1 X93.735 Y107.165 E.01256
G1 X94.1 Y107.004 E.0125
G1 X94.432 Y106.783 E.0125
G1 X94.719 Y106.507 E.0125
G1 X94.955 Y106.186 E.0125
G1 X95.131 Y105.828 E.0125
G1 X95.251 Y105.41 E.01363
G1 X95.279 Y104.902 E.01597
G1 X95.175 Y104.313 E.01875
G1 X95.004 Y103.9 E.01401
G1 X94.783 Y103.568 E.0125
G1 X94.507 Y103.281 E.0125
G1 X94.186 Y103.045 E.0125
G1 X93.828 Y102.869 E.0125
G1 X93.294 Y102.738 E.01723
G1 X92.614 Y102.75 E.02134
G1 X92.132 Y102.91 E.01593
G1 X91.733 Y103.174 E.01498
G1 X91.754 Y103.02 E.00487
G1 X91.787 Y102 E.032
G1 X91.787 Y58.787 E1.35492
G1 X158.213 Y58.787 E2.08273
G1 X158.213 Y101.243 E1.33118
G1 X158.219 Y102.532 E.0404
G1 X158.267 Y103.174 E.0202
G1 X158.21 Y103.12 E.00245
G1 X157.773 Y102.866 E.01586
G1 X157.303 Y102.743 E.01521
G1 X156.706 Y102.738 E.01874
G1 X156.265 Y102.835 E.01415
G1 X155.9 Y102.996 E.0125
G1 X155.568 Y103.217 E.0125
G1 X155.281 Y103.493 E.0125
G1 X155.045 Y103.814 E.0125
G1 X154.869 Y104.172 E.0125
G1 X154.758 Y104.555 E.0125
G1 X154.714 Y104.951 E.0125
G1 X154.74 Y105.348 E.0125
G1 X154.835 Y105.735 E.0125
G1 X154.996 Y106.1 E.0125
G1 X155.217 Y106.432 E.0125
G1 X155.493 Y106.719 E.0125
G1 X155.814 Y106.955 E.0125
G1 X156.172 Y107.131 E.0125
G1 X156.555 Y107.242 E.0125
G1 X156.953 Y107.285 E.01256
G1 X157.386 Y107.25 E.01362
G1 X157.868 Y107.09 E.01593
G1 X158.189 Y106.885 E.01194
M204 S1000
;WIPE_START
G1 F8640
G1 X158.213 Y108 E-.2575
G1 X158.213 Y110.176 E-.5025
;WIPE_END
G1 E-.04 F2100
G1 Z.6 F720
G1 X158.748 Y105.04 F10800
G1 Z.2 F720
G1 E.8 F2100
M204 S800
;TYPE:External perimeter
;WIDTH:0.503333
G1 F1200
G1 X158.769 Y105.511 E.01806
;WIDTH:0.461666
G1 X158.79 Y105.983 E.01643
;WIDTH:0.419999
G1 X158.681 Y106.635 E.02073
G1 X158.612 Y107.321 E.02163
G1 X158.59 Y108 E.02129
G1 X158.59 Y151.59 E1.36674
G1 X91.41 Y151.59 E2.10638
G1 X91.41 Y108.031 E1.36575
G1 X91.375 Y106.967 E.0334
M73 P1 R80
M73 Q1 S80
G1 X91.212 Y105.997 E.03082
G1 X91.21 Y105.569 E.01343
;WIDTH:0.461666
G1 X91.231 Y105.304 E.00924
;WIDTH:0.503333
G1 X91.252 Y105.04 E.01016
G1 X91.328 Y105.324 E.01126
;WIDTH:0.461666
G1 X91.403 Y105.609 E.01024
;WIDTH:0.419999
G1 X91.783 Y106.331 E.02559
G1 X92.026 Y106.585 E.01102
G1 X92.321 Y106.764 E.01082
G1 X92.644 Y106.871 E.01067
G1 X92.981 Y106.908 E.01063
G1 X93.315 Y106.884 E.01048
G1 X93.638 Y106.801 E.01046
G1 X93.941 Y106.662 E.01044
G1 X94.215 Y106.474 E.01044
G1 X94.453 Y106.24 E.01044
G1 X94.646 Y105.969 E.01044
G1 X94.789 Y105.669 E.01044
G1 X94.878 Y105.348 E.01044
G1 X94.908 Y104.967 E.01198
G1 X94.804 Y104.378 E.01875
G1 X94.662 Y104.059 E.01094
G1 X94.474 Y103.785 E.01044
G1 X94.24 Y103.547 E.01044
G1 X93.969 Y103.354 E.01044
G1 X93.669 Y103.211 E.01044
G1 X93.297 Y103.115 E.01202
G1 X92.7 Y103.12 E.01874
G1 X92.359 Y103.22 E.01113
G1 X92.064 Y103.386 E.0106
G1 X91.783 Y103.669 E.01251
G1 X91.385 Y104.446 E.02739
;WIDTH:0.461709
G1 X91.318 Y104.703 E.00924
;WIDTH:0.503418
G1 X91.252 Y104.96 E.01016
G1 X91.231 Y104.489 E.01806
;WIDTH:0.461709
G1 X91.21 Y104.017 E.01643
;WIDTH:0.419999
G1 X91.319 Y103.365 E.02073
G1 X91.388 Y102.679 E.02162
G1 X91.41 Y102 E.02129
G1 X91.41 Y58.41 E1.36674
G1 X158.59 Y58.41 E2.10638
G1 X158.59 Y101.5 E1.35105
M73 P1 R79
G1 X158.621 Y102.966 E.04599
G1 X158.79 Y104.032 E.03384
G1 X158.79 Y104.431 E.0125
;WIDTH:0.46171
G1 X158.769 Y104.696 E.00924
;WIDTH:0.50342
G1 X158.748 Y104.96 E.01016
G1 X158.672 Y104.676 E.01127
;WIDTH:0.46171
G1 X158.597 Y104.391 E.01025
;WIDTH:0.419999
G1 X158.217 Y103.669 E.02559
G1 X157.974 Y103.415 E.01102
G1 X157.679 Y103.236 E.01082
G1 X157.3 Y103.12 E.01242
G1 X156.703 Y103.116 E.01874
G1 X156.362 Y103.199 E.01099
G1 X156.059 Y103.338 E.01044
G1 X155.785 Y103.526 E.01044
G1 X155.547 Y103.76 E.01044
G1 X155.354 Y104.031 E.01044
G1 X155.211 Y104.331 E.01044
G1 X155.122 Y104.652 E.01044
G1 X155.09 Y104.984 E.01044
G1 X155.116 Y105.316 E.01044
G1 X155.199 Y105.638 E.01044
G1 X155.338 Y105.941 E.01044
G1 X155.526 Y106.215 E.01044
G1 X155.76 Y106.453 E.01044
G1 X156.031 Y106.646 E.01044
G1 X156.331 Y106.789 E.01044
G1 X156.652 Y106.878 E.01044
G1 X156.985 Y106.909 E.01046
G1 X157.318 Y106.879 E.01048
G1 X157.641 Y106.78 E.01061
G1 X157.936 Y106.614 E.0106
G1 X158.217 Y106.331 E.01251
G1 X158.615 Y105.554 E.02739
;WIDTH:0.461666
G1 X158.682 Y105.297 E.00924
;WIDTH:0.503333
G1 X158.733 Y105.098 E.00786
M204 S1000
;WIPE_START
G1 F8640
G1 X158.769 Y105.511 E-.09577
G1 X158.79 Y105.983 E-.10892
G1 X158.681 Y106.635 E-.15267
G1 X158.612 Y107.321 E-.15929
G1 X158.59 Y108 E-.15676
G1 X158.59 Y108.375 E-.08659
;WIPE_END
G1 E-.04 F2100
G1 Z.6 F720
G1 X157.337 Y58.9 F10800
G1 Z.2 F720
G1 E.8 F2100
M204 S800
;TYPE:Solid infill
;WIDTH:0.420221
G1 F1200
G1 X157.93 Y59.493 E.02631
G1 X157.93 Y60.027 E.01674
G1 X156.973 Y59.07 E.04246
G1 X156.44 Y59.07 E.01674
G1 X157.93 Y60.56 E.06613
G1 X157.93 Y61.094 E.01674
G1 X155.906 Y59.07 E.08981
G1 X155.372 Y59.07 E.01674
G1 X157.93 Y61.628 E.11348
G1 X157.93 Y62.161 E.01674
G1 X154.839 Y59.07 E.13715
G1 X154.305 Y59.07 E.01674
G1 X157.93 Y62.695 E.16083
G1 X157.93 Y63.228 E.01674
G1 X153.772 Y59.07 E.1845
G1 X153.238 Y59.07 E.01674
G1 X157.93 Y63.762 E.20818
G1 X157.93 Y64.296 E.01674
G1 X152.704 Y59.07 E.23185
G1 X152.171 Y59.07 E.01674
G1 X157.93 Y64.829 E.25552
G1 X157.93 Y65.363 E.01674
G1 X151.637 Y59.07 E.2792
G1 X151.104 Y59.07 E.01674
G1 X157.93 Y65.896 E.30287
G1 X157.93 Y66.43 E.01674
G1 X150.57 Y59.07 E.32654
G1 X150.037 Y59.07 E.01674
G1 X157.93 Y66.963 E.35022
G1 X157.93 Y67.497 E.01674
G1 X149.503 Y59.07 E.37389
G1 X148.969 Y59.07 E.01674
G1 X157.93 Y68.031 E.39757
G1 X157.93 Y68.564 E.01674
G1 X148.436 Y59.07 E.42124
G1 X147.902 Y59.07 E.01674
G1 X157.93 Y69.098 E.44491
G1 X157.93 Y69.631 E.01674
G1 X147.369 Y59.07 E.46859
G1 X146.835 Y59.07 E.01674
G1 X157.93 Y70.165 E.49226
G1 X157.93 Y70.699 E.01674
G1 X146.301 Y59.07 E.51594
G1 X145.768 Y59.07 E.01674
G1 X157.93 Y71.232 E.53961
G1 X157.93 Y71.766 E.01674
G1 X145.234 Y59.07 E.56328
G1 X144.701 Y59.07 E.01674
G1 X157.93 Y72.299 E.58696
G1 X157.93 Y72.833 E.01674
G1 X144.167 Y59.07 E.61063
G1 X143.634 Y59.07 E.01674
G1 X157.93 Y73.366 E.63431
G1 X157.93 Y73.9 E.01674
G1 X143.1 Y59.07 E.65798
G1 X142.566 Y59.07 E.01674
G1 X157.93 Y74.434 E.68165
G1 X157.93 Y74.967 E.01674
G1 X142.033 Y59.07 E.70533
G1 X141.499 Y59.07 E.01674
G1 X157.93 Y75.501 E.729
G1 X157.93 Y76.034 E.01674
G1 X140.966 Y59.07 E.75268
G1 X140.432 Y59.07 E.01674
G1 X157.93 Y76.568 E.77635
G1 X157.93 Y77.102 E.01674
G1 X139.898 Y59.07 E.80002
G1 X139.365 Y59.07 E.01674
G1 X157.93 Y77.635 E.8237
G1 X157.93 Y78.169 E.01674
G1 X138.831 Y59.07 E.84737
G1 X138.298 Y59.07 E.01674
M73 Q1 S79
G1 X157.93 Y78.702 E.87104
G1 X157.93 Y79.236 E.01674
G1 X137.764 Y59.07 E.89472
G1 X137.231 Y59.07 E.01674
G1 X157.93 Y79.769 E.91839
G1 X157.93 Y80.303 E.01674
G1 X136.697 Y59.07 E.94207
G1 X136.163 Y59.07 E.01674
G1 X157.93 Y80.837 E.96574
G1 X157.93 Y81.37 E.01674
G1 X135.63 Y59.07 E.98941
G1 X135.096 Y59.07 E.01674
G1 X157.93 Y81.904 E1.01309
G1 X157.93 Y82.437 E.01674
G1 X134.563 Y59.07 E1.03676
G1 X134.029 Y59.07 E.01674
M73 P2 R79
M73 Q2 S79
G1 X157.93 Y82.971 E1.06044
G1 X157.93 Y83.505 E.01674
G1 X133.495 Y59.07 E1.08411
G1 X132.962 Y59.07 E.01674
G1 X157.93 Y84.038 E1.10778
G1 X157.93 Y84.572 E.01674
G1 X132.428 Y59.07 E1.13146
G1 X131.895 Y59.07 E.01674
G1 X157.93 Y85.105 E1.15513
G1 X157.93 Y85.639 E.01674
G1 X131.361 Y59.07 E1.17881
G1 X130.828 Y59.07 E.01674
G1 X157.93 Y86.172 E1.20248
G1 X157.93 Y86.706 E.01674
G1 X130.294 Y59.07 E1.22615
G1 X129.76 Y59.07 E.01674
G1 X157.93 Y87.24 E1.24983
G1 X157.93 Y87.773 E.01674
M73 P2 R78
G1 X129.227 Y59.07 E1.2735
G1 X128.693 Y59.07 E.01674
G1 X157.93 Y88.307 E1.29717
G1 X157.93 Y88.84 E.01674
G1 X128.16 Y59.07 E1.32085
G1 X127.626 Y59.07 E.01674
G1 X157.93 Y89.374 E1.34452
G1 X157.93 Y89.908 E.01674
G1 X127.092 Y59.07 E1.3682
G1 X126.559 Y59.07 E.01674
G1 X157.93 Y90.441 E1.39187
G1 X157.93 Y90.975 E.01674
G1 X126.025 Y59.07 E1.41554
G1 X125.492 Y59.07 E.01674
G1 X157.93 Y91.508 E1.43922
G1 X157.93 Y92.042 E.01674
G1 X124.958 Y59.07 E1.46289
G1 X124.425 Y59.07 E.01674
G1 X157.93 Y92.575 E1.48657
G1 X157.93 Y93.109 E.01674
G1 X123.891 Y59.07 E1.51024
G1 X123.357 Y59.07 E.01674
G1 X157.93 Y93.643 E1.53391
G1 X157.93 Y94.176 E.01674
G1 X122.824 Y59.07 E1.55759
G1 X122.29 Y59.07 E.01674
M73 Q2 S78
G1 X157.93 Y94.71 E1.58126
G1 X157.93 Y95.243 E.01674
M73 P3 R78
M73 Q3 S78
G1 X121.757 Y59.07 E1.60494
G1 X121.223 Y59.07 E.01674
G1 X157.93 Y95.777 E1.62861
G1 X157.93 Y96.311 E.01674
G1 X120.689 Y59.07 E1.65228
G1 X120.156 Y59.07 E.01674
G1 X157.93 Y96.844 E1.67596
G1 X157.93 Y97.378 E.01674
G1 X119.622 Y59.07 E1.69963
G1 X119.089 Y59.07 E.01674
G1 X157.93 Y97.911 E1.72331
G1 X157.93 Y98.445 E.01674
G1 X118.555 Y59.07 E1.74698
G1 X118.022 Y59.07 E.01674
G1 X157.93 Y98.978 E1.77065
G1 X157.93 Y99.512 E.01674
G1 X117.488 Y59.07 E1.79433
G1 X116.954 Y59.07 E.01674
G1 X157.93 Y100.046 E1.818
G1 X157.93 Y100.579 E.01674
M73 P3 R77
G1 X116.421 Y59.07 E1.84167
G1 X115.887 Y59.07 E.01674
G1 X157.93 Y101.113 E1.86535
G1 X157.932 Y101.649 E.01681
G1 X115.354 Y59.07 E1.88913
G1 X114.82 Y59.07 E.01674
G1 X157.941 Y102.191 E1.91318
G1 X157.948 Y102.64 E.01409
G1 X157.792 Y102.576 E.00528
G1 X114.286 Y59.07 E1.93025
G1 X113.753 Y59.07 E.01674
G1 X157.142 Y102.459 E1.92508
G1 X156.616 Y102.466 E.01651
G1 X113.219 Y59.07 E1.92541
G1 X112.686 Y59.07 E.01674
M73 P4 R77
M73 Q4 S78
G1 X156.181 Y102.565 E1.92979
G1 X155.817 Y102.735 E.0126
G1 X112.152 Y59.07 E1.93732
G1 X111.619 Y59.07 E.01674
G1 X155.483 Y102.934 E1.94616
G1 X155.343 Y103.035 E.00541
M73 Q4 S77
G1 X155.195 Y103.18 E.0065
G1 X111.085 Y59.07 E1.95707
G1 X110.551 Y59.07 E.01674
G1 X154.951 Y103.47 E1.96993
G1 X154.737 Y103.79 E.01207
G1 X110.018 Y59.07 E1.98411
G1 X109.484 Y59.07 E.01674
G1 X154.574 Y104.16 E2.00053
G1 X154.482 Y104.488 E.01069
G1 X154.472 Y104.591 E.00325
G1 X108.951 Y59.07 E2.01967
G1 X108.417 Y59.07 E.01674
G1 X154.629 Y105.282 E2.05032
M204 S1000
;WIPE_START
G1 F8640
G1 X152.302 Y102.954 E-.76
;WIPE_END
G1 E-.04 F2100
G1 Z.6 F720
G1 X157.693 Y107.278 F10800
G1 Z.2 F720
G1 E.8 F2100
M204 S800
G1 F1200
G1 X157.945 Y107.531 E.01122
G1 X157.93 Y108.05 E.01628
G1 X157.411 Y107.53 E.02305
G1 X156.912 Y107.565 E.01569
G1 X157.93 Y108.583 E.04519
G1 X157.93 Y109.117 E.01674
G1 X156.27 Y107.457 E.07366
G1 X156.185 Y107.436 E.00275
G1 X155.659 Y107.191 E.01822
G1 X155.343 Y106.965 E.01218
G1 X155.076 Y106.702 E.01177
G1 X154.768 Y106.276 E.01647
G1 X154.587 Y105.888 E.01344
G1 X154.543 Y105.73 E.00515
G1 X107.883 Y59.07 E2.07018
G1 X107.35 Y59.07 E.01674
G1 X157.93 Y109.65 E2.24415
G1 X157.93 Y110.184 E.01674
G1 X106.816 Y59.07 E2.26782
G1 X106.283 Y59.07 E.01674
M73 P4 R76
G1 X157.93 Y110.718 E2.29149
G1 X157.93 Y111.251 E.01674
G1 X105.749 Y59.07 E2.31517
G1 X105.216 Y59.07 E.01674
M73 P5 R76
M73 Q5 S77
G1 X157.93 Y111.785 E2.33884
G1 X157.93 Y112.318 E.01674
G1 X104.682 Y59.07 E2.36251
G1 X104.148 Y59.07 E.01674
G1 X157.93 Y112.852 E2.38619
G1 X157.93 Y113.386 E.01674
G1 X103.615 Y59.07 E2.40986
G1 X103.081 Y59.07 E.01674
G1 X157.93 Y113.919 E2.43353
G1 X157.93 Y114.453 E.01674
G1 X102.548 Y59.07 E2.45721
G1 X102.014 Y59.07 E.01674
M73 Q5 S76
G1 X157.93 Y114.986 E2.48088
G1 X157.93 Y115.52 E.01674
G1 X101.48 Y59.07 E2.50456
G1 X100.947 Y59.07 E.01674
G1 X157.93 Y116.053 E2.52823
G1 X157.93 Y116.587 E.01674
G1 X100.413 Y59.07 E2.5519
G1 X99.88 Y59.07 E.01674
G1 X157.93 Y117.121 E2.57558
G1 X157.93 Y117.654 E.01674
G1 X99.346 Y59.07 E2.59925
G1 X98.812 Y59.07 E.01674
M73 P6 R76
G1 X157.93 Y118.188 E2.62292
G1 X157.93 Y118.721 E.01674
M73 P6 R75
M73 Q6 S76
G1 X98.279 Y59.07 E2.6466
G1 X97.745 Y59.07 E.01674
G1 X157.93 Y119.255 E2.67027
G1 X157.93 Y119.788 E.01674
G1 X97.212 Y59.07 E2.69395
G1 X96.678 Y59.07 E.01674
G1 X157.93 Y120.322 E2.71762
G1 X157.93 Y120.856 E.01674
G1 X96.145 Y59.07 E2.74129
G1 X95.611 Y59.07 E.01674
G1 X157.93 Y121.389 E2.76497
G1 X157.93 Y121.923 E.01674
G1 X95.077 Y59.07 E2.78864
G1 X94.544 Y59.07 E.01674
M73 Q6 S75
G1 X157.93 Y122.456 E2.81231
G1 X157.93 Y122.99 E.01674
G1 X94.01 Y59.07 E2.83599
G1 X93.477 Y59.07 E.01674
G1 X157.93 Y123.524 E2.85966
G1 X157.93 Y124.057 E.01674
M73 P7 R75
G1 X92.943 Y59.07 E2.88334
G1 X92.409 Y59.07 E.01674
M73 Q7 S75
G1 X157.93 Y124.591 E2.90701
G1 X157.93 Y125.124 E.01674
G1 X92.07 Y59.264 E2.92208
G1 X92.07 Y59.797 E.01674
M73 P7 R74
G1 X157.93 Y125.658 E2.92208
G1 X157.93 Y126.191 E.01674
G1 X92.07 Y60.331 E2.92208
G1 X92.07 Y60.865 E.01674
G1 X157.93 Y126.725 E2.92208
G1 X157.93 Y127.259 E.01674
G1 X92.07 Y61.398 E2.92208
G1 X92.07 Y61.932 E.01674
G1 X157.93 Y127.792 E2.92208
G1 X157.93 Y128.326 E.01674
G1 X92.07 Y62.465 E2.92208
G1 X92.07 Y62.999 E.01674
G1 X157.93 Y128.859 E2.92208
G1 X157.93 Y129.393 E.01674
M73 Q7 S74
G1 X92.07 Y63.532 E2.92208
G1 X92.07 Y64.066 E.01674
M73 P8 R74
M73 Q8 S74
G1 X157.93 Y129.927 E2.92208
G1 X157.93 Y130.46 E.01674
G1 X92.07 Y64.6 E2.92208
G1 X92.07 Y65.133 E.01674
G1 X157.93 Y130.994 E2.92208
G1 X157.93 Y131.527 E.01674
G1 X92.07 Y65.667 E2.92208
G1 X92.07 Y66.2 E.01674
G1 X157.93 Y132.061 E2.92208
G1 X157.93 Y132.594 E.01674
M73 P8 R73
G1 X92.07 Y66.734 E2.92208
G1 X92.07 Y67.268 E.01674
G1 X157.93 Y133.128 E2.92208
G1 X157.93 Y133.662 E.01674
G1 X92.07 Y67.801 E2.92208
G1 X92.07 Y68.335 E.01674
G1 X157.93 Y134.195 E2.92208
G1 X157.93 Y134.729 E.01674
G1 X92.07 Y68.868 E2.92208
