;FLAVOR:Marlin
;TIME:13544
;Filament used: 10.1011m
;Layer height: 0.15
;MINX:45.698
;MINY:23.074
;MINZ:0.2
;MAXX:204.302
;MAXY:181.851
;MAXZ:5.6
;Generated with Cura_SteamEngine 5.3.1
M82 ;absolute extrusion mode
G21 ; set units to millimeters
G90 ; use absolute positioning
M82 ; absolute extrusion mode
M104 S210.0 ; set extruder temp
M140 S60.0 ; set bed temp
M190 S60.0 ; wait for bed temp
M109 S210.0 ; wait for extruder temp
G28 W ; home all without mesh bed level
G80 ; mesh bed leveling
G92 E0.0 ; reset extruder distance position
G1 Y-3.0 F1000.0 ; go outside print area
G1 X60.0 E9.0 F1000.0 ; intro line
G1 X100.0 E21.5 F1000.0 ; intro line
G92 E0.0 ; reset extruder distance position
G92 E0
G92 E0
G1 F2100 E-0.8
;LAYER_COUNT:34
;LAYER:0
M107
M204 S1000
M205 X10 Y10
G1 F600 Z0.8
G0 F10800 X62.298 Y53.759 Z0.8
M205 X8 Y8
;TYPE:SKIRT
G1 F600 Z0.2
G1 F2100 E0
G1 F1500 X66.927 Y48.364 E0.22461
G1 X67.422 Y47.806 E0.24818
G1 X67.883 Y47.312 E0.26953
G1 X69.034 Y46.149 E0.32123
G1 X69.906 Y45.299 E0.35971
G1 X70.614 Y44.626 E0.39058
G1 X71.821 Y43.516 E0.44239
G1 X72.945 Y42.516 E0.48993
G1 X74.195 Y41.503 E0.54076
G1 X78.942 Y37.829 E0.73043
G1 X79.566 Y37.361 E0.75508
G1 X80.024 Y37.052 E0.77253
G1 X85.78 Y33.463 E0.98687
G1 X86.356 Y33.115 E1.00813
G1 X86.858 Y32.844 E1.02615
G1 X92.979 Y29.841 E1.24158
G1 X93.567 Y29.563 E1.26213
G1 X94.152 Y29.322 E1.28213
G1 X100.418 Y27.001 E1.49326
G1 X101.435 Y26.647 E1.52728
G1 X108.259 Y24.88 E1.75001
G1 X108.889 Y24.727 E1.7705
G1 X109.522 Y24.606 E1.79086
G1 X116.18 Y23.586 E2.00369
G1 X116.846 Y23.494 E2.02493
G1 X117.479 Y23.439 E2.04501
G1 X124.171 Y23.1 E2.25673
G1 X124.872 Y23.074 E2.27889
G1 X125.432 Y23.081 E2.29659
G1 X132.169 Y23.418 E2.50973
G1 X133.201 Y23.49 E2.54241
G1 X140.173 Y24.559 E2.76528
G1 X141.194 Y24.737 E2.79803
G1 X148.004 Y26.502 E3.02032
G1 X148.961 Y26.77 E3.05172
G1 X155.489 Y29.189 E3.27169
G1 X156.412 Y29.544 E3.30294
G1 X162.788 Y32.67 E3.52731
G1 X163.695 Y33.136 E3.55953
G1 X169.633 Y36.837 E3.78061
G1 X170.51 Y37.406 E3.81365
G1 X176.298 Y41.885 E4.04489
G1 X177.464 Y42.881 E4.09335
G1 X178.218 Y43.551 E4.12522
G1 X179.423 Y44.661 E4.17698
G1 X180.123 Y45.327 E4.20751
G1 X181.007 Y46.189 E4.24653
G1 X182.101 Y47.296 E4.2957
G1 X182.548 Y47.772 E4.31634
G1 X183.133 Y48.433 E4.34423
G1 X187.271 Y53.255 E4.545
G1 X187.717 Y53.79 E4.56701
G1 X188.042 Y54.221 E4.58406
G1 X191.899 Y59.76 E4.79733
G1 X192.311 Y60.37 E4.82059
G1 X192.614 Y60.872 E4.83912
G1 X195.879 Y66.755 E5.05171
G1 X196.367 Y67.675 E5.08462
G1 X199.148 Y74.155 E5.30743
G1 X199.403 Y74.771 E5.32849
G1 X199.601 Y75.333 E5.34732
G1 X201.631 Y81.809 E5.56176
G1 X201.843 Y82.527 E5.58541
G1 X201.984 Y83.114 E5.60449
G1 X203.325 Y89.643 E5.81509
G1 X203.455 Y90.326 E5.83706
G1 X203.534 Y90.889 E5.85503
G1 X204.218 Y97.616 E6.06868
G1 X204.28 Y98.322 E6.09107
G1 X204.302 Y98.928 E6.11023
G1 X204.302 Y105.661 E6.32297
G1 X204.281 Y106.698 E6.35575
G1 X203.572 Y113.663 E6.57696
G1 X203.49 Y114.369 E6.59941
G1 X203.398 Y114.922 E6.61713
G1 X202.026 Y121.598 E6.83248
G1 X201.86 Y122.354 E6.85694
G1 X201.713 Y122.861 E6.87361
G1 X199.707 Y129.255 E7.08536
G1 X199.484 Y129.93 E7.10782
G1 X199.275 Y130.472 E7.12617
G1 X196.632 Y136.633 E7.338
G1 X196.202 Y137.585 E7.37101
G1 X192.766 Y143.779 E7.59481
G1 X192.437 Y144.352 E7.61569
G1 X192.049 Y144.949 E7.63819
G1 X188.282 Y150.36 E7.84651
G1 X187.708 Y151.16 E7.87762
G1 X183.077 Y156.557 E8.10233
G1 X182.635 Y157.058 E8.12344
G1 X182.222 Y157.481 E8.14212
G1 X177.348 Y162.116 E8.35464
G1 X176.568 Y162.829 E8.38803
G1 X171.034 Y167.114 E8.60918
G1 X170.188 Y167.742 E8.64247
G1 X164.22 Y171.462 E8.86468
G1 X163.644 Y171.81 E8.88594
G1 X163.143 Y172.081 E8.90394
G1 X157.044 Y175.073 E9.11859
G1 X156.433 Y175.362 E9.13995
G1 X155.848 Y175.603 E9.15994
G1 X149.582 Y177.924 E9.37107
G1 X148.565 Y178.278 E9.4051
G1 X141.741 Y180.045 E9.62783
G1 X141.111 Y180.198 E9.64831
G1 X140.478 Y180.319 E9.66867
G1 X133.82 Y181.339 E9.8815
G1 X133.154 Y181.431 E9.90275
G1 X132.521 Y181.486 E9.92282
G1 X125.825 Y181.825 E10.13467
G1 X125.103 Y181.851 E10.1575
G1 X124.555 Y181.844 E10.17481
G1 X117.752 Y181.499 E10.39004
G1 X117.041 Y181.451 E10.41256
G1 X116.54 Y181.393 E10.4285
G1 X109.803 Y180.362 E10.64384
G1 X109.146 Y180.253 E10.66489
G1 X108.473 Y180.101 E10.68669
G1 X101.999 Y178.424 E10.898
G1 X101.34 Y178.243 E10.91959
G1 X100.796 Y178.064 E10.93769
G1 X94.511 Y175.736 E11.14946
G1 X93.588 Y175.381 E11.18071
G1 X87.212 Y172.255 E11.40508
G1 X86.37 Y171.828 E11.43491
G1 X80.367 Y168.088 E11.65839
G1 X79.49 Y167.518 E11.69144
G1 X73.926 Y163.212 E11.91374
G1 X73.388 Y162.784 E11.93547
G1 X72.872 Y162.325 E11.95729
G1 X68.064 Y157.754 E12.16691
G1 X67.53 Y157.232 E12.1905
G1 X67.168 Y156.841 E12.20734
G1 X62.727 Y151.669 E12.42274
G1 X62.281 Y151.133 E12.44477
G1 X61.958 Y150.704 E12.46174
G1 X58.102 Y145.166 E12.67496
G1 X57.519 Y144.293 E12.70813
G1 X54.12 Y138.17 E12.92941
G1 X53.776 Y137.53 E12.95237
G1 X53.523 Y136.995 E12.97107
G1 X50.852 Y130.77 E13.1851
G1 X50.597 Y130.154 E13.20617
G1 X50.423 Y129.667 E13.22251
G1 X48.376 Y123.143 E13.43856
G1 X48.18 Y122.487 E13.46019
G1 X48.048 Y121.955 E13.47751
G1 X46.667 Y115.241 E13.69409
G1 X46.547 Y114.613 E13.71429
G1 X46.459 Y113.975 E13.73464
G1 X45.782 Y107.308 E13.94639
G1 X45.72 Y106.6 E13.96884
G1 X45.698 Y105.997 E13.98791
G1 X45.698 Y99.264 E14.20065
G1 X45.719 Y98.227 E14.23342
G1 X46.423 Y91.307 E14.45321
G1 X46.512 Y90.548 E14.47735
G1 X46.602 Y90.003 E14.49481
G1 X47.975 Y83.322 E14.71032
G1 X48.118 Y82.673 E14.73132
G1 X48.307 Y81.999 E14.75343
G1 X50.293 Y75.666 E14.96315
G1 X50.587 Y74.778 E14.9927
G1 X53.376 Y68.274 E15.21631
G1 X53.805 Y67.325 E15.24922
G1 X57.235 Y61.143 E15.4726
G1 X57.571 Y60.559 E15.49389
G1 X57.907 Y60.04 E15.51343
G1 X61.719 Y54.564 E15.72425
G1 X62.298 Y53.759 E15.75558
M205 X10 Y10
G1 F2100 E14.95558
G1 F600 Z0.8
;MESH:Lily top Flex.STL
G0 F10800 X74.714 Y54.281 Z0.8
M204 S800
M205 X8 Y8
;TYPE:WALL-INNER
G1 F600 Z0.2
G1 F2100 E15.75558
G1 F1500 X73.975 Y54.15 E15.77929
G1 X73.355 Y53.789 E15.80196
G1 X72.884 Y53.23 E15.82506
G1 X72.669 Y52.639 E15.84493
G1 X72.633 Y52.433 E15.85154
G1 X72.633 Y51.809 E15.87125
G1 X72.895 Y51.102 E15.89508
G1 X73.361 Y50.553 E15.91783
G1 X73.895 Y50.244 E15.93733
G1 X74.091 Y50.173 E15.94391
G1 X74.691 Y50.066 E15.96317
G1 X75.176 Y50.132 E15.97864
G1 X75.756 Y50.344 E15.99815
G1 X76.136 Y50.64 E16.01337
G1 X76.519 Y51.105 E16.0324
G1 X76.699 Y51.489 E16.0458
G1 X76.809 Y52.116 E16.06592
G1 X76.765 Y52.598 E16.08121
G1 X76.538 Y53.231 E16.10246
G1 X76.066 Y53.786 E16.12548
G1 X75.448 Y54.15 E16.14814
G1 X74.714 Y54.281 E16.1717
M204 S1000
M205 X10 Y10
G1 F2100 E15.3717
G1 F600 Z0.8
G0 F10800 X73.519 Y68.103 Z0.8
M204 S800
M205 X8 Y8
G1 F600 Z0.2
G1 F2100 E16.1717
G1 F1500 X73.775 Y67.906 E16.18191
G1 X73.976 Y67.863 E16.1884
G1 X104.444 Y67.862 E17.1511
G1 X104.331 Y67.729 E17.15662
G1 X104.071 Y67.281 E17.17298
G1 X103.999 Y67.083 E17.17964
G1 X103.909 Y66.575 E17.19594
G1 X103.908 Y66.368 E17.20248
G1 X104.016 Y65.739 E17.22265
G1 X104.376 Y65.121 E17.24525
G1 X104.937 Y64.639 E17.26862
G1 X105.633 Y64.387 E17.292
G1 X106.365 Y64.387 E17.31513
G1 X107.061 Y64.638 E17.33851
G1 X107.621 Y65.116 E17.36178
G1 X107.982 Y65.734 E17.38439
G1 X108.091 Y66.35 E17.40416
G1 X108.092 Y66.558 E17.41073
G1 X108.002 Y67.08 E17.42747
G1 X107.93 Y67.279 E17.43415
G1 X107.669 Y67.728 E17.45056
G1 X107.555 Y67.863 E17.45615
G1 X138.082 Y67.864 E18.42071
G1 X138.261 Y67.922 E18.42666
G1 X138.461 Y68.077 E18.43465
G1 X138.572 Y68.279 E18.44193
G1 X138.6 Y68.436 E18.44697
G1 X138.594 Y146.552 E20.91521
G1 X138.55 Y146.705 E20.92024
G1 X138.415 Y146.898 E20.92769
G1 X138.262 Y147.004 E20.93357
G1 X138.069 Y147.06 E20.93992
G1 X107.556 Y147.064 E21.90404
G1 X107.668 Y147.196 E21.90951
G1 X107.929 Y147.644 E21.92589
G1 X108.001 Y147.842 E21.93255
G1 X108.091 Y148.35 E21.94885
G1 X108.092 Y148.558 E21.95542
G1 X107.984 Y149.187 E21.97559
G1 X107.617 Y149.812 E21.99849
G1 X107.074 Y150.267 E22.02087
G1 X106.697 Y150.443 E22.03402
G1 X106.047 Y150.566 E22.05492
G1 X105.609 Y150.525 E22.06882
G1 X104.945 Y150.292 E22.09106
G1 X104.39 Y149.821 E22.11406
G1 X104.018 Y149.192 E22.13715
G1 X103.909 Y148.575 E22.15695
G1 X103.908 Y148.368 E22.16349
G1 X103.998 Y147.845 E22.18026
G1 X104.071 Y147.646 E22.18695
G1 X104.331 Y147.196 E22.20337
G1 X104.444 Y147.063 E22.20889
G1 X73.942 Y147.061 E23.17266
G1 X73.648 Y146.95 E23.18259
G1 X73.496 Y146.791 E23.18954
G1 X73.4 Y146.543 E23.19795
G1 X73.402 Y68.402 E25.66698
G1 X73.519 Y68.103 E25.67712
M204 S1000
M205 X10 Y10
G1 F2100 E24.87712
G1 F600 Z0.8
G0 F10800 X68.225 Y90.181 Z0.8
M204 S800
M205 X8 Y8
G1 F600 Z0.2
G1 F2100 E25.67712
G1 F1500 X68.019 Y90.32 E25.68498
G1 X67.869 Y90.363 E25.68991
G1 X53.864 Y90.363 E26.13242
G1 X53.592 Y90.255 E26.14167
G1 X53.471 Y90.143 E26.14688
G1 X53.374 Y89.974 E26.15304
G1 X53.337 Y89.763 E26.15981
G1 X53.342 Y83.334 E26.36294
G1 X53.437 Y83.08 E26.37151
G1 X53.68 Y82.87 E26.38166
G1 X53.937 Y82.813 E26.38998
G1 X67.873 Y82.818 E26.83032
G1 X68.057 Y82.873 E26.83638
G1 X68.246 Y83.018 E26.84391
G1 X68.394 Y83.301 E26.854
G1 X68.394 Y89.883 E27.06197
G1 X68.225 Y90.181 E27.0728
M204 S1000
M205 X10 Y10
G1 F2100 E26.2728
G1 F600 Z0.8
G0 F10800 X50.984 Y105.487 Z0.8
M204 S800
M205 X8 Y8
G1 F600 Z0.2
G1 F2100 E27.0728
G1 F1500 X50.812 Y105.289 E27.08109
G1 X50.74 Y105.084 E27.08795
G1 X50.74 Y99.923 E27.25102
G1 X50.812 Y99.637 E27.26034
G1 X50.984 Y99.439 E27.26863
G1 X51.34 Y99.323 E27.28046
G1 X70.484 Y99.323 E27.88536
G1 X70.673 Y99.393 E27.89172
G1 X70.825 Y99.509 E27.89777
G1 X70.944 Y99.692 E27.90466
G1 X70.99 Y99.923 E27.91211
G1 X70.99 Y105.08 E28.07505
G1 X70.944 Y105.234 E28.08013
G1 X70.825 Y105.417 E28.08703
G1 X70.673 Y105.533 E28.09307
G1 X70.484 Y105.603 E28.09944
G1 X51.34 Y105.603 E28.70433
G1 X50.984 Y105.487 E28.71616
M204 S1000
M205 X10 Y10
G1 F2100 E27.91616
G1 F600 Z0.8
G0 F10800 X53.68 Y122.056 Z0.8
M204 S800
M205 X8 Y8
G1 F600 Z0.2
G1 F2100 E28.71616
G1 F1500 X53.437 Y121.846 E28.72631
G1 X53.342 Y121.592 E28.73488
G1 X53.337 Y115.163 E28.93802
G1 X53.374 Y114.952 E28.94479
G1 X53.471 Y114.783 E28.95094
G1 X53.592 Y114.671 E28.95615
G1 X53.864 Y114.563 E28.9654
G1 X67.888 Y114.563 E29.40852
G1 X68.123 Y114.661 E29.41656
G1 X68.312 Y114.861 E29.42526
G1 X68.394 Y115.163 E29.43515
G1 X68.394 Y121.625 E29.63933
G1 X68.246 Y121.908 E29.64942
G1 X68.057 Y122.053 E29.65694
G1 X67.873 Y122.108 E29.66301
G1 X53.937 Y122.113 E30.10335
G1 X53.68 Y122.056 E30.11167
M204 S1000
M205 X10 Y10
G1 F2100 E29.31167
G1 F600 Z0.8
G0 F10800 X74.334 Y154.825 Z0.8
M204 S800
M205 X8 Y8
G1 F600 Z0.2
G1 F2100 E30.11167
G1 F1500 X73.677 Y154.586 E30.13376
G1 X73.331 Y154.335 E30.14726
G1 X72.952 Y153.89 E30.16573
G1 X72.848 Y153.709 E30.17233
G1 X72.633 Y153.113 E30.19235
G1 X72.633 Y152.492 E30.21197
G1 X72.669 Y152.286 E30.21858
G1 X72.885 Y151.693 E30.23852
G1 X73.354 Y151.137 E30.2615
G1 X73.984 Y150.77 E30.28454
G1 X74.6 Y150.66 E30.30431
G1 X74.807 Y150.66 E30.31085
G1 X75.328 Y150.75 E30.32756
G1 X75.527 Y150.823 E30.33426
G1 X75.976 Y151.084 E30.35067
G1 X76.134 Y151.217 E30.35719
G1 X76.527 Y151.686 E30.37653
G1 X76.71 Y152.131 E30.39173
G1 X76.812 Y152.698 E30.40993
G1 X76.775 Y153.136 E30.42382
G1 X76.544 Y153.774 E30.44526
G1 X76.304 Y154.12 E30.45857
G1 X75.838 Y154.518 E30.47793
G1 X75.418 Y154.736 E30.49288
G1 X74.824 Y154.842 E30.51195
G1 X74.334 Y154.825 E30.52744
M204 S1000
M205 X10 Y10
G1 F2100 E29.72744
G1 F600 Z0.8
G0 F10800 X105.836 Y174.124 Z0.8
M204 S800
M205 X8 Y8
G1 F600 Z0.2
G1 F2100 E30.52744
G1 F1500 X105.612 Y174.022 E30.53522
G1 X105.405 Y173.778 E30.54533
G1 X105.35 Y173.525 E30.55351
G1 X105.352 Y159.613 E30.99309
G1 X105.427 Y159.374 E31.001
G1 X105.669 Y159.139 E31.01166
G1 X105.905 Y159.071 E31.01942
G1 X112.333 Y159.07 E31.22253
G1 X112.488 Y159.099 E31.22751
G1 X112.724 Y159.245 E31.23628
G1 X112.827 Y159.382 E31.24169
G1 X112.9 Y159.599 E31.24893
G1 X112.9 Y173.615 E31.69179
G1 X112.837 Y173.793 E31.69776
G1 X112.728 Y173.947 E31.70372
G1 X112.545 Y174.074 E31.71076
G1 X112.313 Y174.125 E31.71826
G1 X105.836 Y174.124 E31.92292
M204 S1000
M205 X10 Y10
G1 F2100 E31.12292
G1 F600 Z0.8
G0 F10800 X122.105 Y176.608 Z0.8
M204 S800
M205 X8 Y8
G1 F600 Z0.2
G1 F2100 E31.92292
G1 F1500 X121.908 Y176.36 E31.93293
G1 X121.86 Y176.123 E31.94057
G1 X121.86 Y157.003 E32.5447
G1 X121.907 Y156.838 E32.55013
G1 X122.069 Y156.617 E32.55878
G1 X122.381 Y156.473 E32.56964
G1 X127.619 Y156.473 E32.73515
G1 X127.931 Y156.617 E32.746
G1 X128.093 Y156.838 E32.75466
G1 X128.141 Y157.007 E32.76021
G1 X128.14 Y176.123 E33.36422
G1 X128.092 Y176.359 E33.37183
G1 X127.895 Y176.608 E33.38187
G1 X127.642 Y176.723 E33.39065
G1 X122.429 Y176.723 E33.55536
G1 X122.105 Y176.608 E33.56623
M204 S1000
M205 X10 Y10
G1 F2100 E32.76623
G1 F600 Z0.8
G0 F10800 X125 Y178.062 Z0.8
M204 S800
M205 X8 Y8
G1 F600 Z0.2
G1 F2100 E33.56623
G1 F1500 X132.653 Y177.674 E33.80835
G1 X140.251 Y176.51 E34.05123
G1 X147.635 Y174.592 E34.29228
G1 X154.817 Y171.933 E34.53427
G1 X161.684 Y168.565 E34.77594
G1 X168.182 Y164.513 E35.0179
G1 X174.246 Y159.82 E35.26018
G1 X179.796 Y154.544 E35.50214
G1 X184.778 Y148.74 E35.74383
G1 X189.159 Y142.448 E35.98608
G1 X192.876 Y135.752 E36.22807
G1 X195.896 Y128.713 E36.47009
G1 X198.186 Y121.408 E36.71198
G1 X199.725 Y113.913 E36.95374
G1 X200.502 Y106.286 E37.19598
G1 X200.502 Y98.639 E37.4376
G1 X199.726 Y91.011 E37.67987
G1 X198.192 Y83.54 E37.92086
G1 X195.892 Y76.202 E38.16384
G1 X192.872 Y69.165 E38.4058
G1 X189.159 Y62.477 E38.6475
G1 X184.778 Y56.185 E38.88976
G1 X179.787 Y50.371 E39.13187
G1 X179.117 Y49.676 E39.16237
G1 X177.894 Y48.453 E39.21702
G1 X176.209 Y46.852 E39.29046
G1 X174.253 Y45.11 E39.37322
G1 X168.182 Y40.412 E39.61578
G1 X161.684 Y36.36 E39.85774
G1 X154.817 Y32.992 E40.09941
G1 X147.635 Y30.333 E40.3414
G1 X140.251 Y28.415 E40.58245
G1 X132.641 Y27.246 E40.82573
G1 X125 Y26.864 E41.06746
G1 X117.347 Y27.251 E41.30958
G1 X109.749 Y28.415 E41.55246
G1 X102.364 Y30.333 E41.79355
G1 X95.183 Y32.992 E42.0355
G1 X88.316 Y36.36 E42.27717
G1 X81.818 Y40.412 E42.51914
G1 X75.747 Y45.11 E42.76169
G1 X73.746 Y46.894 E42.8464
G1 X72.104 Y48.454 E42.91796
G1 X70.875 Y49.682 E42.97286
G1 X70.213 Y50.369 E43.003
G1 X65.222 Y56.185 E43.24516
G1 X60.841 Y62.477 E43.48741
G1 X57.124 Y69.173 E43.7294
G1 X54.104 Y76.212 E43.97142
G1 X51.814 Y83.517 E44.21331
G1 X50.275 Y91.012 E44.45507
G1 X49.498 Y98.639 E44.69731
G1 X49.499 Y106.286 E44.93894
G1 X50.274 Y113.913 E45.18117
G1 X51.814 Y121.408 E45.42294
G1 X54.104 Y128.713 E45.66483
G1 X57.124 Y135.752 E45.90685
G1 X60.841 Y142.448 E46.14883
G1 X65.222 Y148.74 E46.39109
G1 X70.204 Y154.544 E46.63277
G1 X75.754 Y159.82 E46.87473
G1 X81.818 Y164.513 E47.11701
G1 X88.316 Y168.565 E47.35898
G1 X95.183 Y171.933 E47.60065
G1 X102.364 Y174.592 E47.8426
G1 X109.749 Y176.51 E48.08369
G1 X117.347 Y177.674 E48.32657
G1 X125 Y178.062 E48.56869
M204 S1000
M205 X10 Y10
G1 F2100 E47.76869
G1 F600 Z0.8
G0 F10800 X144.387 Y174.023 Z0.8
M204 S800
M205 X8 Y8
G1 F600 Z0.2
G1 F2100 E48.56869
G1 F1500 X144.099 Y174.124 E48.57833
G1 X137.7 Y174.125 E48.78052
G1 X137.455 Y174.074 E48.78843
G1 X137.272 Y173.947 E48.79547
G1 X137.163 Y173.794 E48.8014
G1 X137.1 Y173.615 E48.8074
G1 X137.1 Y159.596 E49.25036
G1 X137.173 Y159.382 E49.2575
G1 X137.376 Y159.164 E49.26692
G1 X137.626 Y159.07 E49.27536
G1 X144.122 Y159.07 E49.48061
G1 X144.259 Y159.107 E49.48509
G1 X144.477 Y159.247 E49.49328
G1 X144.58 Y159.387 E49.49877
G1 X144.648 Y159.611 E49.50617
G1 X144.65 Y173.525 E49.94581
G1 X144.595 Y173.778 E49.95399
G1 X144.387 Y174.023 E49.96415
M204 S1000
M205 X10 Y10
G1 F2100 E49.16415
G1 F600 Z0.8
G0 F10800 X174.911 Y154.825 Z0.8
M204 S800
M205 X8 Y8
G1 F600 Z0.2
G1 F2100 E49.96415
G1 F1500 X174.244 Y154.581 E49.98659
G1 X173.864 Y154.285 E50.00181
G1 X173.481 Y153.82 E50.02084
G1 X173.301 Y153.437 E50.03421
G1 X173.191 Y152.808 E50.05439
G1 X173.221 Y152.36 E50.06858
G1 X173.462 Y151.698 E50.09084
