; generated by PrusaSlicer 2.5.0+win64 on 2023-01-11 at 20:53:53 UTC


;
;
; 

; external perimeters extrusion width = 0.45mm
; perimeters extrusion width = 0.45mm
; infill extrusion width = 0.45mm
; solid infill extrusion width = 0.45mm
; top infill extrusion width = 0.40mm
; first layer extrusion width = 0.42mm

; external perimeters extrusion width = 0.45mm
; perimeters extrusion width = 0.45mm
; infill extrusion width = 0.45mm
; solid infill extrusion width = 0.45mm
; top infill extrusion width = 0.40mm
; first layer extrusion width = 0.42mm

M73 P0 R58
M73 Q0 S58
M201 X1000 Y1000 Z200 E5000 ; sets maximum accelerations, mm/sec^2
M203 X200 Y200 Z12 E120 ; sets maximum feedrates, mm / sec
M204 P1250 R1250 T1250 ; sets acceleration (P, T) and retract acceleration (R), mm/sec^2
M205 X8.00 Y8.00 Z0.40 E4.50 ; sets the jerk limits, mm/sec
M205 S0 T0 ; sets the minimum extruding and travel feed rate, mm/sec
M107
;TYPE:Custom
M862.3 P "MK3S" ; printer model check
M862.1 P0.4 ; nozzle diameter check
M115 U3.11.0 ; tell printer latest fw version
G90 ; use absolute coordinates
M83 ; extruder relative mode
M104 S215 ; set extruder temp
M140 S60 ; set bed temp
M190 S60 ; wait for bed temp
M109 S215 ; wait for extruder temp
G28 W ; home all without mesh bed level
G80 ; mesh bed leveling

G1 Z0.2 F720
G1 Y-3 F1000 ; go outside print area
G92 E0
G1 X60 E9 F1000 ; intro line
G1 X100 E12.5 F1000 ; intro line

G92 E0
M221 S95

; Don't change E values below. Excessive value can damage the printer.
M907 E430 ; set extruder motor current
G21 ; set units to millimeters
G90 ; use absolute coordinates
M83 ; use relative distances for extrusion
M900 K0.05 ; Filament gcode LA 1.5
M900 K30 ; Filament gcode LA 1.0
M107
;LAYER_CHANGE
;Z:0.2
;HEIGHT:0.2
;BEFORE_LAYER_CHANGE
G92 E0.0
;0.2


M73 P0 R57
G1 E-.8 F2100
G1 Z.4 F720
;AFTER_LAYER_CHANGE
;0.2
G1 X103.182 Y68.959 F10800
G1 Z.2 F720
G1 E.8 F2100
M204 S800
;TYPE:Skirt/Brim
;WIDTH:0.42
G1 F1200
G1 X106.574 Y64.584 E.17357
G1 X107.133 Y64.063 E.02393
G1 X114.74 Y58.983 E.28681
G1 X116.06 Y58.583 E.04325
G1 X119.642 Y58.583 E.11229
G1 X120.474 Y58.733 E.02652
G1 X145.771 Y68.188 E.84677
G1 X146.858 Y69.013 E.04278
G1 X147.316 Y70.415 E.04625
G1 X147.316 Y149.04 E2.46523
G1 X146.924 Y150.347 E.04278
G1 X145.879 Y151.223 E.04278
G1 X144.939 Y151.417 E.03008
G1 X105.061 Y151.417 E1.25035
G1 X103.754 Y151.025 E.04278
G1 X102.878 Y149.98 E.04278
G1 X102.684 Y149.04 E.03008
G1 X102.684 Y70.415 E2.46523
G1 X103.163 Y69.015 E.04639
M204 S1000
; printing object Motor Attachment .STL id:0 copy 0
;WIPE_START
G1 F8640
G1 X105.171 Y66.407 E-.76
;WIPE_END
G1 E-.04 F2100
G1 Z.6 F720
G1 X119.371 Y65.259 F10800
G1 Z.2 F720
G1 E.8 F2100
M204 S800
;TYPE:Perimeter
;WIDTH:0.419999
G1 F1200
G1 X119.286 Y65.269 E.00267
G1 X119.077 Y65.369 E.00728
G1 X118.947 Y65.509 E.00598
G1 X118.855 Y65.819 E.01013
G1 X118.855 Y70.636 E.15106
G1 X118.914 Y70.888 E.0081
G1 X119.019 Y71.035 E.00567
G1 X119.166 Y71.142 E.00569
G1 X119.42 Y71.202 E.00819
G1 X136.634 Y71.202 E.53972
;WIDTH:0.458502
G1 X137.153 Y71.221 E.01795
G1 X137.657 Y71.213 E.0174
;WIDTH:0.440932
G1 X138.395 Y71.202 E.02446
;WIDTH:0.419999
G1 X144.152 Y71.202 E.18049
G1 X144.152 Y73.358 E.06761
G1 X144.152 Y93.628 E.63554
G1 X138.544 Y93.628 E.17583
;WIDTH:0.458502
G1 X138.025 Y93.609 E.01795
G1 X137.521 Y93.617 E.0174
;WIDTH:0.440932
G1 X136.783 Y93.628 E.02446
;WIDTH:0.419999
G1 X105.848 Y93.628 E.96993
G1 X105.848 Y71.202 E.70315
G1 X116.321 Y71.201 E.32837
M73 Q0 S57
G1 X116.597 Y71.106 E.00915
G1 X116.788 Y70.888 E.0091
G1 X116.847 Y70.636 E.0081
G1 X116.847 Y65.819 E.15106
G1 X116.819 Y65.643 E.00558
G1 X116.685 Y65.422 E.00808
G1 X116.416 Y65.269 E.00972
G1 X116.281 Y65.253 E.00425
G1 X111.341 Y65.257 E.1549
G1 X110.962 Y65.287 E.01193
G1 X111.29 Y65.088 E.01203
G1 X116.299 Y61.747 E.18878
G1 X119.403 Y61.747 E.09734
G1 X124.712 Y65.271 E.19979
G1 X124.397 Y65.257 E.00988
G1 X119.43 Y65.253 E.15573
M204 S1000
G1 X119.42 Y65.63 F10800
M204 S800
;TYPE:External perimeter
G1 F1200
G1 X119.306 Y65.669 E.00379
G1 X119.232 Y65.819 E.00524
G1 X119.232 Y70.636 E.15106
G1 X119.286 Y70.769 E.00451
G1 X119.42 Y70.825 E.00454
G1 X144.529 Y70.825 E.78727
G1 X144.529 Y94.005 E.72679
G1 X105.471 Y94.005 E1.22463
G1 X105.471 Y70.825 E.72679
G1 X116.282 Y70.825 E.33896
G1 X116.416 Y70.769 E.00454
G1 X116.47 Y70.636 E.00451
G1 X116.47 Y65.819 E.15106
G1 X116.416 Y65.686 E.00447
M73 P1 R57
M73 Q1 S57
G1 X116.282 Y65.63 E.00458
G1 X111.287 Y65.635 E.15659
G1 X110.333 Y65.725 E.03005
G1 X109.856 Y65.83 E.01531
G1 X109.147 Y65.83 E.02225
G1 X109.756 Y65.425 E.02294
G1 X110.638 Y65.04 E.03017
G1 X111.08 Y64.774 E.0162
G1 X116.185 Y61.37 E.19236
G1 X119.517 Y61.37 E.1045
G1 X124.769 Y64.869 E.19787
G1 X125.216 Y65.126 E.01615
G1 X126.112 Y65.534 E.03089
G1 X126.556 Y65.83 E.01674
G1 X125.842 Y65.83 E.0224
G1 X124.907 Y65.66 E.02978
G1 X124.397 Y65.634 E.01603
G1 X119.48 Y65.63 E.15415
M204 S1000
G1 X119.339 Y65.541 F10800
;WIPE_START
G1 F8640
G1 X119.306 Y65.669 E-.0413
G1 X119.232 Y65.819 E-.03858
G1 X119.232 Y68.764 E-.68011
;WIPE_END
G1 E-.04 F2100
G1 Z.6 F720
G1 X137.582 Y71.614 F10800
G1 Z.2 F720
G1 E.8 F2100
M204 S800
;TYPE:Perimeter
;WIDTH:0.451705
G1 F1200
G1 X137.639 Y71.61 E.00195
;WIDTH:0.442213
G1 X138.037 Y71.653 E.0133
G1 X138.689 Y71.902 E.02317
;WIDTH:0.419999
G1 X139.096 Y72.187 E.01557
G1 X139.372 Y72.474 E.0125
G1 X139.593 Y72.806 E.0125
G1 X139.754 Y73.171 E.0125
G1 X139.849 Y73.558 E.0125
G1 X139.875 Y73.955 E.0125
G1 X139.831 Y74.351 E.0125
G1 X139.72 Y74.734 E.0125
G1 X139.544 Y75.092 E.0125
G1 X139.308 Y75.413 E.0125
G1 X139.021 Y75.689 E.0125
G1 X138.689 Y75.91 E.0125
G1 X138.324 Y76.071 E.0125
G1 X137.885 Y76.17 E.01413
G1 X137.389 Y76.179 E.01555
G1 X136.857 Y76.072 E.01702
G1 X136.403 Y75.861 E.01569
G1 X136.044 Y75.588 E.01414
G1 X135.756 Y75.266 E.01354
G1 X135.585 Y75.006 E.00976
G1 X135.374 Y74.456 E.01847
G1 X135.303 Y73.955 E.01585
G1 X135.347 Y73.461 E.01557
G1 X135.458 Y73.078 E.0125
G1 X135.634 Y72.72 E.0125
G1 X135.87 Y72.399 E.0125
G1 X136.157 Y72.123 E.0125
G1 X136.489 Y71.902 E.0125
;WIDTH:0.451705
G1 X137.139 Y71.648 E.02374
G1 X137.522 Y71.619 E.01304
M204 S1000
G1 X137.505 Y72.004 F10800
M204 S800
;TYPE:External perimeter
;WIDTH:0.419999
G1 F1200
G1 X137.605 Y71.996 E.00315
G1 X137.937 Y72.028 E.01044
G1 X138.258 Y72.117 E.01044
G1 X138.558 Y72.26 E.01044
G1 X138.829 Y72.453 E.01044
G1 X139.063 Y72.691 E.01044
G1 X139.251 Y72.965 E.01044
G1 X139.39 Y73.268 E.01044
G1 X139.473 Y73.59 E.01044
G1 X139.499 Y73.922 E.01044
G1 X139.467 Y74.254 E.01044
G1 X139.378 Y74.575 E.01044
G1 X139.235 Y74.875 E.01044
G1 X139.042 Y75.146 E.01044
G1 X138.804 Y75.38 E.01044
G1 X138.53 Y75.568 E.01044
G1 X138.227 Y75.707 E.01044
G1 X137.852 Y75.795 E.01207
G1 X137.422 Y75.803 E.01349
G1 X136.924 Y75.697 E.01598
G1 X136.62 Y75.552 E.01056
G1 X136.311 Y75.321 E.01208
G1 X135.943 Y74.875 E.01813
G1 X135.788 Y74.544 E.01147
G1 X135.705 Y74.222 E.01044
G1 X135.679 Y73.89 E.01044
G1 X135.711 Y73.558 E.01044
G1 X135.8 Y73.237 E.01044
G1 X135.943 Y72.937 E.01044
G1 X136.136 Y72.666 E.01044
G1 X136.374 Y72.432 E.01044
G1 X136.648 Y72.244 E.01044
G1 X136.951 Y72.105 E.01044
G1 X137.273 Y72.022 E.01044
G1 X137.445 Y72.008 E.00541
M204 S1000
G1 X137.545 Y71.912 F10800
;WIPE_START
G1 F8640
G1 X137.605 Y71.996 E-.03705
G1 X137.937 Y72.028 E-.07689
G1 X138.258 Y72.117 E-.07688
G1 X138.558 Y72.26 E-.07689
G1 X138.829 Y72.453 E-.07688
G1 X139.063 Y72.691 E-.07688
G1 X139.251 Y72.965 E-.07688
G1 X139.39 Y73.268 E-.07688
G1 X139.473 Y73.59 E-.07688
G1 X139.499 Y73.922 E-.07688
G1 X139.486 Y74.056 E-.03099
;WIPE_END
G1 E-.04 F2100
G1 Z.6 F720
G1 X120.969 Y78.172 F10800
G1 Z.2 F720
G1 E.8 F2100
M204 S800
;TYPE:Perimeter
G1 F1200
G1 X121.885 Y77.94 E.02963
G1 X123.213 Y77.731 E.04214
G1 X124.532 Y77.637 E.04147
G1 X125.865 Y77.647 E.04178
G1 X127.134 Y77.758 E.03993
G1 X128.401 Y77.974 E.0403
G1 X129.59 Y78.289 E.03859
G1 X130.578 Y78.661 E.0331
G1 X131.644 Y79.2 E.03744
G1 X132.263 Y79.641 E.02382
G1 X132.587 Y79.901 E.01301
G1 X133.046 Y80.37 E.02058
G1 X133.425 Y80.909 E.02068
G1 X133.668 Y81.424 E.01786
G1 X133.803 Y81.919 E.01607
G1 X133.849 Y82.448 E.01664
G1 X133.794 Y82.965 E.01632
G1 X133.654 Y83.448 E.01577
G1 X133.426 Y83.922 E.01648
G1 X133.114 Y84.365 E.01699
G1 X132.641 Y84.867 E.02164
G1 X132.328 Y85.154 E.0133
G1 X131.563 Y85.679 E.02909
G1 X130.568 Y86.179 E.03491
G1 X129.454 Y86.583 E.03715
G1 X128.196 Y86.899 E.04069
G1 X126.919 Y87.098 E.0405
G1 X125.6 Y87.193 E.04147
G1 X124.313 Y87.185 E.04036
G1 X122.999 Y87.073 E.04136
G1 X121.732 Y86.858 E.04029
G1 X120.97 Y86.658 E.02471
G1 X120.567 Y87.018 E.01692
G1 X119.816 Y87.503 E.02806
G1 X118.907 Y87.899 E.03108
G1 X117.944 Y88.133 E.03108
G1 X116.954 Y88.2 E.03108
G1 X115.968 Y88.097 E.03108
G1 X115.014 Y87.827 E.03108
G1 X114.121 Y87.398 E.03108
G1 X113.313 Y86.823 E.03108
G1 X112.616 Y86.118 E.03108
G1 X112.049 Y85.305 E.03108
G1 X111.629 Y84.407 E.03108
G1 X111.368 Y83.45 E.03108
G1 X111.275 Y82.463 E.03108
G1 X111.352 Y81.475 E.03108
G1 X111.595 Y80.519 E.03092
G1 X112.003 Y79.606 E.03135
G1 X112.554 Y78.787 E.03098
G1 X113.313 Y78.007 E.03411
G1 X114.038 Y77.482 E.02806
G1 X114.924 Y77.038 E.03108
G1 X115.873 Y76.752 E.03108
G1 X116.909 Y76.634 E.03269
G1 X117.843 Y76.682 E.02933
G1 X118.907 Y76.931 E.03425
G1 X119.73 Y77.281 E.02806
G1 X120.644 Y77.872 E.03411
G1 X120.925 Y78.131 E.01199
M204 S1000
G1 X120.864 Y78.588 F10800
M204 S800
;TYPE:External perimeter
G1 F1200
G1 X121.978 Y78.305 E.03603
G1 X123.24 Y78.107 E.04008
G1 X124.53 Y78.014 E.04053
G1 X125.817 Y78.022 E.04036
G1 X127.101 Y78.134 E.04041
G1 X128.337 Y78.346 E.03931
G1 X129.493 Y78.654 E.03753
G1 X130.445 Y79.014 E.0319
G1 X131.469 Y79.534 E.03603
G1 X132.042 Y79.946 E.02211
G1 X132.317 Y80.164 E.01103
G1 X132.777 Y80.633 E.02058
G1 X133.114 Y81.122 E.01861
G1 X133.325 Y81.579 E.0158
G1 X133.443 Y82.044 E.01504
G1 X133.471 Y82.467 E.01328
G1 X133.414 Y82.924 E.01444
G1 X133.297 Y83.325 E.0131
G1 X133.075 Y83.777 E.01578
G1 X132.725 Y84.259 E.01869
G1 X132.15 Y84.816 E.0251
G1 X131.25 Y85.419 E.03398
G1 X130.399 Y85.842 E.02977
G1 X129.327 Y86.228 E.03574
G1 X128.137 Y86.526 E.03846
G1 X126.892 Y86.722 E.03952
G1 X125.603 Y86.816 E.04052
G1 X124.315 Y86.808 E.04036
G1 X123.031 Y86.698 E.04041
G1 X121.796 Y86.486 E.0393
G1 X120.866 Y86.24 E.03014
G1 X120.388 Y86.681 E.02039
G1 X119.702 Y87.128 E.02569
G1 X118.759 Y87.552 E.0324
G1 X117.857 Y87.766 E.02907
G1 X116.932 Y87.824 E.02907
G1 X116.011 Y87.722 E.02907
G1 X115.12 Y87.465 E.02907
G1 X114.287 Y87.06 E.02906
G1 X113.534 Y86.518 E.02907
G1 X112.886 Y85.855 E.02907
G1 X112.36 Y85.092 E.02907
G1 X111.972 Y84.25 E.02907
G1 X111.733 Y83.355 E.02907
G1 X111.651 Y82.431 E.02907
G1 X111.728 Y81.507 E.02907
G1 X111.959 Y80.615 E.0289
G1 X112.346 Y79.763 E.02933
G1 X112.865 Y79 E.02896
G1 X113.534 Y78.312 E.03007
G1 X114.259 Y77.787 E.02806
G1 X115.09 Y77.377 E.02907
G1 X115.979 Y77.114 E.02907
G1 X116.89 Y77.011 E.02874
G1 X117.824 Y77.059 E.02933
G1 X118.759 Y77.278 E.03012
G1 X119.583 Y77.628 E.02806
G1 X120.388 Y78.149 E.03007
G1 X120.819 Y78.547 E.01839
M204 S1000
G1 X121.08 Y78.251 F10800
;WIPE_START
G1 F8640
G1 X121.978 Y78.305 E-.27316
G1 X123.24 Y78.107 E-.29515
G1 X124.068 Y78.047 E-.19169
;WIPE_END
G1 E-.04 F2100
G1 Z.6 F720
G1 X139.054 Y89.174 F10800
G1 Z.2 F720
G1 E.8 F2100
M204 S800
;TYPE:Perimeter
G1 F1200
G1 X139.372 Y89.493 E.01412
G1 X139.593 Y89.824 E.0125
G1 X139.754 Y90.189 E.0125
G1 X139.849 Y90.576 E.0125
G1 X139.875 Y90.973 E.0125
G1 X139.831 Y91.369 E.0125
G1 X139.72 Y91.752 E.0125
G1 X139.544 Y92.11 E.0125
G1 X139.308 Y92.431 E.0125
G1 X139.021 Y92.707 E.0125
G1 X138.689 Y92.928 E.0125
;WIDTH:0.451705
G1 X138.039 Y93.182 E.02374
G1 X137.539 Y93.22 E.01704
;WIDTH:0.442213
G1 X137.141 Y93.177 E.0133
G1 X136.489 Y92.928 E.02317
;WIDTH:0.419999
G1 X136.082 Y92.643 E.01557
G1 X135.806 Y92.356 E.0125
G1 X135.585 Y92.024 E.0125
G1 X135.424 Y91.659 E.0125
G1 X135.329 Y91.272 E.0125
G1 X135.303 Y90.875 E.0125
G1 X135.347 Y90.479 E.0125
G1 X135.458 Y90.096 E.0125
G1 X135.634 Y89.738 E.0125
G1 X135.904 Y89.382 E.01401
G1 X136.157 Y89.141 E.01096
G1 X136.631 Y88.854 E.01737
G1 X137.144 Y88.682 E.01696
G1 X137.673 Y88.641 E.01666
G1 X138.034 Y88.682 E.01139
G1 X138.417 Y88.793 E.0125
G1 X138.775 Y88.969 E.0125
G1 X139.005 Y89.138 E.00897
M204 S1000
G1 X138.462 Y89.232 F10800
M204 S800
;TYPE:External perimeter
G1 F1200
G1 X138.558 Y89.278 E.00334
G1 X138.829 Y89.471 E.01044
G1 X139.063 Y89.709 E.01044
G1 X139.251 Y89.983 E.01044
G1 X139.39 Y90.286 E.01044
G1 X139.473 Y90.608 E.01044
G1 X139.499 Y90.94 E.01044
G1 X139.467 Y91.272 E.01044
G1 X139.378 Y91.593 E.01044
G1 X139.235 Y91.893 E.01044
G1 X139.042 Y92.164 E.01044
G1 X138.804 Y92.398 E.01044
G1 X138.53 Y92.586 E.01044
G1 X138.227 Y92.725 E.01044
G1 X137.905 Y92.808 E.01044
G1 X137.573 Y92.834 E.01044
G1 X137.241 Y92.802 E.01044
G1 X136.92 Y92.713 E.01044
G1 X136.62 Y92.57 E.01044
G1 X136.349 Y92.377 E.01044
G1 X136.115 Y92.139 E.01044
G1 X135.927 Y91.865 E.01044
G1 X135.788 Y91.562 E.01044
G1 X135.705 Y91.24 E.01044
G1 X135.679 Y90.908 E.01044
G1 X135.711 Y90.576 E.01044
G1 X135.8 Y90.255 E.01044
G1 X135.943 Y89.955 E.01044
G1 X136.171 Y89.649 E.01195
G1 X136.374 Y89.45 E.00891
G1 X136.79 Y89.195 E.01531
G1 X137.271 Y89.04 E.01586
G1 X137.641 Y89.017 E.0116
G1 X137.937 Y89.046 E.00933
G1 X138.258 Y89.135 E.01044
G1 X138.408 Y89.206 E.00522
M204 S1000
G1 X138.548 Y89.169 F10800
;WIPE_START
G1 F8640
G1 X138.558 Y89.278 E-.03842
G1 X138.829 Y89.471 E-.07688
G1 X139.063 Y89.709 E-.07689
G1 X139.251 Y89.983 E-.07688
G1 X139.39 Y90.286 E-.07688
G1 X139.473 Y90.608 E-.07688
G1 X139.499 Y90.94 E-.07688
G1 X139.467 Y91.272 E-.07689
G1 X139.378 Y91.593 E-.07688
G1 X139.235 Y91.893 E-.07689
G1 X139.16 Y91.998 E-.02963
;WIPE_END
G1 E-.04 F2100
G1 Z.6 F720
G1 X143.275 Y71.315 F10800
G1 Z.2 F720
G1 E.8 F2100
M204 S800
;TYPE:Solid infill
;WIDTH:0.420581
G1 F1200
G1 X143.869 Y71.909 E.02637
G1 X143.869 Y72.443 E.01677
G1 X142.911 Y71.485 E.04255
G1 X142.377 Y71.485 E.01677
G1 X143.869 Y72.977 E.06627
G1 X143.869 Y73.511 E.01677
G1 X141.843 Y71.485 E.08999
G1 X141.309 Y71.485 E.01677
G1 X143.869 Y74.045 E.11371
G1 X143.869 Y74.579 E.01677
G1 X140.775 Y71.485 E.13743
G1 X140.24 Y71.485 E.01677
G1 X143.869 Y75.114 E.16115
G1 X143.869 Y75.648 E.01677
G1 X139.706 Y71.485 E.18487
G1 X139.172 Y71.485 E.01677
G1 X143.869 Y76.182 E.20859
G1 X143.869 Y76.716 E.01677
G1 X138.468 Y71.315 E.23984
M204 S1000
;WIPE_START
G1 F8640
G1 X140.796 Y73.643 E-.76
;WIPE_END
G1 E-.04 F2100
G1 Z.6 F720
G1 X139.896 Y73.276 F10800
G1 Z.2 F720
G1 E.8 F2100
M204 S800
G1 F1200
G1 X143.869 Y77.25 E.17647
G1 X143.869 Y77.784 E.01677
G1 X140.149 Y74.063 E.16523
G1 X140.121 Y74.353 E.00913
G1 X140.073 Y74.522 E.00551
G1 X143.869 Y78.318 E.1686
G1 X143.869 Y78.852 E.01677
G1 X139.943 Y74.926 E.17437
G1 X139.847 Y75.132 E.00715
G1 X139.754 Y75.272 E.00525
G1 X143.869 Y79.386 E.18274
G1 X143.869 Y79.92 E.01677
G1 X139.529 Y75.58 E.19276
G1 X139.265 Y75.85 E.01186
G1 X143.869 Y80.455 E.20449
G1 X143.869 Y80.989 E.01677
G1 X138.958 Y76.077 E.21812
G1 X138.605 Y76.259 E.01245
G1 X143.869 Y81.523 E.23376
G1 X143.869 Y82.057 E.01677
G1 X138.203 Y76.391 E.25163
G1 X138.046 Y76.436 E.00515
G1 X137.741 Y76.463 E.0096
G1 X143.869 Y82.591 E.27215
G1 X143.869 Y83.125 E.01677
G1 X136.952 Y76.208 E.30719
M204 S1000
;WIPE_START
G1 F8640
G1 X139.279 Y78.535 E-.76
;WIPE_END
G1 E-.04 F2100
G1 Z.6 F720
G1 X136.697 Y71.68 F10800
G1 Z.2 F720
G1 E.8 F2100
M204 S800
G1 F1200
G1 X136.502 Y71.485 E.00868
G1 X135.968 Y71.485 E.01677
G1 X136.219 Y71.736 E.01115
G1 X135.912 Y71.963 E.01199
G1 X135.434 Y71.485 E.02124
G1 X134.899 Y71.485 E.01677
G1 X135.648 Y72.233 E.03324
G1 X135.578 Y72.307 E.00321
G1 X135.423 Y72.542 E.00883
G1 X134.365 Y71.485 E.04695
G1 X133.831 Y71.485 E.01677
G1 X135.239 Y72.892 E.06251
G1 X135.152 Y73.092 E.00682
G1 X135.104 Y73.292 E.00647
G1 X133.297 Y71.485 E.08026
G1 X132.763 Y71.485 E.01677
G1 X135.034 Y73.756 E.10085
G1 X135.021 Y73.973 E.00685
