; generated by PrusaSlicer 2.5.0+win64 on 2023-01-11 at 20:34:49 UTC


;
;
; 

; external perimeters extrusion width = 0.45mm
; perimeters extrusion width = 0.45mm
; infill extrusion width = 0.45mm
; solid infill extrusion width = 0.45mm
; top infill extrusion width = 0.40mm
; first layer extrusion width = 0.42mm

; external perimeters extrusion width = 0.45mm
; perimeters extrusion width = 0.45mm
; infill extrusion width = 0.45mm
; solid infill extrusion width = 0.45mm
; top infill extrusion width = 0.40mm
; first layer extrusion width = 0.42mm

M73 P0 R57
M73 Q0 S57
M201 X1000 Y1000 Z200 E5000 ; sets maximum accelerations, mm/sec^2
M203 X200 Y200 Z12 E120 ; sets maximum feedrates, mm / sec
M204 P1250 R1250 T1250 ; sets acceleration (P, T) and retract acceleration (R), mm/sec^2
M205 X8.00 Y8.00 Z0.40 E4.50 ; sets the jerk limits, mm/sec
M205 S0 T0 ; sets the minimum extruding and travel feed rate, mm/sec
M107
;TYPE:Custom
M862.3 P "MK3S" ; printer model check
M862.1 P0.4 ; nozzle diameter check
M115 U3.11.0 ; tell printer latest fw version
G90 ; use absolute coordinates
M83 ; extruder relative mode
M104 S215 ; set extruder temp
M140 S60 ; set bed temp
M190 S60 ; wait for bed temp
M109 S215 ; wait for extruder temp
G28 W ; home all without mesh bed level
G80 ; mesh bed leveling

G1 Z0.2 F720
G1 Y-3 F1000 ; go outside print area
G92 E0
G1 X60 E9 F1000 ; intro line
G1 X100 E12.5 F1000 ; intro line

G92 E0
M221 S95

; Don't change E values below. Excessive value can damage the printer.
M907 E430 ; set extruder motor current
G21 ; set units to millimeters
G90 ; use absolute coordinates
M83 ; use relative distances for extrusion
M900 K0.05 ; Filament gcode LA 1.5
M900 K30 ; Filament gcode LA 1.0
M107
;LAYER_CHANGE
;Z:0.2
;HEIGHT:0.2
;BEFORE_LAYER_CHANGE
G92 E0.0
;0.2


G1 E-.8 F2100
G1 Z.4 F720
;AFTER_LAYER_CHANGE
;0.2
G1 X103.076 Y59.653 F10800
G1 Z.2 F720
G1 E.8 F2100
M204 S800
;TYPE:Skirt/Brim
;WIDTH:0.42
G1 F1200
G1 X104.121 Y58.777 E.04278
G1 X105.061 Y58.583 E.03008
G1 X144.939 Y58.583 E1.25035
G1 X146.246 Y58.975 E.04278
G1 X147.122 Y60.02 E.04278
G1 X147.316 Y60.96 E.03008
G1 X147.316 Y139.585 E2.46523
G1 X146.924 Y140.892 E.04278
G1 X145.879 Y141.768 E.04278
G1 X144.939 Y141.962 E.03008
G1 X105.061 Y141.962 E1.25035
G1 X103.754 Y141.57 E.04278
G1 X102.878 Y140.525 E.04278
G1 X102.684 Y139.585 E.03008
G1 X102.684 Y60.96 E2.46523
G1 X103.058 Y59.71 E.0409
M204 S1000
; printing object Motor Attachment .STL id:0 copy 0
;WIPE_START
M73 P0 R56
G1 F8640
G1 X104.121 Y58.777 E-.32671
G1 X105.061 Y58.583 E-.22155
G1 X105.978 Y58.583 E-.21174
;WIPE_END
G1 E-.04 F2100
G1 Z.6 F720
G1 X107.688 Y74.652 F10800
G1 Z.2 F720
G1 E.8 F2100
M204 S800
;TYPE:Perimeter
;WIDTH:0.419999
G1 F1200
G1 X107.666 Y74.739 E.0028
G1 X107.666 Y84.173 E.29581
G1 X105.848 Y84.173 E.057
G1 X105.848 Y61.747 E.70315
G1 X136.634 Y61.747 E.96527
;WIDTH:0.458502
G1 X137.153 Y61.766 E.01795
G1 X137.657 Y61.758 E.0174
;WIDTH:0.440932
G1 X138.395 Y61.747 E.02446
;WIDTH:0.419999
G1 X144.152 Y61.747 E.18049
G1 X144.152 Y63.903 E.06761
G1 X144.152 Y84.173 E.63554
G1 X138.544 Y84.173 E.17583
;WIDTH:0.458503
G1 X138.025 Y84.154 E.01795
G1 X137.521 Y84.162 E.0174
;WIDTH:0.440933
G1 X136.783 Y84.173 E.02446
;WIDTH:0.419999
G1 X128.036 Y84.173 E.27424
G1 X128.036 Y77.466 E.21029
G1 X128.45 Y77.39 E.01321
G1 X129.645 Y77.068 E.0388
G1 X130.579 Y76.714 E.0313
G1 X131.088 Y76.466 E.01776
G1 X131.785 Y76.081 E.02496
G1 X132.587 Y75.474 E.03153
G1 X133.109 Y74.929 E.02368
G1 X133.451 Y74.425 E.01908
G1 X133.668 Y73.951 E.01637
G1 X133.804 Y73.451 E.01625
G1 X133.849 Y72.927 E.01647
G1 X133.787 Y72.381 E.01723
G1 X133.636 Y71.885 E.01628
G1 X133.414 Y71.431 E.01585
G1 X133.114 Y71.01 E.0162
G1 X132.857 Y70.716 E.01224
G1 X132.339 Y70.228 E.02231
G1 X131.593 Y69.717 E.02835
G1 X131.148 Y69.484 E.01574
G1 X130.327 Y69.105 E.02837
G1 X129.4 Y68.776 E.03083
G1 X128.196 Y68.476 E.03893
G1 X126.966 Y68.283 E.03903
G1 X125.604 Y68.182 E.04282
G1 X124.313 Y68.19 E.04047
G1 X122.999 Y68.302 E.04136
G1 X121.682 Y68.528 E.04189
G1 X120.97 Y68.717 E.02311
G1 X120.644 Y68.417 E.01389
G1 X119.73 Y67.826 E.03411
G1 X118.815 Y67.446 E.03108
G1 X117.848 Y67.228 E.03108
G1 X116.857 Y67.178 E.03108
G1 X115.873 Y67.297 E.03108
G1 X114.924 Y67.583 E.03108
G1 X114.038 Y68.027 E.03108
G1 X113.313 Y68.552 E.02806
G1 X112.554 Y69.332 E.03411
G1 X112.001 Y70.154 E.03108
G1 X111.596 Y71.059 E.03108
G1 X111.352 Y72.02 E.03108
G1 X111.275 Y73.008 E.03108
G1 X111.352 Y73.9 E.02806
G1 X111.416 Y74.173 E.00879
G1 X108.634 Y74.173 E.08725
G1 X108.073 Y74.196 E.0176
G1 X107.892 Y74.286 E.00634
G1 X107.732 Y74.472 E.00769
G1 X107.702 Y74.594 E.00392
M204 S1000
G1 X108.043 Y74.739 F10800
M204 S800
;TYPE:External perimeter
G1 F1200
G1 X108.043 Y84.55 E.30763
G1 X105.471 Y84.55 E.08064
G1 X105.471 Y61.37 E.72679
G1 X144.529 Y61.37 E1.22463
G1 X144.529 Y84.55 E.72679
G1 X127.659 Y84.55 E.52895
G1 X127.659 Y77.151 E.232
G1 X128.353 Y77.026 E.02212
G1 X129.511 Y76.715 E.03759
G1 X130.445 Y76.361 E.0313
M73 P1 R56
G1 X130.913 Y76.132 E.01635
M73 Q1 S57
G1 X131.563 Y75.776 E.02325
G1 X132.317 Y75.21 E.02954
G1 X132.798 Y74.716 E.02162
G1 X133.114 Y74.253 E.01758
G1 X133.263 Y73.932 E.01112
G1 X133.437 Y73.363 E.01863
G1 X133.471 Y72.941 E.01328
G1 X133.43 Y72.517 E.01335
G1 X133.297 Y72.05 E.01524
G1 X133.07 Y71.59 E.01608
G1 X132.596 Y70.988 E.02403
G1 X132.126 Y70.539 E.02037
G1 X131.38 Y70.028 E.02835
G1 X130.981 Y69.822 E.01409
G1 X130.199 Y69.46 E.027
G1 X129.309 Y69.142 E.02965
G1 X128.137 Y68.849 E.03788
G1 X126.907 Y68.655 E.03903
G1 X125.604 Y68.559 E.04098
G1 X124.315 Y68.567 E.0404
G1 X123.031 Y68.677 E.04041
G1 X121.779 Y68.892 E.03984
G1 X120.866 Y69.135 E.02961
G1 X120.388 Y68.694 E.02039
G1 X119.583 Y68.173 E.03007
G1 X118.729 Y67.813 E.02907
G1 X117.825 Y67.604 E.02907
G1 X116.9 Y67.552 E.02907
G1 X115.979 Y67.659 E.02907
G1 X115.09 Y67.922 E.02907
G1 X114.259 Y68.332 E.02907
G1 X113.534 Y68.857 E.02806
G1 X112.865 Y69.545 E.03007
G1 X112.344 Y70.311 E.02907
G1 X111.961 Y71.155 E.02907
G1 X111.728 Y72.052 E.02907
G1 X111.651 Y72.976 E.02907
G1 X111.733 Y73.901 E.02911
G1 X111.909 Y74.55 E.02109
G1 X108.232 Y74.55 E.11532
G1 X108.118 Y74.588 E.00374
G1 X108.07 Y74.685 E.00341
M204 S1000
G1 X107.657 Y74.842 F10800
;WIPE_START
G1 F8640
G1 X108.061 Y77.976 E-.76
;WIPE_END
G1 E-.04 F2100
G1 Z.6 F720
G1 X139.048 Y62.698 F10800
G1 Z.2 F720
G1 E.8 F2100
M204 S800
;TYPE:Perimeter
G1 F1200
G1 X139.372 Y63.019 E.01432
G1 X139.593 Y63.351 E.0125
G1 X139.754 Y63.716 E.0125
G1 X139.849 Y64.103 E.0125
G1 X139.875 Y64.5 E.0125
G1 X139.831 Y64.896 E.0125
G1 X139.72 Y65.279 E.0125
G1 X139.544 Y65.637 E.0125
G1 X139.308 Y65.958 E.0125
G1 X139.021 Y66.234 E.0125
G1 X138.689 Y66.455 E.0125
G1 X138.324 Y66.616 E.0125
G1 X137.937 Y66.711 E.0125
G1 X137.54 Y66.737 E.0125
G1 X137.144 Y66.693 E.0125
G1 X136.631 Y66.521 E.01696
G1 X136.157 Y66.234 E.01737
G1 X135.806 Y65.883 E.01557
G1 X135.585 Y65.551 E.0125
G1 X135.424 Y65.186 E.0125
G1 X135.329 Y64.799 E.0125
G1 X135.303 Y64.402 E.0125
G1 X135.347 Y64.006 E.0125
G1 X135.458 Y63.623 E.0125
G1 X135.634 Y63.265 E.0125
G1 X135.87 Y62.944 E.0125
G1 X136.157 Y62.668 E.0125
G1 X136.489 Y62.447 E.0125
;WIDTH:0.451705
G1 X137.139 Y62.193 E.02374
G1 X137.639 Y62.155 E.01704
;WIDTH:0.442213
G1 X138.037 Y62.198 E.0133
G1 X138.689 Y62.447 E.02317
;WIDTH:0.419999
G1 X138.999 Y62.663 E.01184
M204 S1000
G1 X138.443 Y62.75 F10800
M204 S800
;TYPE:External perimeter
G1 F1200
G1 X138.558 Y62.805 E.00401
G1 X138.829 Y62.998 E.01044
G1 X139.063 Y63.236 E.01044
G1 X139.251 Y63.51 E.01044
G1 X139.39 Y63.813 E.01044
G1 X139.473 Y64.135 E.01044
G1 X139.499 Y64.467 E.01044
G1 X139.467 Y64.799 E.01044
G1 X139.378 Y65.12 E.01044
G1 X139.235 Y65.42 E.01044
G1 X139.042 Y65.691 E.01044
G1 X138.804 Y65.925 E.01044
G1 X138.53 Y66.113 E.01044
G1 X138.227 Y66.252 E.01044
G1 X137.905 Y66.335 E.01044
G1 X137.573 Y66.361 E.01044
G1 X137.241 Y66.329 E.01044
G1 X136.79 Y66.18 E.0149
G1 X136.36 Y65.914 E.01587
G1 X136.115 Y65.666 E.01091
G1 X135.927 Y65.392 E.01044
G1 X135.788 Y65.089 E.01044
G1 X135.705 Y64.767 E.01044
G1 X135.679 Y64.435 E.01044
G1 X135.711 Y64.103 E.01044
G1 X135.8 Y63.782 E.01044
G1 X135.943 Y63.482 E.01044
G1 X136.136 Y63.211 E.01044
G1 X136.374 Y62.977 E.01044
G1 X136.648 Y62.789 E.01044
G1 X136.951 Y62.65 E.01044
G1 X137.273 Y62.567 E.01044
G1 X137.605 Y62.541 E.01044
G1 X137.937 Y62.573 E.01044
G1 X138.258 Y62.662 E.01044
G1 X138.389 Y62.724 E.00455
M204 S1000
G1 X138.546 Y62.674 F10800
;WIPE_START
G1 F8640
G1 X138.558 Y62.805 E-.04337
G1 X138.829 Y62.998 E-.07688
G1 X139.063 Y63.236 E-.07688
G1 X139.251 Y63.51 E-.07688
G1 X139.39 Y63.813 E-.07688
G1 X139.473 Y64.135 E-.07688
G1 X139.499 Y64.467 E-.07688
G1 X139.467 Y64.799 E-.07689
G1 X139.378 Y65.12 E-.07688
G1 X139.235 Y65.42 E-.07688
G1 X139.173 Y65.507 E-.02467
;WIPE_END
G1 E-.04 F2100
G1 Z.6 F720
G1 X139.836 Y81.069 F10800
G1 Z.2 F720
G1 E.8 F2100
M204 S800
;TYPE:Perimeter
G1 F1200
G1 X139.877 Y81.469 E.0126
G1 X139.831 Y81.914 E.01404
G1 X139.72 Y82.297 E.0125
G1 X139.544 Y82.655 E.0125
G1 X139.308 Y82.976 E.0125
G1 X139.021 Y83.252 E.0125
G1 X138.689 Y83.473 E.0125
;WIDTH:0.451706
G1 X138.039 Y83.727 E.02374
G1 X137.539 Y83.765 E.01704
;WIDTH:0.442214
G1 X137.141 Y83.722 E.0133
G1 X136.489 Y83.473 E.02317
;WIDTH:0.419999
G1 X136.082 Y83.188 E.01557
G1 X135.806 Y82.901 E.0125
G1 X135.585 Y82.569 E.0125
G1 X135.424 Y82.204 E.0125
G1 X135.329 Y81.817 E.0125
G1 X135.303 Y81.42 E.0125
G1 X135.374 Y80.919 E.01585
G1 X135.585 Y80.369 E.01847
G1 X135.87 Y79.962 E.01557
G1 X136.158 Y79.686 E.0125
G1 X136.489 Y79.465 E.0125
G1 X136.857 Y79.303 E.01261
G1 X137.389 Y79.196 E.01702
G1 X137.937 Y79.209 E.01719
G1 X138.417 Y79.338 E.01557
G1 X138.775 Y79.514 E.0125
G1 X139.096 Y79.75 E.0125
G1 X139.372 Y80.037 E.0125
G1 X139.593 Y80.369 E.0125
G1 X139.754 Y80.734 E.0125
G1 X139.822 Y81.011 E.00896
M204 S1000
G1 X139.436 Y81.009 F10800
M204 S800
;TYPE:External perimeter
G1 F1200
G1 X139.473 Y81.153 E.00468
G1 X139.5 Y81.469 E.00993
G1 X139.467 Y81.817 E.01096
G1 X139.378 Y82.138 E.01044
G1 X139.235 Y82.438 E.01044
G1 X139.042 Y82.709 E.01044
G1 X138.804 Y82.943 E.01044
G1 X138.53 Y83.131 E.01044
G1 X138.227 Y83.27 E.01044
G1 X137.905 Y83.353 E.01044
G1 X137.573 Y83.379 E.01044
G1 X137.241 Y83.347 E.01044
G1 X136.92 Y83.258 E.01044
G1 X136.62 Y83.115 E.01044
G1 X136.349 Y82.922 E.01044
G1 X136.115 Y82.684 E.01044
G1 X135.927 Y82.41 E.01044
G1 X135.788 Y82.107 E.01044
G1 X135.705 Y81.785 E.01044
G1 X135.679 Y81.453 E.01044
G1 X135.739 Y81.017 E.01379
G1 X135.927 Y80.528 E.01641
G1 X136.136 Y80.229 E.01147
G1 X136.374 Y79.995 E.01044
G1 X136.648 Y79.807 E.01044
G1 X136.955 Y79.667 E.01056
G1 X137.422 Y79.572 E.01496
G1 X137.923 Y79.588 E.01572
G1 X138.258 Y79.68 E.01088
G1 X138.558 Y79.823 E.01044
G1 X138.829 Y80.016 E.01044
G1 X139.063 Y80.254 E.01044
G1 X139.251 Y80.528 E.01044
G1 X139.39 Y80.831 E.01044
G1 X139.421 Y80.951 E.00387
M204 S1000
G1 X139.581 Y81.043 F10800
;WIPE_START
G1 F8640
G1 X139.473 Y81.153 E-.04835
G1 X139.5 Y81.469 E-.07312
G1 X139.467 Y81.817 E-.08068
G1 X139.378 Y82.138 E-.07688
G1 X139.235 Y82.438 E-.07688
G1 X139.042 Y82.709 E-.07688
G1 X138.804 Y82.943 E-.07688
G1 X138.53 Y83.131 E-.07688
G1 X138.227 Y83.27 E-.07689
G1 X137.905 Y83.353 E-.07688
G1 X137.82 Y83.36 E-.01967
;WIPE_END
G1 E-.04 F2100
G1 Z.6 F720
G1 X143.275 Y61.86 F10800
G1 Z.2 F720
G1 E.8 F2100
M204 S800
;TYPE:Solid infill
;WIDTH:0.420581
G1 F1200
G1 X143.869 Y62.454 E.02637
G1 X143.869 Y62.988 E.01677
G1 X142.911 Y62.03 E.04255
G1 X142.377 Y62.03 E.01677
G1 X143.869 Y63.522 E.06627
G1 X143.869 Y64.056 E.01677
G1 X141.843 Y62.03 E.08999
G1 X141.309 Y62.03 E.01677
G1 X143.869 Y64.59 E.11371
G1 X143.869 Y65.124 E.01677
G1 X140.775 Y62.03 E.13743
G1 X140.24 Y62.03 E.01677
G1 X143.869 Y65.659 E.16115
G1 X143.869 Y66.193 E.01677
G1 X139.706 Y62.03 E.18487
G1 X139.172 Y62.03 E.01677
G1 X143.869 Y66.727 E.20859
G1 X143.869 Y67.261 E.01677
G1 X138.468 Y61.86 E.23984
M204 S1000
;WIPE_START
G1 F8640
M73 Q1 S56
G1 X140.796 Y64.188 E-.76
;WIPE_END
G1 E-.04 F2100
G1 Z.6 F720
G1 X139.896 Y63.821 F10800
G1 Z.2 F720
G1 E.8 F2100
M204 S800
G1 F1200
G1 X143.869 Y67.795 E.17647
G1 X143.869 Y68.329 E.01677
G1 X140.149 Y64.608 E.16523
G1 X140.121 Y64.898 E.00913
G1 X140.073 Y65.067 E.00551
G1 X143.869 Y68.863 E.1686
G1 X143.869 Y69.397 E.01677
G1 X139.943 Y65.471 E.17437
G1 X139.847 Y65.677 E.00715
G1 X139.754 Y65.817 E.00525
G1 X143.869 Y69.931 E.18274
G1 X143.869 Y70.465 E.01677
G1 X139.529 Y66.125 E.19276
G1 X139.265 Y66.395 E.01186
G1 X143.869 Y71 E.20449
G1 X143.869 Y71.534 E.01677
G1 X138.958 Y66.622 E.21812
G1 X138.605 Y66.804 E.01245
G1 X143.869 Y72.068 E.23376
G1 X143.869 Y72.602 E.01677
G1 X138.203 Y66.936 E.25163
G1 X138.045 Y66.981 E.00515
G1 X137.742 Y67.009 E.00957
G1 X143.869 Y73.136 E.27211
G1 X143.869 Y73.67 E.01677
G1 X136.96 Y66.76 E.30686
M204 S1000
;WIPE_START
G1 F8640
G1 X139.287 Y69.088 E-.76
;WIPE_END
G1 E-.04 F2100
G1 Z.6 F720
G1 X136.697 Y62.225 F10800
G1 Z.2 F720
G1 E.8 F2100
M204 S800
G1 F1200
G1 X136.502 Y62.03 E.00868
G1 X135.968 Y62.03 E.01677
G1 X136.219 Y62.281 E.01115
G1 X135.912 Y62.508 E.01199
G1 X135.434 Y62.03 E.02124
G1 X134.899 Y62.03 E.01677
G1 X135.648 Y62.778 E.03324
G1 X135.578 Y62.852 E.00321
G1 X135.423 Y63.087 E.00883
G1 X134.365 Y62.03 E.04695
G1 X133.831 Y62.03 E.01677
G1 X135.234 Y63.433 E.06231
G1 X135.102 Y63.835 E.01329
G1 X133.297 Y62.03 E.08016
G1 X132.763 Y62.03 E.01677
G1 X135.031 Y64.297 E.1007
G1 X135.021 Y64.383 E.0027
G1 X135.054 Y64.855 E.01486
G1 X132.229 Y62.03 E.12546
G1 X131.695 Y62.03 E.01677
G1 X143.869 Y74.204 E.54066
G1 X143.869 Y74.738 E.01677
G1 X131.161 Y62.03 E.56438
G1 X130.627 Y62.03 E.01677
G1 X143.869 Y75.272 E.58809
G1 X143.869 Y75.806 E.01677
G1 X130.093 Y62.03 E.61181
G1 X129.559 Y62.03 E.01677
G1 X143.869 Y76.34 E.63553
G1 X143.869 Y76.875 E.01677
G1 X129.024 Y62.03 E.65925
G1 X128.49 Y62.03 E.01677
G1 X143.869 Y77.409 E.68297
G1 X143.869 Y77.943 E.01677
G1 X127.956 Y62.03 E.70669
G1 X127.422 Y62.03 E.01677
G1 X143.869 Y78.477 E.73041
G1 X143.869 Y79.011 E.01677
G1 X126.888 Y62.03 E.75413
G1 X126.354 Y62.03 E.01677
G1 X143.869 Y79.545 E.77785
G1 X143.869 Y80.079 E.01677
G1 X125.82 Y62.03 E.80157
G1 X125.286 Y62.03 E.01677
G1 X143.869 Y80.613 E.82529
G1 X143.869 Y81.147 E.01677
G1 X124.752 Y62.03 E.849
G1 X124.218 Y62.03 E.01677
G1 X131.576 Y69.389 E.3268
G1 X131.718 Y69.46 E.00497
G1 X132.602 Y70.078 E.03389
G1 X133.201 Y70.657 E.02614
G1 X133.63 Y71.24 E.02273
G1 X133.827 Y71.639 E.01398
G1 X143.869 Y81.681 E.44597
G1 X143.869 Y82.215 E.01677
G1 X134.079 Y72.425 E.43479
G1 X134.126 Y73.007 E.01833
G1 X143.869 Y82.75 E.43268
G1 X143.869 Y83.284 E.01677
G1 X134.076 Y73.49 E.43493
G1 X133.974 Y73.922 E.01394
M73 P2 R56
M73 Q2 S56
G1 X143.869 Y83.818 E.43946
G1 X143.869 Y83.89 E.00227
G1 X143.407 Y83.89 E.0145
G1 X133.819 Y74.301 E.42584
G1 X133.731 Y74.5 E.00682
G1 X133.631 Y74.648 E.00561
G1 X137.91 Y78.927 E.19002
G1 X137.579 Y78.898 E.01044
G1 X137.366 Y78.917 E.00672
G1 X133.417 Y74.968 E.17536
G1 X133.289 Y75.159 E.0072
G1 X133.183 Y75.268 E.00479
G1 X136.916 Y79.001 E.1658
G1 X136.662 Y79.072 E.00828
G1 X136.52 Y79.139 E.00493
G1 X132.918 Y75.537 E.15996
G1 X132.648 Y75.801 E.01186
G1 X136.18 Y79.333 E.15687
G1 X135.872 Y79.559 E.012
G1 X132.339 Y76.026 E.15692
G1 X132.03 Y76.251 E.012
G1 X135.613 Y79.834 E.15912
G1 X135.389 Y80.145 E.01202
G1 X131.702 Y76.457 E.16378
G1 X131.353 Y76.643 E.0124
G1 X135.212 Y80.501 E.17136
G1 X135.086 Y80.91 E.01343
G1 X131.004 Y76.828 E.18129
G1 X130.633 Y76.99 E.01274
G1 X135.023 Y81.381 E.19498
G1 X135.048 Y81.848 E.01469
G1 X135.077 Y81.969 E.00391
G1 X130.246 Y77.138 E.21455
G1 X129.859 Y77.285 E.013
G1 X136.464 Y83.89 E.29334
G1 X135.93 Y83.89 E.01677
G1 X129.455 Y77.415 E.28758
G1 X129.033 Y77.527 E.0137
G1 X135.396 Y83.89 E.28258
G1 X134.862 Y83.89 E.01677
G1 X128.611 Y77.64 E.27758
G1 X128.319 Y77.702 E.00939
G1 X128.319 Y77.881 E.00563
G1 X134.328 Y83.89 E.26686
G1 X133.794 Y83.89 E.01677
G1 X128.319 Y78.415 E.24314
