; generated by PrusaSlicer 2.5.0+win64 on 2023-01-18 at 19:07:54 UTC


;
;
; 

; external perimeters extrusion width = 0.45mm
; perimeters extrusion width = 0.45mm
; infill extrusion width = 0.45mm
; solid infill extrusion width = 0.45mm
; top infill extrusion width = 0.40mm
; first layer extrusion width = 0.42mm

; external perimeters extrusion width = 0.45mm
; perimeters extrusion width = 0.45mm
; infill extrusion width = 0.45mm
; solid infill extrusion width = 0.45mm
; top infill extrusion width = 0.40mm
; first layer extrusion width = 0.42mm

; external perimeters extrusion width = 0.45mm
; perimeters extrusion width = 0.45mm
; infill extrusion width = 0.45mm
; solid infill extrusion width = 0.45mm
; top infill extrusion width = 0.40mm
; first layer extrusion width = 0.42mm

; external perimeters extrusion width = 0.45mm
; perimeters extrusion width = 0.45mm
; infill extrusion width = 0.45mm
; solid infill extrusion width = 0.45mm
; top infill extrusion width = 0.40mm
; first layer extrusion width = 0.42mm

M73 P0 R115
M73 Q0 S116
M201 X1000 Y1000 Z200 E5000 ; sets maximum accelerations, mm/sec^2
M203 X200 Y200 Z12 E120 ; sets maximum feedrates, mm / sec
M204 P1250 R1250 T1250 ; sets acceleration (P, T) and retract acceleration (R), mm/sec^2
M205 X8.00 Y8.00 Z0.40 E4.50 ; sets the jerk limits, mm/sec
M205 S0 T0 ; sets the minimum extruding and travel feed rate, mm/sec
M107
;TYPE:Custom
M862.3 P "MK3S" ; printer model check
M862.1 P0.4 ; nozzle diameter check
M115 U3.11.0 ; tell printer latest fw version
G90 ; use absolute coordinates
M83 ; extruder relative mode
M104 S215 ; set extruder temp
M140 S60 ; set bed temp
M190 S60 ; wait for bed temp
M109 S215 ; wait for extruder temp
G28 W ; home all without mesh bed level
G80 ; mesh bed leveling

G1 Z0.2 F720
G1 Y-3 F1000 ; go outside print area
G92 E0
G1 X60 E9 F1000 ; intro line
G1 X100 E12.5 F1000 ; intro line

G92 E0
M221 S95

; Don't change E values below. Excessive value can damage the printer.
M907 E430 ; set extruder motor current
G21 ; set units to millimeters
G90 ; use absolute coordinates
M83 ; use relative distances for extrusion
M900 K0.05 ; Filament gcode LA 1.5
M900 K30 ; Filament gcode LA 1.0
M107
;LAYER_CHANGE
;Z:0.2
;HEIGHT:0.2
;BEFORE_LAYER_CHANGE
G92 E0.0
;0.2


G1 E-.8 F2100
G1 Z.4 F720
;AFTER_LAYER_CHANGE
;0.2
G1 X76.052 Y64.591 F10800
G1 Z.2 F720
G1 E.8 F2100
M204 S800
;TYPE:Skirt/Brim
;WIDTH:0.42
G1 F1200
G1 X76.609 Y64.073 E.02385
G1 X84.216 Y58.993 E.28681
G1 X85.536 Y58.593 E.04325
G1 X150.166 Y58.593 E2.02641
G1 X150.997 Y58.743 E.02649
G1 X176.294 Y68.188 E.84666
G1 X177.382 Y69.012 E.04278
G1 X177.84 Y70.415 E.04627
G1 X177.84 Y149.03 E2.46492
G1 X177.448 Y150.337 E.04278
G1 X176.403 Y151.213 E.04278
G1 X175.463 Y151.407 E.03008
G1 X74.537 Y151.407 E3.16446
G1 X73.23 Y151.015 E.04278
G1 X72.354 Y149.97 E.04278
G1 X72.16 Y149.03 E.03008
G1 X72.16 Y70.415 E2.46492
G1 X72.66 Y68.956 E.04835
G1 X76.015 Y64.639 E.17145
M204 S1000
; printing object Motor Attachment .STL id:2 copy 0
;WIPE_START
G1 F8640
G1 X76.609 Y64.073 E-.18934
G1 X78.664 Y62.701 E-.57066
;WIPE_END
G1 E-.04 F2100
G1 Z.6 F720
G1 X149.895 Y65.269 F10800
G1 Z.2 F720
G1 E.8 F2100
M204 S800
;TYPE:Perimeter
;WIDTH:0.419999
G1 F1200
G1 X149.81 Y65.279 E.00267
G1 X149.601 Y65.379 E.00728
G1 X149.471 Y65.519 E.00598
G1 X149.379 Y65.829 E.01013
G1 X149.379 Y70.636 E.15075
G1 X149.438 Y70.888 E.0081
G1 X149.543 Y71.035 E.00567
G1 X149.69 Y71.142 E.00569
G1 X149.944 Y71.202 E.00819
G1 X167.158 Y71.202 E.53972
;WIDTH:0.458503
G1 X167.677 Y71.221 E.01795
G1 X168.181 Y71.213 E.0174
;WIDTH:0.440933
G1 X168.919 Y71.202 E.02446
;WIDTH:0.419999
G1 X174.676 Y71.202 E.18049
G1 X174.676 Y73.358 E.06761
G1 X174.676 Y93.628 E.63554
G1 X169.068 Y93.628 E.17583
;WIDTH:0.458502
G1 X168.549 Y93.609 E.01795
G1 X168.045 Y93.617 E.0174
;WIDTH:0.440932
G1 X167.307 Y93.628 E.02446
;WIDTH:0.419999
G1 X136.372 Y93.628 E.96993
G1 X136.372 Y71.202 E.70315
M73 Q0 S115
G1 X146.845 Y71.201 E.32837
G1 X147.121 Y71.106 E.00915
G1 X147.312 Y70.888 E.0091
G1 X147.371 Y70.636 E.0081
G1 X147.371 Y65.829 E.15075
G1 X147.343 Y65.653 E.00558
G1 X147.209 Y65.432 E.00808
G1 X146.94 Y65.279 E.00972
G1 X146.805 Y65.263 E.00425
G1 X141.865 Y65.267 E.1549
G1 X141.486 Y65.297 E.01193
G1 X141.814 Y65.098 E.01203
G1 X146.823 Y61.757 E.18878
G1 X149.927 Y61.757 E.09734
G1 X155.236 Y65.281 E.19979
G1 X154.921 Y65.267 E.00988
G1 X149.954 Y65.263 E.15573
M204 S1000
G1 X149.944 Y65.64 F10800
M204 S800
;TYPE:External perimeter
G1 F1200
G1 X149.83 Y65.679 E.00379
G1 X149.756 Y65.829 E.00524
G1 X149.756 Y70.636 E.15075
G1 X149.81 Y70.769 E.00451
G1 X149.944 Y70.825 E.00454
G1 X175.053 Y70.825 E.78727
G1 X175.053 Y94.005 E.72679
G1 X135.995 Y94.005 E1.22463
G1 X135.995 Y70.825 E.72679
M73 P0 R114
G1 X146.806 Y70.825 E.33896
G1 X146.94 Y70.769 E.00454
G1 X146.994 Y70.636 E.00451
G1 X146.994 Y65.829 E.15075
G1 X146.94 Y65.696 E.00447
G1 X146.806 Y65.64 E.00458
G1 X141.811 Y65.645 E.15659
G1 X140.857 Y65.735 E.03005
G1 X140.38 Y65.84 E.01531
G1 X139.671 Y65.84 E.02225
G1 X140.28 Y65.435 E.02294
G1 X141.162 Y65.05 E.03017
G1 X141.604 Y64.784 E.0162
G1 X146.709 Y61.38 E.19236
G1 X150.041 Y61.38 E.1045
G1 X155.293 Y64.879 E.19787
G1 X155.74 Y65.136 E.01615
G1 X156.636 Y65.544 E.03089
G1 X157.08 Y65.84 E.01674
G1 X156.366 Y65.84 E.0224
G1 X155.431 Y65.67 E.02978
G1 X154.921 Y65.644 E.01603
G1 X150.004 Y65.64 E.15415
M204 S1000
G1 X149.863 Y65.551 F10800
;WIPE_START
G1 F8640
G1 X149.83 Y65.679 E-.0413
G1 X149.756 Y65.829 E-.03858
G1 X149.756 Y68.774 E-.68011
;WIPE_END
G1 E-.04 F2100
G1 Z.6 F720
G1 X168.106 Y71.614 F10800
G1 Z.2 F720
G1 E.8 F2100
M204 S800
;TYPE:Perimeter
;WIDTH:0.451706
G1 F1200
G1 X168.163 Y71.61 E.00195
;WIDTH:0.442212
G1 X168.561 Y71.653 E.0133
G1 X169.213 Y71.902 E.02317
;WIDTH:0.419999
G1 X169.62 Y72.187 E.01557
G1 X169.896 Y72.474 E.0125
G1 X170.117 Y72.806 E.0125
G1 X170.278 Y73.171 E.0125
G1 X170.373 Y73.558 E.0125
G1 X170.401 Y73.906 E.01096
G1 X170.355 Y74.351 E.01404
G1 X170.244 Y74.734 E.0125
G1 X170.068 Y75.092 E.0125
G1 X169.832 Y75.413 E.0125
G1 X169.545 Y75.689 E.0125
G1 X169.213 Y75.91 E.0125
G1 X168.848 Y76.071 E.0125
G1 X168.41 Y76.17 E.0141
G1 X167.914 Y76.179 E.01555
G1 X167.382 Y76.072 E.01702
G1 X166.927 Y75.861 E.01571
G1 X166.569 Y75.588 E.01412
G1 X166.281 Y75.267 E.01354
G1 X166.109 Y75.006 E.00979
G1 X165.899 Y74.457 E.01844
G1 X165.827 Y73.955 E.01589
G1 X165.871 Y73.461 E.01557
G1 X165.982 Y73.078 E.0125
G1 X166.158 Y72.72 E.0125
G1 X166.394 Y72.399 E.0125
G1 X166.681 Y72.123 E.0125
G1 X167.013 Y71.902 E.0125
;WIDTH:0.451706
G1 X167.663 Y71.648 E.02374
G1 X168.046 Y71.619 E.01305
M204 S1000
G1 X168.029 Y72.004 F10800
M204 S800
;TYPE:External perimeter
;WIDTH:0.419999
G1 F1200
G1 X168.129 Y71.996 E.00315
G1 X168.461 Y72.028 E.01044
G1 X168.782 Y72.117 E.01044
G1 X169.082 Y72.26 E.01044
G1 X169.353 Y72.453 E.01044
G1 X169.587 Y72.691 E.01044
G1 X169.775 Y72.965 E.01044
G1 X169.914 Y73.268 E.01044
G1 X169.997 Y73.59 E.01044
G1 X170.024 Y73.906 E.00993
G1 X169.991 Y74.254 E.01096
G1 X169.902 Y74.575 E.01044
G1 X169.759 Y74.875 E.01044
G1 X169.566 Y75.146 E.01044
G1 X169.328 Y75.38 E.01044
G1 X169.054 Y75.568 E.01044
G1 X168.751 Y75.707 E.01044
G1 X168.377 Y75.794 E.01204
G1 X167.947 Y75.803 E.01349
G1 X167.448 Y75.697 E.016
G1 X167.144 Y75.552 E.01056
G1 X166.836 Y75.322 E.01206
G1 X166.59 Y75.051 E.01148
G1 X166.324 Y74.575 E.01709
G1 X166.229 Y74.222 E.01147
G1 X166.203 Y73.89 E.01044
G1 X166.235 Y73.558 E.01044
G1 X166.324 Y73.237 E.01044
G1 X166.467 Y72.937 E.01044
G1 X166.66 Y72.666 E.01044
G1 X166.898 Y72.432 E.01044
G1 X167.172 Y72.244 E.01044
G1 X167.475 Y72.105 E.01044
G1 X167.797 Y72.022 E.01044
G1 X167.97 Y72.008 E.00541
M204 S1000
G1 X168.069 Y71.912 F10800
;WIPE_START
G1 F8640
G1 X168.129 Y71.996 E-.03704
G1 X168.461 Y72.028 E-.07688
G1 X168.782 Y72.117 E-.07688
G1 X169.082 Y72.26 E-.07688
G1 X169.353 Y72.453 E-.07688
G1 X169.587 Y72.691 E-.07688
G1 X169.775 Y72.965 E-.07688
G1 X169.914 Y73.268 E-.07688
G1 X169.997 Y73.59 E-.07688
G1 X170.024 Y73.906 E-.07311
G1 X170.01 Y74.056 E-.03477
;WIPE_END
G1 E-.04 F2100
G1 Z.6 F720
G1 X151.493 Y78.172 F10800
G1 Z.2 F720
G1 E.8 F2100
M204 S800
;TYPE:Perimeter
G1 F1200
G1 X152.41 Y77.94 E.02967
G1 X153.738 Y77.731 E.04214
G1 X155.058 Y77.636 E.04147
G1 X156.39 Y77.648 E.04178
G1 X157.705 Y77.764 E.04141
G1 X158.975 Y77.985 E.04042
G1 X160.115 Y78.29 E.03699
G1 X161.266 Y78.727 E.0386
G1 X162.169 Y79.2 E.03196
G1 X162.787 Y79.641 E.02379
G1 X163.11 Y79.9 E.01301
G1 X163.57 Y80.37 E.02061
G1 X163.949 Y80.909 E.02065
G1 X164.192 Y81.425 E.01788
G1 X164.327 Y81.919 E.01607
G1 X164.373 Y82.448 E.01664
G1 X164.318 Y82.965 E.01632
G1 X164.178 Y83.449 E.01577
G1 X163.949 Y83.922 E.01648
G1 X163.638 Y84.365 E.01697
G1 X163.381 Y84.659 E.01224
G1 X162.935 Y85.088 E.01942
G1 X162.365 Y85.488 E.02182
G1 X161.941 Y85.757 E.01574
G1 X161.088 Y86.181 E.02988
G1 X159.978 Y86.583 E.03702
G1 X158.719 Y86.899 E.04069
G1 X157.443 Y87.098 E.0405
G1 X156.124 Y87.193 E.04147
G1 X154.837 Y87.185 E.04036
G1 X153.523 Y87.073 E.04136
G1 X152.256 Y86.858 E.04029
G1 X151.494 Y86.658 E.02471
G1 X151.091 Y87.018 E.01692
G1 X150.34 Y87.503 E.02806
G1 X149.431 Y87.899 E.03108
G1 X148.468 Y88.133 E.03108
G1 X147.478 Y88.2 E.03108
G1 X146.492 Y88.097 E.03108
G1 X145.538 Y87.827 E.03108
G1 X144.645 Y87.398 E.03108
G1 X143.837 Y86.823 E.03109
G1 X143.14 Y86.118 E.03108
G1 X142.573 Y85.305 E.03108
G1 X142.153 Y84.407 E.03108
G1 X141.892 Y83.45 E.03108
G1 X141.799 Y82.463 E.03108
G1 X141.876 Y81.475 E.03108
G1 X142.119 Y80.519 E.03092
G1 X142.527 Y79.606 E.03135
G1 X143.078 Y78.786 E.03098
G1 X143.837 Y78.007 E.03411
G1 X144.562 Y77.482 E.02806
G1 X145.448 Y77.038 E.03108
G1 X146.397 Y76.752 E.03108
G1 X147.433 Y76.634 E.03269
G1 X148.367 Y76.682 E.02933
G1 X149.431 Y76.931 E.03425
G1 X150.254 Y77.281 E.02806
G1 X151.168 Y77.872 E.03411
G1 X151.449 Y78.131 E.01199
M204 S1000
G1 X151.388 Y78.588 F10800
M204 S800
;TYPE:External perimeter
G1 F1200
G1 X152.503 Y78.305 E.03608
G1 X153.766 Y78.107 E.04008
G1 X155.055 Y78.014 E.04053
G1 X156.342 Y78.022 E.04036
G1 X157.626 Y78.134 E.0404
G1 X158.862 Y78.346 E.03931
G1 X160.018 Y78.654 E.03752
G1 X160.651 Y78.893 E.02122
G1 X161.091 Y79.062 E.01477
G1 X161.994 Y79.534 E.03196
G1 X162.841 Y80.164 E.0331
G1 X163.301 Y80.634 E.02061
G1 X163.638 Y81.121 E.01858
G1 X163.849 Y81.58 E.01582
G1 X163.967 Y82.044 E.01503
G1 X163.995 Y82.467 E.01328
G1 X163.939 Y82.923 E.01441
G1 X163.821 Y83.325 E.01313
G1 X163.599 Y83.777 E.01578
G1 X163.248 Y84.259 E.0187
G1 X162.673 Y84.816 E.0251
G1 X161.774 Y85.419 E.03395
G1 X160.923 Y85.842 E.02979
G1 X159.85 Y86.228 E.03574
G1 X158.66 Y86.526 E.03846
G1 X157.415 Y86.722 E.03952
G1 X156.126 Y86.816 E.04052
G1 X154.839 Y86.808 E.04036
G1 X153.555 Y86.698 E.04041
G1 X152.32 Y86.486 E.0393
G1 X151.39 Y86.24 E.03014
G1 X150.912 Y86.681 E.02039
G1 X150.226 Y87.128 E.02569
G1 X149.283 Y87.552 E.0324
G1 X148.381 Y87.766 E.02907
G1 X147.456 Y87.824 E.02907
G1 X146.535 Y87.722 E.02907
G1 X145.644 Y87.465 E.02907
G1 X144.811 Y87.06 E.02906
G1 X144.058 Y86.518 E.02907
G1 X143.41 Y85.855 E.02907
G1 X142.884 Y85.092 E.02907
G1 X142.496 Y84.25 E.02907
G1 X142.257 Y83.355 E.02907
G1 X142.175 Y82.431 E.02907
G1 X142.252 Y81.507 E.02907
G1 X142.483 Y80.615 E.0289
G1 X142.87 Y79.763 E.02933
G1 X143.389 Y79 E.02896
G1 X144.058 Y78.312 E.03007
G1 X144.783 Y77.787 E.02806
G1 X145.614 Y77.377 E.02907
G1 X146.503 Y77.114 E.02907
G1 X147.414 Y77.011 E.02874
G1 X148.348 Y77.059 E.02933
G1 X149.283 Y77.278 E.03012
G1 X150.107 Y77.628 E.02806
G1 X150.912 Y78.149 E.03007
G1 X151.343 Y78.547 E.01839
M204 S1000
G1 X151.604 Y78.251 F10800
;WIPE_START
G1 F8640
G1 X152.503 Y78.305 E-.27348
G1 X153.766 Y78.107 E-.29514
G1 X154.592 Y78.047 E-.19138
;WIPE_END
G1 E-.04 F2100
G1 Z.6 F720
G1 X168.891 Y88.778 F10800
G1 Z.2 F720
G1 E.8 F2100
M204 S800
;TYPE:Perimeter
G1 F1200
G1 X169.299 Y88.969 E.01412
G1 X169.62 Y89.205 E.0125
G1 X169.896 Y89.492 E.0125
G1 X170.117 Y89.824 E.0125
G1 X170.278 Y90.189 E.0125
G1 X170.373 Y90.576 E.0125
G1 X170.401 Y90.924 E.01096
G1 X170.355 Y91.369 E.01404
G1 X170.244 Y91.752 E.0125
G1 X170.068 Y92.11 E.0125
G1 X169.832 Y92.431 E.0125
G1 X169.545 Y92.707 E.0125
G1 X169.213 Y92.928 E.0125
;WIDTH:0.451705
G1 X168.563 Y93.182 E.02374
G1 X168.063 Y93.22 E.01704
;WIDTH:0.442213
G1 X167.665 Y93.177 E.0133
G1 X167.013 Y92.928 E.02317
;WIDTH:0.419999
G1 X166.606 Y92.643 E.01557
G1 X166.33 Y92.356 E.0125
G1 X166.109 Y92.024 E.0125
G1 X165.948 Y91.659 E.0125
G1 X165.853 Y91.272 E.0125
G1 X165.827 Y90.875 E.0125
G1 X165.871 Y90.479 E.0125
G1 X165.982 Y90.096 E.0125
G1 X166.158 Y89.738 E.0125
G1 X166.428 Y89.383 E.01399
G1 X166.681 Y89.141 E.01098
G1 X167.154 Y88.854 E.01734
G1 X167.668 Y88.682 E.01698
G1 X168.197 Y88.641 E.01664
G1 X168.558 Y88.682 E.01141
G1 X168.833 Y88.761 E.00897
M204 S1000
G1 X168.86 Y89.172 F10800
M204 S800
;TYPE:External perimeter
G1 F1200
G1 X169.082 Y89.278 E.00772
G1 X169.353 Y89.471 E.01044
G1 X169.587 Y89.709 E.01044
G1 X169.775 Y89.983 E.01044
G1 X169.914 Y90.286 E.01044
G1 X169.997 Y90.608 E.01044
G1 X170.024 Y90.924 E.00993
G1 X169.991 Y91.272 E.01096
G1 X169.902 Y91.593 E.01044
G1 X169.759 Y91.893 E.01044
G1 X169.566 Y92.164 E.01044
G1 X169.328 Y92.398 E.01044
G1 X169.054 Y92.586 E.01044
G1 X168.751 Y92.725 E.01044
G1 X168.429 Y92.808 E.01044
G1 X168.097 Y92.834 E.01044
G1 X167.765 Y92.802 E.01044
G1 X167.444 Y92.713 E.01044
G1 X167.144 Y92.57 E.01044
G1 X166.873 Y92.377 E.01044
G1 X166.639 Y92.139 E.01044
G1 X166.451 Y91.865 E.01044
G1 X166.312 Y91.562 E.01044
G1 X166.229 Y91.24 E.01044
G1 X166.203 Y90.908 E.01044
G1 X166.235 Y90.576 E.01044
G1 X166.324 Y90.255 E.01044
G1 X166.467 Y89.955 E.01044
G1 X166.694 Y89.649 E.01194
G1 X166.898 Y89.45 E.00893
G1 X167.313 Y89.196 E.01528
G1 X167.795 Y89.04 E.01588
G1 X168.164 Y89.017 E.01157
G1 X168.461 Y89.046 E.00936
G1 X168.806 Y89.146 E.01126
M204 S1000
G1 X169.052 Y89.018 F10800
;WIPE_START
G1 F8640
G1 X169.082 Y89.278 E-.07074
G1 X169.353 Y89.471 E-.07688
G1 X169.587 Y89.709 E-.07689
G1 X169.775 Y89.983 E-.07688
G1 X169.914 Y90.286 E-.07688
G1 X169.997 Y90.608 E-.07688
G1 X170.024 Y90.924 E-.07312
G1 X169.991 Y91.272 E-.08068
G1 X169.902 Y91.593 E-.07688
G1 X169.764 Y91.883 E-.07417
;WIPE_END
G1 E-.04 F2100
G1 Z.6 F720
G1 X173.799 Y71.315 F10800
G1 Z.2 F720
G1 E.8 F2100
M204 S800
;TYPE:Solid infill
;WIDTH:0.420581
G1 F1200
G1 X174.393 Y71.909 E.02637
G1 X174.393 Y72.443 E.01677
G1 X173.435 Y71.485 E.04255
G1 X172.901 Y71.485 E.01677
G1 X174.393 Y72.977 E.06627
G1 X174.393 Y73.511 E.01677
G1 X172.367 Y71.485 E.08999
G1 X171.833 Y71.485 E.01677
G1 X174.393 Y74.045 E.11371
G1 X174.393 Y74.579 E.01677
G1 X171.299 Y71.485 E.13743
G1 X170.764 Y71.485 E.01677
G1 X174.393 Y75.114 E.16115
G1 X174.393 Y75.648 E.01677
G1 X170.23 Y71.485 E.18487
G1 X169.696 Y71.485 E.01677
G1 X174.393 Y76.182 E.20859
G1 X174.393 Y76.716 E.01677
G1 X168.992 Y71.315 E.23984
M204 S1000
;WIPE_START
G1 F8640
G1 X171.32 Y73.643 E-.76
;WIPE_END
G1 E-.04 F2100
G1 Z.6 F720
G1 X170.42 Y73.276 F10800
G1 Z.2 F720
G1 E.8 F2100
M204 S800
G1 F1200
G1 X174.393 Y77.25 E.17647
G1 X174.393 Y77.784 E.01677
G1 X170.673 Y74.063 E.16523
G1 X170.645 Y74.353 E.00913
G1 X170.597 Y74.522 E.00551
G1 X174.393 Y78.318 E.1686
G1 X174.393 Y78.852 E.01677
G1 X170.465 Y74.924 E.17444
G1 X170.284 Y75.277 E.01245
G1 X174.393 Y79.386 E.18251
G1 X174.393 Y79.92 E.01677
G1 X170.053 Y75.58 E.19276
G1 X169.789 Y75.85 E.01186
G1 X174.393 Y80.455 E.20449
G1 X174.393 Y80.989 E.01677
G1 X169.482 Y76.077 E.21812
G1 X169.129 Y76.259 E.01245
G1 X174.393 Y81.523 E.23376
G1 X174.393 Y82.057 E.01677
G1 X168.727 Y76.391 E.25163
G1 X168.57 Y76.436 E.00515
G1 X168.265 Y76.463 E.0096
G1 X174.393 Y82.591 E.27215
G1 X174.393 Y83.125 E.01677
G1 X167.476 Y76.208 E.30719
M204 S1000
;WIPE_START
G1 F8640
G1 X169.803 Y78.535 E-.76
;WIPE_END
G1 E-.04 F2100
G1 Z.6 F720
G1 X167.221 Y71.68 F10800
G1 Z.2 F720
G1 E.8 F2100
M204 S800
G1 F1200
G1 X167.026 Y71.485 E.00868
G1 X166.492 Y71.485 E.01677
G1 X166.743 Y71.736 E.01115
