; generated by PrusaSlicer 2.5.0+win64 on 2023-03-16 at 19:43:51 UTC


;
;
; 

; external perimeters extrusion width = 0.45mm
; perimeters extrusion width = 0.45mm
; infill extrusion width = 0.45mm
; solid infill extrusion width = 0.45mm
; top infill extrusion width = 0.40mm
; first layer extrusion width = 0.42mm

; external perimeters extrusion width = 0.45mm
; perimeters extrusion width = 0.45mm
; infill extrusion width = 0.45mm
; solid infill extrusion width = 0.45mm
; top infill extrusion width = 0.40mm
; first layer extrusion width = 0.42mm

; external perimeters extrusion width = 0.45mm
; perimeters extrusion width = 0.45mm
; infill extrusion width = 0.45mm
; solid infill extrusion width = 0.45mm
; top infill extrusion width = 0.40mm
; first layer extrusion width = 0.42mm

; external perimeters extrusion width = 0.45mm
; perimeters extrusion width = 0.45mm
; infill extrusion width = 0.45mm
; solid infill extrusion width = 0.45mm
; top infill extrusion width = 0.40mm
; first layer extrusion width = 0.42mm

M73 P0 R46
M73 Q0 S46
M201 X1000 Y1000 Z200 E5000 ; sets maximum accelerations, mm/sec^2
M203 X200 Y200 Z12 E120 ; sets maximum feedrates, mm / sec
M204 P1250 R1250 T1250 ; sets acceleration (P, T) and retract acceleration (R), mm/sec^2
M205 X8.00 Y8.00 Z0.40 E4.50 ; sets the jerk limits, mm/sec
M205 S0 T0 ; sets the minimum extruding and travel feed rate, mm/sec
M107
;TYPE:Custom
M862.3 P "MK3S" ; printer model check
M862.1 P0.4 ; nozzle diameter check
M115 U3.11.0 ; tell printer latest fw version
G90 ; use absolute coordinates
M83 ; extruder relative mode
M104 S215 ; set extruder temp
M140 S60 ; set bed temp
M190 S60 ; wait for bed temp
M109 S215 ; wait for extruder temp
G28 W ; home all without mesh bed level
G80 ; mesh bed leveling

G1 Z0.2 F720
G1 Y-3 F1000 ; go outside print area
G92 E0
G1 X60 E9 F1000 ; intro line
G1 X100 E12.5 F1000 ; intro line

G92 E0
M221 S95

; Don't change E values below. Excessive value can damage the printer.
M907 E430 ; set extruder motor current
G21 ; set units to millimeters
G90 ; use absolute coordinates
M83 ; use relative distances for extrusion
M900 K0.05 ; Filament gcode LA 1.5
M900 K30 ; Filament gcode LA 1.0
M107
;LAYER_CHANGE
;Z:0.2
;HEIGHT:0.2
;BEFORE_LAYER_CHANGE
G92 E0.0
;0.2


G1 E-.8 F2100
G1 Z.4 F720
;AFTER_LAYER_CHANGE
;0.2
G1 X72.713 Y78.133 F10800
G1 Z.2 F720
G1 E.8 F2100
M204 S800
;TYPE:Skirt/Brim
;WIDTH:0.42
G1 F1200
G1 X88.535 Y67.464 E.59834
G1 X89.22 Y67.146 E.02367
M73 P0 R45
G1 X93.399 Y65.97 E.13613
G1 X94.043 Y65.881 E.02038
G1 X155.957 Y65.881 E1.94127
G1 X156.601 Y65.97 E.02038
G1 X160.78 Y67.146 E.13613
G1 X161.465 Y67.464 E.02367
G1 X177.287 Y78.133 E.59834
G1 X178.05 Y78.976 E.03563
G1 X179.026 Y80.785 E.06446
G1 X179.277 Y81.513 E.02413
G1 X179.658 Y83.94 E.07705
G1 X179.658 Y125.972 E1.31788
G1 X179.311 Y128.372 E.07603
G1 X179.07 Y129.103 E.02413
G1 X178.119 Y130.925 E.06446
G1 X177.343 Y131.795 E.03653
G1 X161.468 Y142.534 E.60095
G1 X160.78 Y142.854 E.02378
G1 X156.601 Y144.03 E.13613
G1 X155.957 Y144.119 E.02038
G1 X94.043 Y144.119 E1.94127
G1 X93.399 Y144.03 E.02038
G1 X89.22 Y142.854 E.13613
G1 X88.532 Y142.534 E.02378
G1 X72.657 Y131.795 E.60095
G1 X71.881 Y130.925 E.03653
G1 X70.93 Y129.103 E.06446
G1 X70.691 Y128.38 E.02388
G1 X70.342 Y126.016 E.07492
G1 X70.342 Y83.932 E1.31951
G1 X70.723 Y81.513 E.0768
G1 X70.974 Y80.785 E.02413
G1 X71.95 Y78.975 E.06447
G1 X72.673 Y78.178 E.03375
M204 S1000
; printing object casterLevel.stl id:3 copy 0
;WIPE_START
G1 F8640
G1 X75.4 Y76.335 E-.76
;WIPE_END
G1 E-.04 F2100
G1 Z.6 F720
G1 X132.167 Y129.285 F10800
G1 Z.2 F720
G1 E.8 F2100
M204 S800
;TYPE:Perimeter
;WIDTH:0.419999
G1 F1200
G1 X131.367 Y127.752 E.05421
G1 X131.086 Y125.993 E.05588
G1 X131.392 Y124.205 E.05685
G1 X132.215 Y122.68 E.05434
G1 X147.771 Y112.19 E.5883
G1 X151.724 Y111.077 E.12875
G1 X155.848 Y111.077 E.12931
G1 X159.801 Y112.19 E.12875
G1 X175.357 Y122.68 E.5883
G1 X176.18 Y124.205 E.05434
M73 Q0 S45
G1 X176.484 Y125.977 E.05637
M73 Q1 S45
G1 X176.205 Y127.753 E.05637
G1 X175.405 Y129.285 E.05418
M73 P1 R45
G1 X159.801 Y139.842 E.59073
G1 X155.848 Y140.955 E.12873
G1 X151.724 Y140.955 E.12931
G1 X147.772 Y139.842 E.12873
G1 X132.217 Y129.319 E.58885
M204 S1000
G1 X131.877 Y129.544 F10800
M204 S800
;TYPE:External perimeter
G1 F1200
G1 X131.005 Y127.872 E.05913
G1 X130.704 Y125.99 E.05976
G1 X131.031 Y124.081 E.06074
G1 X131.927 Y122.419 E.05919
G1 X147.611 Y111.843 E.59311
G1 X151.672 Y110.7 E.13228
G1 X155.9 Y110.7 E.13258
G1 X159.962 Y111.843 E.13228
G1 X175.645 Y122.419 E.59311
G1 X176.541 Y124.081 E.05919
G1 X176.866 Y125.975 E.06025
G1 X176.568 Y127.873 E.06025
G1 X175.696 Y129.544 E.05911
G1 X159.961 Y140.189 E.59563
G1 X155.9 Y141.332 E.13228
G1 X151.672 Y141.332 E.13258
G1 X147.611 Y140.189 E.13227
G1 X131.927 Y129.578 E.59374
M204 S1000
G1 X132.026 Y129.173 F10800
;WIPE_START
G1 F8640
G1 X131.005 Y127.872 E-.44766
G1 X130.791 Y126.537 E-.31234
;WIPE_END
G1 E-.04 F2100
G1 Z.6 F720
G1 X168.712 Y125.129 F10800
G1 Z.2 F720
G1 E.8 F2100
M204 S800
;TYPE:Perimeter
G1 F1200
G1 X168.757 Y125.005 E.00416
G1 X169.127 Y124.364 E.02319
G1 X169.254 Y124.214 E.00616
G1 X169.82 Y123.738 E.02319
G1 X169.99 Y123.64 E.00616
G1 X170.685 Y123.387 E.02319
G1 X170.879 Y123.353 E.00616
G1 X171.619 Y123.353 E.02319
G1 X171.812 Y123.387 E.00616
G1 X172.507 Y123.64 E.02319
G1 X172.677 Y123.738 E.00616
G1 X173.244 Y124.214 E.02319
G1 X173.37 Y124.364 E.00616
G1 X173.74 Y125.005 E.02319
G1 X173.807 Y125.189 E.00616
G1 X173.936 Y125.92 E.02328
G1 X173.936 Y126.114 E.00607
G1 X173.807 Y126.843 E.02319
G1 X173.74 Y127.027 E.00616
G1 X173.37 Y127.668 E.02319
G1 X173.244 Y127.818 E.00616
G1 X172.677 Y128.294 E.02319
G1 X172.507 Y128.392 E.00616
G1 X171.812 Y128.645 E.02319
G1 X171.619 Y128.679 E.00616
G1 X170.879 Y128.679 E.02319
G1 X170.685 Y128.645 E.00616
G1 X169.99 Y128.392 E.02319
G1 X169.82 Y128.294 E.00616
G1 X169.254 Y127.818 E.02319
G1 X169.127 Y127.668 E.00616
G1 X168.757 Y127.027 E.02319
G1 X168.69 Y126.843 E.00616
G1 X168.562 Y126.114 E.02319
G1 X168.562 Y125.918 E.00616
G1 X168.692 Y125.186 E.02331
M204 S1000
G1 X169.057 Y125.281 F10800
M204 S800
;TYPE:External perimeter
G1 F1200
G1 X169.454 Y124.553 E.02599
G1 X170.063 Y124.027 E.02522
G1 X170.814 Y123.741 E.02522
G1 X171.619 Y123.73 E.02522
G1 X172.378 Y123.994 E.02522
G1 X173.002 Y124.502 E.02522
G1 X173.413 Y125.193 E.02522
G1 X173.564 Y125.983 E.02522
G1 X173.436 Y126.777 E.02522
G1 X173.044 Y127.479 E.02522
G1 X172.435 Y128.005 E.02522
G1 X171.683 Y128.291 E.02522
G1 X170.879 Y128.302 E.02522
G1 X170.119 Y128.038 E.02522
G1 X169.496 Y127.529 E.02522
G1 X169.084 Y126.839 E.02522
G1 X168.933 Y126.049 E.02522
G1 X169.048 Y125.34 E.02251
M204 S1000
G1 X168.794 Y124.98 F10800
;WIPE_START
G1 F8640
G1 X169.454 Y124.553 E-.20455
G1 X170.063 Y124.027 E-.18571
G1 X170.814 Y123.741 E-.18571
G1 X171.611 Y123.73 E-.18404
;WIPE_END
G1 E-.04 F2100
G1 Z.6 F720
G1 X138.86 Y126.902 F10800
G1 Z.2 F720
G1 E.8 F2100
M204 S800
;TYPE:Perimeter
G1 F1200
G1 X138.815 Y127.027 E.00416
G1 X138.445 Y127.668 E.02319
G1 X138.319 Y127.818 E.00616
G1 X137.752 Y128.294 E.02319
G1 X137.582 Y128.392 E.00616
G1 X136.887 Y128.645 E.02319
G1 X136.694 Y128.679 E.00616
G1 X135.954 Y128.679 E.02319
G1 X135.76 Y128.645 E.00616
G1 X135.065 Y128.392 E.02319
G1 X134.895 Y128.294 E.00616
G1 X134.329 Y127.818 E.02319
G1 X134.202 Y127.668 E.00616
G1 X133.832 Y127.027 E.02319
G1 X133.765 Y126.843 E.00616
G1 X133.637 Y126.114 E.02319
G1 X133.637 Y125.918 E.00616
G1 X133.765 Y125.189 E.02319
G1 X133.832 Y125.005 E.00616
G1 X134.202 Y124.364 E.02319
G1 X134.329 Y124.214 E.00616
G1 X134.895 Y123.738 E.02319
G1 X135.065 Y123.64 E.00616
G1 X135.76 Y123.387 E.02319
G1 X135.954 Y123.353 E.00616
G1 X136.694 Y123.353 E.02319
G1 X136.887 Y123.387 E.00616
G1 X137.582 Y123.64 E.02319
G1 X137.752 Y123.738 E.00616
G1 X138.319 Y124.214 E.02319
G1 X138.445 Y124.364 E.00616
G1 X138.815 Y125.005 E.02319
G1 X138.882 Y125.189 E.00616
G1 X139.011 Y125.918 E.02319
G1 X139.011 Y126.114 E.00616
G1 X138.881 Y126.846 E.02331
M204 S1000
G1 X138.515 Y126.751 F10800
M204 S800
;TYPE:External perimeter
G1 F1200
G1 X138.119 Y127.479 E.02599
G1 X137.51 Y128.005 E.02522
G1 X136.758 Y128.291 E.02522
G1 X135.954 Y128.302 E.02522
G1 X135.194 Y128.038 E.02522
G1 X134.571 Y127.529 E.02522
G1 X134.159 Y126.839 E.02522
G1 X134.008 Y126.049 E.02522
G1 X134.137 Y125.255 E.02522
G1 X134.529 Y124.553 E.02522
G1 X135.138 Y124.027 E.02522
G1 X135.889 Y123.741 E.02522
G1 X136.694 Y123.73 E.02522
G1 X137.453 Y123.994 E.02522
G1 X138.077 Y124.502 E.02522
G1 X138.488 Y125.193 E.02522
G1 X138.639 Y125.983 E.02522
G1 X138.525 Y126.692 E.02251
M204 S1000
G1 X138.779 Y127.052 F10800
;WIPE_START
G1 F8640
G1 X138.119 Y127.479 E-.20455
G1 X137.51 Y128.005 E-.18571
G1 X136.758 Y128.291 E-.18571
G1 X135.961 Y128.302 E-.18404
;WIPE_END
G1 E-.04 F2100
G1 Z.6 F720
G1 X172.875 Y121.143 F10800
G1 Z.2 F720
G1 E.8 F2100
M204 S800
;TYPE:Solid infill
;WIDTH:0.423536
G1 F1200
G1 X175.766 Y124.034 E.12938
G1 X175.909 Y124.299 E.00954
G1 X175.995 Y124.801 E.01612
G1 X171.851 Y120.657 E.18549
G1 X170.198 Y119.542 E.0631
G1 X176.106 Y125.45 E.26445
G1 X176.197 Y125.979 E.01699
G1 X176.183 Y126.066 E.00276
G1 X168.545 Y118.427 E.34188
G1 X166.892 Y117.312 E.0631
G1 X176.11 Y126.531 E.4126
G1 X176.037 Y126.996 E.0149
G1 X174.048 Y125.007 E.08904
G1 X173.611 Y124.216 E.02859
G1 X173.432 Y124.002 E.00883
G1 X172.853 Y123.516 E.02393
G1 X172.612 Y123.377 E.00881
G1 X172.307 Y123.266 E.01025
G1 X165.239 Y116.198 E.31637
G1 X163.586 Y115.083 E.0631
G1 X171.573 Y123.07 E.35748
G1 X171.035 Y123.07 E.01704
G1 X161.933 Y113.968 E.40737
G1 X160.28 Y112.853 E.0631
G1 X170.558 Y123.132 E.46005
G1 X170.164 Y123.276 E.01329
G1 X159.203 Y112.315 E.49057
G1 X158.454 Y112.104 E.02463
G1 X169.785 Y123.435 E.50715
G1 X169.644 Y123.516 E.00515
G1 X169.475 Y123.663 E.00709
G1 X157.705 Y111.893 E.52678
G1 X156.956 Y111.683 E.02463
G1 X169.186 Y123.913 E.5474
G1 X168.96 Y124.109 E.00948
G1 X168.916 Y124.181 E.00267
G1 X156.207 Y111.472 E.56886
G1 X155.809 Y111.36 E.01307
G1 X155.557 Y111.36 E.008
G1 X168.716 Y124.519 E.58899
G1 X168.516 Y124.857 E.01243
G1 X155.018 Y111.36 E.60412
G1 X154.48 Y111.36 E.01704
G1 X168.395 Y125.274 E.62278
G1 X168.31 Y125.728 E.0146
G1 X153.942 Y111.36 E.64307
G1 X153.404 Y111.36 E.01704
M73 Q2 S45
G1 X168.51 Y126.466 E.67612
M204 S1000
;WIPE_START
G1 F8640
M73 P2 R45
G1 X166.182 Y124.139 E-.76
;WIPE_END
G1 E-.04 F2100
G1 Z.6 F720
G1 X173.962 Y125.459 F10800
G1 Z.2 F720
G1 E.8 F2100
M204 S800
G1 F1200
G1 X175.964 Y127.461 E.0896
G1 X175.933 Y127.664 E.00648
G1 X175.828 Y127.864 E.00713
G1 X174.2 Y126.236 E.07287
G1 X174.115 Y126.689 E.01459
G1 X175.644 Y128.217 E.06842
G1 X175.459 Y128.571 E.01263
G1 X174.003 Y127.114 E.0652
G1 X173.81 Y127.46 E.01252
G1 X175.275 Y128.925 E.06556
G1 X175.188 Y129.091 E.00594
G1 X175.018 Y129.206 E.00649
G1 X173.617 Y127.806 E.06269
G1 X173.473 Y127.993 E.00749
G1 X173.36 Y128.087 E.00463
G1 X174.697 Y129.423 E.05982
G1 X174.376 Y129.641 E.01227
G1 X173.067 Y128.332 E.05858
G1 X172.77 Y128.574 E.01211
G1 X174.055 Y129.858 E.05748
G1 X173.734 Y130.075 E.01227
G1 X172.393 Y128.734 E.06
G1 X171.998 Y128.878 E.01329
G1 X173.412 Y130.292 E.0633
G1 X173.091 Y130.509 E.01227
G1 X171.544 Y128.962 E.06927
G1 X171.005 Y128.962 E.01704
G1 X172.77 Y130.727 E.07899
G1 X172.449 Y130.944 E.01227
G1 X170.317 Y128.812 E.09543
G1 X169.886 Y128.655 E.01453
G1 X169.645 Y128.516 E.00881
G1 X169.065 Y128.03 E.02393
G1 X168.886 Y127.816 E.00882
G1 X168.472 Y127.09 E.02646
G1 X168.417 Y126.912 E.0059
G1 X152.865 Y111.36 E.69607
G1 X152.327 Y111.36 E.01704
G1 X172.128 Y131.161 E.88625
G1 X171.807 Y131.378 E.01227
G1 X151.789 Y111.36 E.89598
G1 X151.763 Y111.36 E.00081
G1 X151.363 Y111.472 E.01315
G1 X171.486 Y131.596 E.90066
G1 X171.165 Y131.813 E.01227
G1 X150.943 Y111.591 E.90509
G1 X150.523 Y111.709 E.01381
G1 X170.844 Y132.03 E.90952
G1 X170.523 Y132.247 E.01227
G1 X150.103 Y111.827 E.91395
M73 P2 R44
G1 X149.683 Y111.945 E.01381
G1 X170.202 Y132.464 E.91838
G1 X169.881 Y132.682 E.01227
G1 X149.263 Y112.064 E.92281
G1 X148.843 Y112.182 E.01381
G1 X169.56 Y132.899 E.92724
G1 X169.239 Y133.116 E.01227
G1 X148.423 Y112.3 E.93167
G1 X148.003 Y112.418 E.01381
G1 X168.918 Y133.333 E.9361
G1 X168.596 Y133.55 E.01227
G1 X147.655 Y112.609 E.93728
G1 X147.334 Y112.826 E.01227
G1 X168.275 Y133.768 E.9373
G1 X167.954 Y133.985 E.01227
G1 X147.012 Y113.043 E.93732
G1 X146.691 Y113.259 E.01227
G1 X167.633 Y134.202 E.93734
G1 X167.312 Y134.419 E.01227
G1 X146.369 Y113.476 E.93736
G1 X146.048 Y113.693 E.01227
M73 P3 R44
M73 Q3 S45
G1 X166.991 Y134.636 E.93738
G1 X166.67 Y134.854 E.01227
G1 X145.726 Y113.91 E.93739
G1 X145.405 Y114.127 E.01227
M73 Q3 S44
G1 X166.349 Y135.071 E.93741
G1 X166.028 Y135.288 E.01227
G1 X145.083 Y114.343 E.93743
G1 X144.762 Y114.56 E.01227
G1 X165.707 Y135.505 E.93745
G1 X165.386 Y135.722 E.01227
G1 X144.44 Y114.777 E.93747
G1 X144.119 Y114.994 E.01227
G1 X165.065 Y135.94 E.93749
G1 X164.744 Y136.157 E.01227
G1 X143.797 Y115.211 E.9375
G1 X143.476 Y115.427 E.01227
G1 X164.423 Y136.374 E.93752
G1 X164.102 Y136.591 E.01227
G1 X143.154 Y115.644 E.93754
G1 X142.833 Y115.861 E.01227
G1 X163.78 Y136.808 E.93756
G1 X163.459 Y137.026 E.01227
G1 X142.511 Y116.078 E.93758
G1 X142.19 Y116.295 E.01227
G1 X163.138 Y137.243 E.9376
G1 X162.817 Y137.46 E.01227
G1 X141.869 Y116.511 E.93761
G1 X141.547 Y116.728 E.01227
G1 X162.496 Y137.677 E.93763
G1 X162.175 Y137.894 E.01227
G1 X141.226 Y116.945 E.93765
G1 X140.904 Y117.162 E.01227
G1 X161.854 Y138.112 E.93767
G1 X161.533 Y138.329 E.01227
G1 X140.583 Y117.378 E.93769
G1 X140.261 Y117.595 E.01227
M73 P4 R44
M73 Q4 S44
G1 X161.212 Y138.546 E.93771
G1 X160.891 Y138.763 E.01227
G1 X139.94 Y117.812 E.93773
G1 X139.618 Y118.029 E.01227
G1 X160.57 Y138.981 E.93774
G1 X160.249 Y139.198 E.01227
G1 X139.297 Y118.246 E.93776
G1 X138.975 Y118.462 E.01227
G1 X159.928 Y139.415 E.93778
G1 X159.68 Y139.583 E.00947
G1 X159.584 Y139.61 E.00315
G1 X138.654 Y118.679 E.93679
G1 X138.332 Y118.896 E.01227
G1 X159.164 Y139.728 E.93238
G1 X158.744 Y139.846 E.01381
G1 X138.011 Y119.113 E.92796
G1 X137.689 Y119.33 E.01227
G1 X158.324 Y139.964 E.92355
G1 X157.904 Y140.082 E.01381
G1 X137.368 Y119.546 E.91914
G1 X137.046 Y119.763 E.01227
G1 X157.484 Y140.201 E.91473
G1 X157.064 Y140.319 E.01381
M73 P4 R43
G1 X136.725 Y119.98 E.91032
G1 X136.403 Y120.197 E.01227
G1 X156.644 Y140.437 E.9059
G1 X156.224 Y140.555 E.01381
G1 X136.082 Y120.414 E.90149
G1 X135.76 Y120.63 E.01227
G1 X155.802 Y140.672 E.89701
G1 X155.264 Y140.672 E.01704
G1 X135.439 Y120.847 E.8873
G1 X135.118 Y121.064 E.01227
G1 X137.284 Y123.23 E.09696
G1 X137.687 Y123.377 E.01357
G1 X137.928 Y123.516 E.00881
G1 X138.507 Y124.002 E.02393
G1 X138.686 Y124.216 E.00882
G1 X139.101 Y124.942 E.02646
G1 X139.147 Y125.094 E.00504
G1 X154.725 Y140.672 E.69724
G1 X154.187 Y140.672 E.01704
G1 X139.267 Y125.752 E.66777
G1 X139.298 Y125.925 E.00554
G1 X139.29 Y126.157 E.00736
G1 X139.266 Y126.289 E.00424
G1 X153.649 Y140.672 E.64376
G1 X153.111 Y140.672 E.01704
M73 P5 R43
G1 X139.181 Y126.742 E.62346
G1 X139.129 Y127.017 E.00885
M73 Q5 S44
G1 X139.063 Y127.163 E.00507
G1 X152.572 Y140.672 E.60464
G1 X152.034 Y140.672 E.01704
G1 X138.863 Y127.501 E.5895
G1 X138.663 Y127.839 E.01243
G1 X151.391 Y140.567 E.56969
G1 X150.642 Y140.356 E.02463
G1 X138.396 Y128.111 E.54809
G1 X138.108 Y128.36 E.01208
G1 X149.893 Y140.145 E.52748
G1 X149.144 Y139.935 E.02463
G1 X137.799 Y128.59 E.50776
G1 X137.687 Y128.655 E.00411
G1 X137.422 Y128.751 E.00891
G1 X148.395 Y139.724 E.49111
G1 X147.893 Y139.583 E.01651
G1 X147.344 Y139.211 E.02097
G1 X137.027 Y128.895 E.46174
G1 X136.702 Y128.962 E.01052
G1 X136.556 Y128.962 E.00461
G1 X145.68 Y138.086 E.40836
G1 X144.016 Y136.96 E.06358
M73 Q5 S43
G1 X135.824 Y128.768 E.36665
M204 S1000
;WIPE_START
G1 F8640
G1 X138.151 Y131.095 E-.76
;WIPE_END
G1 E-.04 F2100
G1 Z.6 F720
G1 X136.769 Y123.254 F10800
G1 Z.2 F720
G1 E.8 F2100
M204 S800
G1 F1200
G1 X134.796 Y121.281 E.08832
