; generated by PrusaSlicer 2.5.0+win64 on 2022-09-21 at 20:16:17 UTC


;
;
; 

; external perimeters extrusion width = 0.45mm
; perimeters extrusion width = 0.45mm
; infill extrusion width = 0.45mm
; solid infill extrusion width = 0.45mm
; top infill extrusion width = 0.40mm
; first layer extrusion width = 0.42mm

M73 P0 R32
M73 Q0 S32
M201 X1000 Y1000 Z200 E5000 ; sets maximum accelerations, mm/sec^2
M203 X200 Y200 Z12 E120 ; sets maximum feedrates, mm / sec
M204 P1250 R1250 T1250 ; sets acceleration (P, T) and retract acceleration (R), mm/sec^2
M205 X8.00 Y8.00 Z0.40 E4.50 ; sets the jerk limits, mm/sec
M205 S0 T0 ; sets the minimum extruding and travel feed rate, mm/sec
M107
;TYPE:Custom
M862.3 P "MK3S" ; printer model check
M862.1 P0.4 ; nozzle diameter check
M115 U3.11.0 ; tell printer latest fw version
G90 ; use absolute coordinates
M83 ; extruder relative mode
M104 S215 ; set extruder temp
M140 S60 ; set bed temp
M190 S60 ; wait for bed temp
M109 S215 ; wait for extruder temp
G28 W ; home all without mesh bed level
G80 ; mesh bed leveling

G1 Z0.2 F720
G1 Y-3 F1000 ; go outside print area
G92 E0
G1 X60 E9 F1000 ; intro line
G1 X100 E12.5 F1000 ; intro line

G92 E0
M221 S95

; Don't change E values below. Excessive value can damage the printer.
M907 E430 ; set extruder motor current
G21 ; set units to millimeters
G90 ; use absolute coordinates
M83 ; use relative distances for extrusion
M900 K0.05 ; Filament gcode LA 1.5
M900 K30 ; Filament gcode LA 1.0
M107
;LAYER_CHANGE
;Z:0.2
;HEIGHT:0.2
;BEFORE_LAYER_CHANGE
G92 E0.0
;0.2


G1 E-.8 F2100
M73 P0 R31
G1 Z.4 F720
;AFTER_LAYER_CHANGE
;0.2
G1 X118.886 Y100.384 F10800
G1 Z.2 F720
G1 E.8 F2100
M204 S800
;TYPE:Skirt/Brim
;WIDTH:0.42
G1 F1108
G1 X119.98 Y99.131 E.05215
G1 X122 Y98.492 E.06643
G1 X128 Y98.492 E.18813
G1 X129.616 Y98.886 E.05215
G1 X130.869 Y99.98 E.05215
M73 Q0 S31
G1 X131.508 Y102 E.06643
G1 X131.508 Y108 E.18813
G1 X131.114 Y109.616 E.05215
G1 X130.02 Y110.869 E.05215
G1 X128 Y111.508 E.06643
G1 X122 Y111.508 E.18813
G1 X120.384 Y111.114 E.05215
G1 X119.131 Y110.02 E.05215
G1 X118.492 Y108 E.06643
G1 X118.492 Y102 E.18813
G1 X118.872 Y100.442 E.05027
M204 S1000
G1 X119.247 Y100.54 F10800
M204 S800
G1 F1108
G1 X119.262 Y100.48 E.00193
G1 X120.344 Y99.342 E.04923
G1 X122 Y98.869 E.054
G1 X128 Y98.869 E.18813
G1 X129.52 Y99.262 E.04923
G1 X130.658 Y100.344 E.04923
G1 X131.131 Y102 E.054
G1 X131.131 Y108 E.18813
G1 X130.738 Y109.52 E.04923
G1 X129.656 Y110.658 E.04923
G1 X128 Y111.131 E.054
G1 X122 Y111.131 E.18813
G1 X120.48 Y110.738 E.04923
G1 X119.342 Y109.656 E.04923
G1 X118.869 Y108 E.054
G1 X118.869 Y102 E.18813
G1 X119.232 Y100.598 E.04542
M204 S1000
G1 X119.606 Y100.701 F10800
M204 S800
G1 F1108
G1 X119.639 Y100.583 E.00386
G1 X120.705 Y99.569 E.04612
G1 X122 Y99.246 E.04186
G1 X128 Y99.246 E.18813
G1 X129.417 Y99.639 E.04612
G1 X130.431 Y100.705 E.04612
G1 X130.754 Y102 E.04186
G1 X130.754 Y108 E.18813
G1 X130.361 Y109.417 E.04612
G1 X129.295 Y110.431 E.04612
G1 X128 Y110.754 E.04186
G1 X122 Y110.754 E.18813
G1 X120.583 Y110.361 E.04612
G1 X119.569 Y109.295 E.04612
G1 X119.246 Y108 E.04186
G1 X119.246 Y102 E.18813
G1 X119.59 Y100.759 E.04038
M204 S1000
G1 X119.961 Y100.87 F10800
M204 S800
G1 F1108
G1 X120.015 Y100.693 E.00581
G1 X121.06 Y99.817 E.04278
G1 X122 Y99.623 E.03008
G1 X128 Y99.623 E.18813
G1 X129.307 Y100.015 E.04278
G1 X130.183 Y101.06 E.04278
G1 X130.377 Y102 E.03008
G1 X130.377 Y108 E.18813
G1 X129.985 Y109.307 E.04278
G1 X128.94 Y110.183 E.04278
G1 X128 Y110.377 E.03008
G1 X122 Y110.377 E.18813
G1 X120.693 Y109.985 E.04278
G1 X119.817 Y108.94 E.04278
G1 X119.623 Y108 E.03008
G1 X119.623 Y102 E.18813
G1 X119.944 Y100.928 E.03509
M204 S1000
; printing object Copy of DaisyBot standoff Square.stl id:0 copy 0
;WIPE_START
G1 F8640
G1 X120.015 Y100.693 E-.05661
G1 X121.06 Y99.817 E-.31505
G1 X122 Y99.623 E-.22155
G1 X122.722 Y99.623 E-.16679
;WIPE_END
G1 E-.04 F2100
G1 Z.6 F720
G1 X122.864 Y103.953 F10800
G1 Z.2 F720
G1 E.8 F2100
M204 S800
;TYPE:Perimeter
;WIDTH:0.574239
G1 F1108
G1 X122.864 Y102.864 E.04808
G1 X123.952 Y102.864 E.04804
G1 X123.53 Y103.123 E.02188
G1 X123.121 Y103.532 E.02554
G1 X122.895 Y103.901 E.01911
M204 S1000
;WIPE_START
G1 F8640
G1 X122.864 Y102.864 E-.23958
G1 X123.952 Y102.864 E-.25109
G1 X123.53 Y103.123 E-.11436
G1 X123.121 Y103.532 E-.13347
G1 X123.072 Y103.611 E-.02149
;WIPE_END
G1 E-.04 F2100
G1 Z.6 F720
G1 X127.121 Y104.12 F10800
G1 Z.2 F720
G1 E.8 F2100
M204 S800
;WIDTH:0.60346
G1 F1108
G1 X127.034 Y103.91 E.01062
G1 X126.792 Y103.524 E.02125
G1 X126.475 Y103.19 E.02142
G1 X126.015 Y102.879 E.02591
G1 X127.121 Y102.879 E.05156
G1 X127.121 Y104.06 E.05507
M204 S1000
;WIPE_START
G1 F8640
G1 X127.034 Y103.91 E-.04019
G1 X126.792 Y103.524 E-.10526
G1 X126.475 Y103.19 E-.1061
G1 X126.015 Y102.879 E-.12835
G1 X127.121 Y102.879 E-.25544
G1 X127.121 Y103.419 E-.12467
;WIPE_END
G1 E-.04 F2100
G1 Z.6 F720
G1 X125.602 Y107.091 F10800
G1 Z.2 F720
G1 E.8 F2100
M204 S800
;WIDTH:0.425439
G1 F1108
G1 X125.957 Y106.952 E.0121
;WIDTH:0.419999
G1 X126.328 Y106.715 E.0138
G1 X126.643 Y106.416 E.01364
G1 X126.897 Y106.055 E.01383
G1 X127.075 Y105.653 E.01378
;WIDTH:0.457955
G1 X127.192 Y105.231 E.01512
G1 X127.213 Y105.681 E.01553
;WIDTH:0.419999
G1 X127.213 Y107.213 E.04804
G1 X126.009 Y107.213 E.03776
;WIDTH:0.457358
G1 X125.215 Y107.194 E.02736
G1 X125.545 Y107.113 E.01173
;WIDTH:0.425439
G1 X125.546 Y107.113 E.00003
M204 S1000
;WIPE_START
G1 F8640
G1 X125.957 Y106.952 E-.10172
G1 X126.328 Y106.715 E-.10164
G1 X126.643 Y106.416 E-.10045
G1 X126.897 Y106.055 E-.10184
G1 X127.075 Y105.653 E-.10146
G1 X127.192 Y105.231 E-.10115
G1 X127.213 Y105.681 E-.10391
G1 X127.213 Y105.888 E-.04783
;WIPE_END
G1 E-.04 F2100
G1 Z.6 F720
G1 X124.114 Y107.122 F10800
G1 Z.2 F720
M73 Q1 S31
G1 E.8 F2100
M204 S800
;WIDTH:0.602687
G1 F1108
G1 X122.878 Y107.122 E.05752
G1 X122.878 Y106.015 E.05149
G1 X123.109 Y106.379 E.02006
G1 X123.356 Y106.643 E.01681
M73 P1 R31
G1 X123.793 Y106.974 E.02552
G1 X124.06 Y107.097 E.01366
M204 S1000
;WIPE_START
G1 F8640
G1 X122.878 Y107.122 E-.27282
G1 X122.878 Y106.015 E-.25544
G1 X123.109 Y106.379 E-.09953
G1 X123.356 Y106.643 E-.08341
G1 X123.524 Y106.771 E-.04881
;WIPE_END
G1 E-.04 F2100
G1 Z.6 F720
G1 X125.453 Y106.744 F10800
G1 Z.2 F720
G1 E.8 F2100
M204 S800
;TYPE:External perimeter
;WIDTH:0.419999
G1 F1108
G1 X125.114 Y106.807 E.01083
G1 X124.75 Y106.804 E.01141
G1 X124.392 Y106.73 E.01146
G1 X124.055 Y106.586 E.0115
G1 X123.686 Y106.311 E.0144
G1 X123.499 Y106.12 E.00841
G1 X123.299 Y105.813 E.01146
G1 X123.163 Y105.475 E.01145
G1 X123.095 Y105.115 E.01147
G1 X123.098 Y104.751 E.01142
G1 X123.174 Y104.392 E.01149
G1 X123.316 Y104.057 E.01143
G1 X123.638 Y103.64 E.0165
G1 X124.055 Y103.317 E.01653
G1 X124.427 Y103.163 E.01264
G1 X124.786 Y103.096 E.01145
G1 X125.15 Y103.099 E.01141
G1 X125.509 Y103.174 E.01148
G1 X125.845 Y103.317 E.01148
G1 X126.144 Y103.523 E.01138
G1 X126.401 Y103.784 E.01149
G1 X126.601 Y104.089 E.01144
G1 X126.737 Y104.427 E.01143
G1 X126.805 Y104.787 E.01148
G1 X126.802 Y105.153 E.01147
G1 X126.726 Y105.509 E.01142
G1 X126.584 Y105.846 E.01147
G1 X126.264 Y106.261 E.01643
G1 X125.845 Y106.586 E.0166
G1 X125.51 Y106.725 E.01139
M204 S1000
G1 X125.377 Y107.081 F10800
;WIPE_START
G1 F8640
G1 X125.114 Y106.807 E-.09343
G1 X124.75 Y106.804 E-.08404
G1 X124.392 Y106.73 E-.08439
G1 X124.055 Y106.586 E-.08468
G1 X123.686 Y106.311 E-.10607
G1 X123.499 Y106.12 E-.06191
G1 X123.299 Y105.813 E-.0844
G1 X123.163 Y105.475 E-.08433
G1 X123.101 Y105.148 E-.07674
;WIPE_END
G1 E-.04 F2100
G1 Z.6 F720
G1 X127.192 Y104.672 F10800
G1 Z.2 F720
G1 E.8 F2100
M204 S800
;TYPE:Perimeter
;WIDTH:0.461958
G1 F1108
G1 X127.193 Y105.217 E.01898
M204 S1000
;WIPE_START
G1 F8640
G1 X127.192 Y104.672 E-.12579
;WIPE_END
G1 E-.67421 F2100
G1 Z.6 F720
G1 X127.59 Y102.41 F10800
G1 Z.2 F720
G1 E.8 F2100
M204 S800
;TYPE:External perimeter
;WIDTH:0.419999
G1 F1108
G1 X127.59 Y107.59 E.16242
G1 X122.41 Y107.59 E.16242
G1 X122.41 Y102.41 E.16242
G1 X127.53 Y102.41 E.16053
M204 S1000
G1 X127.486 Y102.796 F10800
;WIPE_START
G1 F8640
G1 X127.568 Y105.701 E-.76
;WIPE_END
G1 E-.04 F2100
G1 Z.6 F720
G1 X124.694 Y102.757 F10800
G1 Z.2 F720
G1 E.8 F2100
M204 S800
;TYPE:Perimeter
;WIDTH:0.361712
G1 F1108
G1 X125.217 Y102.758 E.01388
M204 S1000
;WIPE_START
G1 F8640
G1 X124.694 Y102.757 E-.1209
;WIPE_END
G1 E-.6791 F2100
G1 Z.6 F720
G1 X122.756 Y105.208 F10800
G1 Z.2 F720
G1 E.8 F2100
M204 S800
;WIDTH:0.360864
G1 F1108
G1 X122.758 Y104.683 E.01387
M204 S1000
;WIPE_START
G1 F8640
G1 X122.756 Y105.208 E-.12116
;WIPE_END
G1 E-.67884 F2100
G1 Z.6 F720
G1 X125.215 Y107.194 F10800
G1 Z.2 F720
G1 E.8 F2100
M204 S800
;WIDTH:0.459556
G1 F1108
G1 X124.673 Y107.193 E.01876
M204 S1000
;WIPE_START
G1 F8640
G1 X125.215 Y107.194 E-.12502
;WIPE_END
G1 E-.67498 F2100
G1 Z.6 F720
G1 X126.485 Y106.731 F10800
G1 Z.2 F720
G1 E.8 F2100
M204 S800
;TYPE:Solid infill
;WIDTH:0.495415
G1 F1108
G1 X126.854 Y107.1 E.01965
M204 S1000
; stop printing object Copy of DaisyBot standoff Square.stl id:0 copy 0
M106 S84.15
;LAYER_CHANGE
;Z:0.35
;HEIGHT:0.15
;BEFORE_LAYER_CHANGE
G92 E0.0
;0.35


;WIPE_START
G1 F8640
G1 X126.485 Y106.731 E-.12059
;WIPE_END
G1 E-.67941 F2100
G1 Z.6 F720
;AFTER_LAYER_CHANGE
;0.35
G1 X126.485 Y111.508 F10800
G1 Z.35 F720
G1 E.8 F2100
;TYPE:Skirt/Brim
;WIDTH:0.42
G1 F1049
G1 X122 Y111.508 E.10846
G1 X120.384 Y111.114 E.04023
G1 X119.131 Y110.02 E.04023
G1 X118.492 Y108 E.05124
G1 X118.492 Y102 E.14511
G1 X118.886 Y100.384 E.04023
G1 X119.98 Y99.131 E.04023
G1 X122 Y98.492 E.05124
G1 X128 Y98.492 E.14511
G1 X129.616 Y98.886 E.04023
G1 X130.869 Y99.98 E.04023
G1 X131.508 Y102 E.05124
G1 X131.508 Y108 E.14511
G1 X131.114 Y109.616 E.04023
G1 X130.02 Y110.869 E.04023
G1 X128 Y111.508 E.05124
G1 X126.545 Y111.508 E.0352
G1 X126.545 Y111.131 F10800
G1 F1049
G1 X122 Y111.131 E.10991
G1 X120.48 Y110.738 E.03797
G1 X119.342 Y109.656 E.03797
G1 X118.869 Y108 E.04165
G1 X118.869 Y102 E.14511
G1 X119.262 Y100.48 E.03797
G1 X120.344 Y99.342 E.03797
G1 X122 Y98.869 E.04165
G1 X128 Y98.869 E.14511
G1 X129.52 Y99.262 E.03797
G1 X130.658 Y100.344 E.03797
G1 X131.131 Y102 E.04165
G1 X131.131 Y108 E.14511
G1 X130.738 Y109.52 E.03797
G1 X129.656 Y110.658 E.03797
G1 X128 Y111.131 E.04165
G1 X126.605 Y111.131 E.03374
G1 X126.605 Y110.754 F10800
G1 F1049
G1 X122 Y110.754 E.11136
G1 X120.583 Y110.361 E.03557
G1 X119.569 Y109.295 E.03557
G1 X119.246 Y108 E.03229
G1 X119.246 Y102 E.14511
G1 X119.639 Y100.583 E.03557
G1 X120.705 Y99.569 E.03557
G1 X122 Y99.246 E.03229
G1 X128 Y99.246 E.14511
G1 X129.417 Y99.639 E.03557
G1 X130.431 Y100.705 E.03557
G1 X130.754 Y102 E.03229
G1 X130.754 Y108 E.14511
G1 X130.361 Y109.417 E.03557
G1 X129.295 Y110.431 E.03557
G1 X128 Y110.754 E.03229
G1 X126.665 Y110.754 E.03229
G1 X126.665 Y110.377 F10800
G1 F1049
G1 X122 Y110.377 E.11282
G1 X120.693 Y109.985 E.033
G1 X119.817 Y108.94 E.033
G1 X119.623 Y108 E.02321
G1 X119.623 Y102 E.14511
G1 X120.015 Y100.693 E.033
G1 X121.06 Y99.817 E.033
G1 X122 Y99.623 E.02321
G1 X128 Y99.623 E.14511
G1 X129.307 Y100.015 E.033
G1 X130.183 Y101.06 E.033
G1 X130.377 Y102 E.02321
G1 X130.377 Y108 E.14511
G1 X129.985 Y109.307 E.033
G1 X128.94 Y110.183 E.033
G1 X128 Y110.377 E.02321
G1 X126.725 Y110.377 E.03084
; printing object Copy of DaisyBot standoff Square.stl id:0 copy 0
;WIPE_START
G1 F8640
G1 X123.433 Y110.377 E-.76
;WIPE_END
G1 E-.04 F2100
G1 Z.75 F720
G1 X127.357 Y102.643 F10800
G1 Z.35 F720
G1 E.8 F2100
M204 S800
;TYPE:Perimeter
;WIDTH:0.449999
G1 F1049
G1 X127.357 Y103.159 E.01344
G1 X127.363 Y104.363 E.03138
;WIDTH:0.43846
G1 X127.382 Y105.096 E.01857
;WIDTH:0.449999
G1 X127.357 Y105.701 E.01578
G1 X127.357 Y107.357 E.04316
G1 X125.535 Y107.362 E.04748
;WIDTH:0.439481
G1 X124.806 Y107.383 E.01851
;WIDTH:0.424643
G1 X124.503 Y107.37 E.00743
;WIDTH:0.449999
G1 X122.643 Y107.357 E.04847
G1 X122.632 Y105.53 E.04762
;WIDTH:0.428192
G1 X122.612 Y105.168 E.00893
;WIDTH:0.389239
G1 X122.593 Y104.807 E.00805
;WIDTH:0.400143
G1 X122.618 Y104.514 E.00676
;WIDTH:0.449999
G1 X122.643 Y104.22 E.00768
G1 X122.643 Y102.643 E.0411
G1 X124.375 Y102.632 E.04512
;WIDTH:0.427768
G1 X124.734 Y102.612 E.00888
;WIDTH:0.389277
G1 X125.094 Y102.593 E.00802
;WIDTH:0.400393
G1 X125.387 Y102.618 E.00677
;WIDTH:0.449999
G1 X125.681 Y102.643 E.00768
G1 X127.297 Y102.643 E.04212
M204 S1000
G1 X127.775 Y102.225 F10800
M204 S800
;TYPE:External perimeter
G1 F1049
G1 X127.775 Y107.775 E.14461
G1 X122.225 Y107.775 E.14461
G1 X122.225 Y102.225 E.14461
G1 X127.715 Y102.225 E.14305
M204 S1000
G1 X127.671 Y102.611 F10800
;WIPE_START
G1 F8640
G1 X127.751 Y105.516 E-.76
;WIPE_END
G1 E-.04 F2100
G1 Z.75 F720
G1 X125.563 Y106.941 F10800
G1 Z.35 F720
G1 E.8 F2100
M204 S800
;TYPE:Perimeter
G1 F1049
G1 X125.496 Y106.968 E.00188
;WIDTH:0.439481
G1 X124.806 Y107.015 E.01757
;WIDTH:0.424643
G1 X124.545 Y106.976 E.00647
;WIDTH:0.449999
G1 X124.283 Y106.937 E.00689
G1 X123.907 Y106.768 E.01075
G1 X123.521 Y106.477 E.01259
G1 X123.293 Y106.232 E.00872
G1 X123.075 Y105.884 E.0107
G1 X122.941 Y105.499 E.01063
;WIDTH:0.428192
G1 X122.926 Y105.153 E.00855
;WIDTH:0.389239
G1 X122.911 Y104.807 E.00771
;WIDTH:0.400143
G1 X122.938 Y104.546 E.00603
;WIDTH:0.449999
G1 X122.966 Y104.284 E.00685
G1 X123.133 Y103.911 E.01067
G1 X123.473 Y103.475 E.0144
G1 X123.907 Y103.135 E.01436
G1 X124.283 Y102.966 E.01075
G1 X124.405 Y102.94 E.00323
;WIDTH:0.427768
G1 X124.749 Y102.926 E.0085
;WIDTH:0.389277
G1 X125.094 Y102.912 E.00768
;WIDTH:0.400393
G1 X125.355 Y102.939 E.00604
;WIDTH:0.449999
G1 X125.617 Y102.966 E.00685
G1 X125.993 Y103.135 E.01075
G1 X126.323 Y103.371 E.01059
G1 X126.607 Y103.671 E.01075
G1 X126.824 Y104.018 E.01068
G1 X126.964 Y104.403 E.01065
;WIDTH:0.43846
G1 X127.014 Y105.096 E.0176
;WIDTH:0.449999
G1 X126.935 Y105.617 E.01374
G1 X126.767 Y105.992 E.01072
G1 X126.429 Y106.427 E.01434
G1 X125.993 Y106.768 E.01442
G1 X125.619 Y106.919 E.01051
M204 S1000
M73 Q2 S31
G1 X125.417 Y106.563 F10800
M204 S800
;TYPE:External perimeter
G1 F1049
G1 X125.094 Y106.623 E.00857
G1 X124.766 Y106.619 E.00853
G1 X124.443 Y106.551 E.00859
G1 X124.141 Y106.422 E.00858
G1 X123.816 Y106.181 E.01053
G1 X123.641 Y106 E.00656
G1 X123.462 Y105.724 E.00857
G1 X123.34 Y105.419 E.00857
G1 X123.279 Y105.096 E.00857
G1 X123.283 Y104.766 E.00858
G1 X123.352 Y104.444 E.00858
G1 X123.481 Y104.143 E.00856
G1 X123.768 Y103.771 E.01223
G1 X124.141 Y103.481 E.0123
G1 X124.483 Y103.34 E.00966
M73 P2 R31
G1 X124.806 Y103.28 E.00857
G1 X125.134 Y103.284 E.00853
G1 X125.457 Y103.352 E.00859
G1 X125.759 Y103.481 E.00858
G1 X126.029 Y103.667 E.00853
G1 X126.259 Y103.903 E.00859
G1 X126.438 Y104.178 E.00856
G1 X126.56 Y104.483 E.00856
G1 X126.621 Y104.807 E.00859
G1 X126.617 Y105.137 E.00858
G1 X126.549 Y105.457 E.00854
G1 X126.419 Y105.76 E.00859
G1 X126.134 Y106.131 E.01217
G1 X125.759 Y106.422 E.01236
G1 X125.472 Y106.54 E.0081
M204 S1000
G1 X125.345 Y106.884 F10800
;WIPE_START
G1 F8640
G1 X125.094 Y106.623 E-.08951
G1 X124.766 Y106.619 E-.07561
G1 X124.443 Y106.551 E-.07616
G1 X124.141 Y106.422 E-.07607
G1 X123.816 Y106.181 E-.09332
G1 X123.641 Y106 E-.05811
G1 X123.462 Y105.724 E-.07593
G1 X123.34 Y105.419 E-.07596
G1 X123.279 Y105.096 E-.07593
G1 X123.282 Y104.821 E-.0634
;WIPE_END
G1 E-.04 F2100
G1 Z.75 F720
G1 X127.232 Y106.21 F10800
G1 Z.35 F720
G1 E.8 F2100
;TYPE:Solid infill
;WIDTH:0.533561
G1 F1049
G1 X126.21 Y107.232 E.04518
;WIPE_START
G1 F8640
G1 X127.232 Y106.21 E-.33368
;WIPE_END
G1 E-.46632 F2100
G1 Z.75 F720
G1 X122.814 Y107.232 F10800
G1 Z.35 F720
G1 E.8 F2100
G1 F1049
G1 X123.325 Y106.721 E.02259
G1 X123.036 Y106.411 E.01324
G1 X122.994 Y106.343 E.00251
G1 X122.768 Y106.569 E.00997
;WIPE_START
G1 F8640
G1 X122.994 Y106.343 E-.07363
G1 X123.036 Y106.411 E-.01855
G1 X123.325 Y106.721 E-.09778
G1 X122.814 Y107.232 E-.16684
;WIPE_END
G1 E-.4432 F2100
G1 Z.75 F720
G1 X123.722 Y102.825 F10800
G1 Z.35 F720
G1 E.8 F2100
;WIDTH:0.528278
G1 F1049
G1 X122.821 Y103.725 E.03941
;WIPE_START
G1 F8640
G1 X123.722 Y102.825 E-.29414
;WIPE_END
G1 E-.50586 F2100
