; generated by PrusaSlicer 2.5.2+win64 on 2023-05-23 at 18:38:50 UTC


;
;
; 

; external perimeters extrusion width = 0.45mm
; perimeters extrusion width = 0.45mm
; infill extrusion width = 0.45mm
; solid infill extrusion width = 0.45mm
; top infill extrusion width = 0.40mm
; first layer extrusion width = 0.42mm

M73 P0 R119
M73 Q0 S120
M201 X1000 Y1000 Z200 E5000 ; sets maximum accelerations, mm/sec^2
M203 X200 Y200 Z12 E120 ; sets maximum feedrates, mm / sec
M204 P1250 R1250 T1250 ; sets acceleration (P, T) and retract acceleration (R), mm/sec^2
M205 X8.00 Y8.00 Z0.40 E4.50 ; sets the jerk limits, mm/sec
M205 S0 T0 ; sets the minimum extruding and travel feed rate, mm/sec
M107
;TYPE:Custom
M862.3 P "MK3S" ; printer model check
M862.1 P0.4 ; nozzle diameter check
M115 U3.11.0 ; tell printer latest fw version
G90 ; use absolute coordinates
M83 ; extruder relative mode
M104 S215 ; set extruder temp
M140 S60 ; set bed temp
M190 S60 ; wait for bed temp
M109 S215 ; wait for extruder temp
G28 W ; home all without mesh bed level
G80 ; mesh bed leveling

G1 Z0.2 F720
G1 Y-3 F1000 ; go outside print area
G92 E0
G1 X60 E9 F1000 ; intro line
G1 X100 E12.5 F1000 ; intro line

G92 E0
M221 S95

; Don't change E values below. Excessive value can damage the printer.
M907 E430 ; set extruder motor current
G21 ; set units to millimeters
G90 ; use absolute coordinates
M83 ; use relative distances for extrusion
M900 K0.05 ; Filament gcode LA 1.5
M900 K30 ; Filament gcode LA 1.0
M107
;LAYER_CHANGE
;Z:0.2
;HEIGHT:0.2
;BEFORE_LAYER_CHANGE
G92 E0.0
;0.2


G1 E-.8 F2100
G1 Z.4 F720
;AFTER_LAYER_CHANGE
;0.2
G1 X89.039 Y57.037 F10800
G1 Z.2 F720
G1 E.8 F2100
M204 S800
;TYPE:Skirt/Brim
;WIDTH:0.42
G1 F1200
G1 X90.574 Y56.103 E.05633
G1 X123.774 Y50.776 E1.0543
G1 X125.202 Y50.682 E.04486
G1 X126.226 Y50.776 E.03223
G1 X159.425 Y56.103 E1.05427
G1 X160.654 Y56.697 E.04278
G1 X161.422 Y58.321 E.05633
G1 X163.826 Y102.501 E1.38728
G1 X163.823 Y107.628 E.16076
G1 X161.422 Y151.678 E1.38319
G1 X160.96 Y152.962 E.04278
G1 X159.425 Y153.896 E.05633
G1 X126.226 Y159.224 E1.05427
G1 X125.202 Y159.318 E.03223
G1 X123.775 Y159.224 E.04485
G1 X90.569 Y153.902 E1.05442
G1 X89.341 Y153.308 E.04278
G1 X88.572 Y151.683 E.05635
G1 X86.174 Y107.499 E1.38741
G1 X86.177 Y102.372 E.16076
G1 X88.577 Y58.321 E1.38322
G1 X89.019 Y57.094 E.0409
M204 S1000
; printing object JetsonNano_Top.STL id:0 copy 0
;WIPE_START
G1 F8640
G1 X90.574 Y56.103 E-.42573
G1 X92.003 Y55.874 E-.33427
;WIPE_END
G1 E-.04 F2100
G1 Z.6 F720
G1 X120.89 Y150.898 F10800
G1 Z.2 F720
G1 E.8 F2100
M204 S800
;TYPE:Perimeter
;WIDTH:0.419999
G1 F1200
G1 X120.906 Y150.779 E.00377
G1 X120.82 Y150.542 E.00791
G1 X120.612 Y150.35 E.00886
G1 X120.344 Y150.283 E.00866
G1 X92.219 Y150.281 E.88184
G1 X92.228 Y107.278 E1.34833
G1 X92.21 Y107.134 E.00454
G1 X92.071 Y106.886 E.0089
G1 X91.849 Y106.743 E.00829
G1 X91.663 Y106.712 E.00592
G1 X89.338 Y106.712 E.07289
G1 X89.338 Y103.288 E.10735
G1 X91.05 Y103.288 E.05368
G1 X91.843 Y103.256 E.02488
G1 X91.98 Y103.186 E.00483
G1 X92.166 Y102.965 E.00904
G1 X92.221 Y102.722 E.00781
G1 X92.221 Y59.721 E1.34828
G1 X120.393 Y59.715 E.88332
G1 X120.652 Y59.626 E.00858
G1 X120.845 Y59.414 E.00899
G1 X120.91 Y59.151 E.00848
G1 X120.823 Y58.592 E.01774
G1 X120.791 Y57.912 E.02134
G1 X120.878 Y57.189 E.02284
G1 X121.085 Y56.503 E.02246
G1 X121.404 Y55.86 E.02252
G1 X121.803 Y55.317 E.02112
G1 X122.184 Y54.938 E.01684
G1 X122.576 Y54.626 E.01572
G1 X123.034 Y54.334 E.01702
G1 X122.872 Y54.719 E.0131
G1 X122.77 Y55.059 E.01111
G1 X122.715 Y55.501 E.01398
G1 X122.74 Y55.897 E.01243
G1 X122.836 Y56.286 E.01258
G1 X122.995 Y56.649 E.01242
G1 X123.318 Y57.092 E.01717
G1 X123.73 Y57.438 E.01687
G1 X124.174 Y57.681 E.01588
G1 X124.553 Y57.792 E.01239
G1 X124.954 Y57.835 E.01263
G1 X125.345 Y57.81 E.0123
G1 X125.735 Y57.714 E.01258
G1 X126.099 Y57.554 E.01245
G1 X126.399 Y57.356 E.01128
G1 X126.719 Y57.058 E.01372
G1 X126.95 Y56.743 E.01225
G1 X127.096 Y56.453 E.01016
G1 X127.226 Y56.056 E.01312
G1 X127.287 Y55.6 E.0144
G1 X127.259 Y55.198 E.01266
G1 X127.163 Y54.812 E.01245
G1 X126.91 Y54.308 E.01769
G1 X127.059 Y54.378 E.00517
G1 X127.655 Y54.782 E.02255
G1 X128.172 Y55.283 E.02257
G1 X128.596 Y55.86 E.02245
G1 X128.915 Y56.503 E.02252
G1 X129.121 Y57.188 E.02243
G1 X129.208 Y57.929 E.02338
G1 X129.171 Y58.642 E.02239
G1 X129.1 Y59.22 E.01826
G1 X129.19 Y59.464 E.00817
G1 X129.395 Y59.651 E.0087
G1 X129.661 Y59.717 E.00859
G1 X157.779 Y59.721 E.88161
G1 X157.779 Y102.722 E1.34828
G1 X157.797 Y102.865 E.00451
G1 X157.936 Y103.113 E.00891
G1 X158.158 Y103.257 E.0083
G1 X158.345 Y103.288 E.00592
G1 X160.662 Y103.288 E.07266
G1 X160.662 Y106.712 E.10735
G1 X158.295 Y106.714 E.0742
G1 X158.021 Y106.814 E.00914
G1 X157.834 Y107.034 E.00905
G1 X157.779 Y107.278 E.00784
G1 X157.779 Y150.279 E1.34828
G1 X129.555 Y150.293 E.88493
G1 X129.297 Y150.416 E.00897
M73 P0 R118
G1 X129.141 Y150.627 E.00822
G1 X129.097 Y150.877 E.00795
G1 X129.177 Y151.404 E.01674
G1 X129.209 Y152.07 E.02088
G1 X129.121 Y152.812 E.02342
G1 X128.915 Y153.497 E.02243
G1 X128.596 Y154.14 E.02252
G1 X128.172 Y154.717 E.02245
G1 X127.811 Y155.067 E.01576
G1 X127.424 Y155.374 E.01548
G1 X126.967 Y155.666 E.01702
G1 X127.128 Y155.281 E.01309
G1 X127.23 Y154.941 E.01111
G1 X127.287 Y154.503 E.01385
G1 X127.259 Y154.098 E.01273
G1 X127.164 Y153.714 E.01242
G1 X127.005 Y153.351 E.01242
G1 X126.782 Y153.017 E.01257
G1 X126.508 Y152.73 E.01246
G1 X126.182 Y152.494 E.01261
G1 X125.828 Y152.319 E.01238
G1 X125.297 Y152.188 E.01714
G1 X124.701 Y152.188 E.0187
G1 X124.222 Y152.299 E.01541
G1 X123.774 Y152.525 E.01573
G1 X123.318 Y152.908 E.01869
G1 X123.051 Y153.255 E.01373
G1 X122.904 Y153.547 E.01022
G1 X122.774 Y153.944 E.01312
G1 X122.715 Y154.404 E.01453
G1 X122.741 Y154.797 E.01236
G1 X122.837 Y155.188 E.01261
G1 X123.09 Y155.692 E.01769
G1 X122.941 Y155.622 E.00517
G1 X122.345 Y155.218 E.02256
G1 X121.828 Y154.717 E.02257
G1 X121.404 Y154.14 E.02245
G1 X121.085 Y153.497 E.02252
G1 X120.878 Y152.811 E.02246
G1 X120.792 Y152.086 E.02289
G1 X120.829 Y151.361 E.02277
G1 X120.882 Y150.958 E.01274
M204 S1000
G1 X120.53 Y150.881 F10800
M204 S800
;TYPE:External perimeter
G1 F1200
G1 X120.488 Y150.727 E.005
G1 X120.344 Y150.66 E.00499
G1 X91.842 Y150.658 E.89366
G1 X91.851 Y107.278 E1.36016
G1 X91.799 Y107.147 E.00441
G1 X91.663 Y107.089 E.00464
G1 X88.961 Y107.089 E.08471
G1 X88.961 Y102.911 E.131
G1 X91.655 Y102.911 E.08447
G1 X91.792 Y102.852 E.00466
G1 X91.844 Y102.726 E.0043
G1 X91.844 Y59.344 E1.3602
G1 X120.344 Y59.34 E.89361
G1 X120.464 Y59.297 E.00401
G1 X120.533 Y59.151 E.00503
G1 X120.448 Y58.633 E.01648
G1 X120.413 Y57.899 E.02304
G1 X120.508 Y57.111 E.02486
G1 X120.734 Y56.364 E.02447
G1 X121.081 Y55.663 E.02453
G1 X121.543 Y55.034 E.02448
G1 X122.107 Y54.488 E.02459
G1 X122.715 Y54.075 E.02305
G1 X123.147 Y53.865 E.01508
;WIDTH:0.422515
G1 X123.623 Y53.664 E.01631
G1 X124.365 Y53.444 E.02442
;WIDTH:0.419825
G1 X124.898 Y53.375 E.01685
;WIDTH:0.416872
G1 X125.396 Y53.411 E.0155
;WIDTH:0.428302
G1 X126.017 Y53.548 E.02038
G1 X126.524 Y53.711 E.01708
;WIDTH:0.419999
G1 X127.246 Y54.049 E.02501
G1 X127.893 Y54.488 E.02452
G1 X128.457 Y55.034 E.02459
G1 X128.919 Y55.663 E.02448
G1 X129.266 Y56.364 E.02453
G1 X129.492 Y57.111 E.02446
G1 X129.587 Y57.917 E.02543
G1 X129.552 Y58.574 E.02065
G1 X129.475 Y59.121 E.01732
G1 X129.519 Y59.276 E.00503
G1 X129.661 Y59.34 E.00489
G1 X158.156 Y59.344 E.89343
G1 X158.156 Y102.722 E1.3601
G1 X158.208 Y102.853 E.0044
M73 Q0 S119
G1 X158.345 Y102.911 E.00465
G1 X161.039 Y102.911 E.08448
G1 X161.039 Y105 E.0655
G1 X161.039 Y107.089 E.0655
G1 X158.345 Y107.089 E.08448
G1 X158.208 Y107.147 E.00465
G1 X158.156 Y107.274 E.00431
G1 X158.156 Y150.656 E1.3602
G1 X129.661 Y150.66 E.89342
G1 X129.529 Y150.714 E.00448
G1 X129.473 Y150.858 E.00484
G1 X129.552 Y151.366 E.01612
G1 X129.587 Y152.083 E.0225
G1 X129.492 Y152.889 E.02545
G1 X129.266 Y153.636 E.02446
G1 X128.919 Y154.337 E.02453
G1 X128.457 Y154.966 E.02448
G1 X127.893 Y155.512 E.02459
G1 X127.285 Y155.925 E.02305
G1 X126.853 Y156.135 E.01506
;WIDTH:0.422544
G1 X126.375 Y156.337 E.01639
;WIDTH:0.436188
G1 X125.747 Y156.534 E.02152
G1 X125.025 Y156.628 E.0238
;WIDTH:0.43131
G1 X124.602 Y156.589 E.01371
;WIDTH:0.428279
G1 X123.981 Y156.452 E.02041
G1 X123.476 Y156.289 E.01698
;WIDTH:0.419999
G1 X122.754 Y155.951 E.02502
G1 X122.107 Y155.512 E.02452
G1 X121.543 Y154.966 E.02459
G1 X121.081 Y154.337 E.02448
G1 X120.734 Y153.636 E.02453
G1 X120.508 Y152.889 E.02447
G1 X120.413 Y152.099 E.02494
G1 X120.447 Y151.44 E.02069
G1 X120.521 Y150.94 E.01583
M204 S1000
G1 X120.655 Y150.782 F10800
;WIPE_START
G1 F8640
G1 X120.488 Y150.727 E-.04983
G1 X120.344 Y150.66 E-.03672
G1 X117.428 Y150.66 E-.67345
;WIPE_END
G1 E-.04 F2100
G1 Z.6 F720
G1 X126.216 Y155.894 F10800
G1 Z.2 F720
G1 E.8 F2100
M204 S800
;WIDTH:0.422544
G1 F1200
G1 X126.188 Y155.919 E.0012
;WIDTH:0.428898
G1 X125.883 Y156.09 E.01121
G1 X125.326 Y156.226 E.01842
;WIDTH:0.413655
G1 X124.718 Y156.232 E.01873
;WIDTH:0.428709
G1 X124.114 Y156.09 E.01992
G1 X123.745 Y155.86 E.01395
;WIDTH:0.419999
G1 X123.536 Y155.664 E.00899
G1 X123.34 Y155.389 E.01057
G1 X123.201 Y155.089 E.01039
G1 X123.116 Y154.765 E.01047
G1 X123.091 Y154.435 E.01038
G1 X123.138 Y154.042 E.01241
G1 X123.337 Y153.509 E.01785
G1 X123.56 Y153.197 E.01202
G1 X124.016 Y152.814 E.01869
G1 X124.362 Y152.65 E.01199
G1 X124.692 Y152.566 E.01068
G1 X125.297 Y152.565 E.01898
G1 X125.669 Y152.661 E.01203
G1 X126.176 Y152.948 E.01827
G1 X126.474 Y153.234 E.01294
G1 X126.753 Y153.705 E.01718
G1 X126.884 Y154.133 E.01402
G1 X126.911 Y154.468 E.01057
G1 X126.866 Y154.842 E.01181
G1 X126.788 Y155.12 E.00904
G1 X126.642 Y155.42 E.01046
G1 X126.44 Y155.691 E.01059
;WIDTH:0.422544
G1 X126.261 Y155.853 E.00765
M204 S1000
;WIPE_START
G1 F8640
G1 X126.188 Y155.919 E-.0226
G1 X125.883 Y156.09 E-.08063
G1 X125.326 Y156.226 E-.13253
G1 X124.718 Y156.232 E-.14027
G1 X124.114 Y156.09 E-.14335
G1 X123.745 Y155.86 E-.10041
G1 X123.536 Y155.664 E-.06622
G1 X123.35 Y155.403 E-.07398
;WIPE_END
G1 E-.04 F2100
G1 Z.6 F720
G1 X124.101 Y53.914 F10800
G1 Z.2 F720
G1 E.8 F2100
M204 S800
;WIDTH:0.428279
G1 F1200
G1 X124.414 Y53.817 E.0105
;WIDTH:0.419825
G1 X124.947 Y53.746 E.01685
;WIDTH:0.416872
G1 X125.326 Y53.774 E.0118
;WIDTH:0.428723
G1 X125.883 Y53.91 E.01842
G1 X126.255 Y54.138 E.01399
;WIDTH:0.419999
G1 X126.44 Y54.309 E.00791
G1 X126.66 Y54.611 E.01169
G1 X126.799 Y54.911 E.01039
G1 X126.883 Y55.232 E.0104
G1 X126.911 Y55.566 E.0105
G1 X126.862 Y55.958 E.01237
G1 X126.663 Y56.491 E.01785
G1 X126.453 Y56.791 E.01149
G1 X126.184 Y57.046 E.01162
G1 X125.939 Y57.213 E.00927
G1 X125.638 Y57.35 E.01039
G1 X125.313 Y57.434 E.0105
G1 X124.985 Y57.459 E.01031
G1 X124.651 Y57.428 E.01051
G1 X124.332 Y57.339 E.0104
G1 X123.972 Y57.149 E.01277
G1 X123.56 Y56.803 E.01687
G1 X123.337 Y56.491 E.01202
G1 X123.138 Y55.958 E.01785
G1 X123.091 Y55.533 E.0134
G1 X123.134 Y55.158 E.01184
G1 X123.212 Y54.88 E.00904
G1 X123.358 Y54.58 E.01046
G1 X123.561 Y54.308 E.01064
;WIDTH:0.422515
G1 X123.813 Y54.082 E.01068
;WIDTH:0.428279
G1 X124.049 Y53.944 E.00877
M204 S1000
;WIPE_START
G1 F8640
G1 X124.414 Y53.817 E-.08922
G1 X124.947 Y53.746 E-.12415
G1 X125.326 Y53.774 E-.08765
G1 X125.883 Y53.91 E-.13257
G1 X126.255 Y54.138 E-.10067
G1 X126.44 Y54.309 E-.05822
G1 X126.66 Y54.611 E-.08612
G1 X126.799 Y54.911 E-.07653
G1 X126.804 Y54.932 E-.00486
;WIPE_END
G1 E-.04 F2100
G1 Z.6 F720
G1 X156.903 Y59.834 F10800
G1 Z.2 F720
G1 E.8 F2100
M204 S800
;TYPE:Solid infill
;WIDTH:0.420065
G1 F1200
G1 X157.496 Y60.427 E.0263
G1 X157.496 Y60.96 E.01673
G1 X156.539 Y60.003 E.04244
G1 X156.006 Y60.003 E.01673
G1 X157.496 Y61.494 E.0661
G1 X157.496 Y62.027 E.01673
G1 X155.472 Y60.003 E.08977
G1 X154.939 Y60.003 E.01673
G1 X157.496 Y62.56 E.11343
G1 X157.496 Y63.094 E.01673
G1 X154.405 Y60.002 E.1371
G1 X153.871 Y60.002 E.01673
G1 X157.496 Y63.627 E.16076
G1 X157.496 Y64.161 E.01673
G1 X153.338 Y60.002 E.18443
G1 X152.804 Y60.002 E.01673
G1 X157.496 Y64.694 E.20809
G1 X157.496 Y65.227 E.01673
G1 X152.271 Y60.002 E.23176
G1 X151.737 Y60.001 E.01673
G1 X157.496 Y65.761 E.25542
G1 X157.496 Y66.294 E.01673
G1 X151.204 Y60.001 E.27908
G1 X150.67 Y60.001 E.01673
G1 X157.496 Y66.827 E.30275
G1 X157.496 Y67.361 E.01673
G1 X150.136 Y60.001 E.32641
G1 X149.603 Y60.001 E.01673
G1 X157.496 Y67.894 E.35008
G1 X157.496 Y68.428 E.01673
G1 X149.069 Y60 E.37374
G1 X148.536 Y60 E.01673
G1 X157.497 Y68.961 E.39741
G1 X157.497 Y69.494 E.01673
G1 X148.002 Y60 E.42107
G1 X147.469 Y60 E.01673
G1 X157.497 Y70.028 E.44474
G1 X157.497 Y70.561 E.01673
G1 X146.935 Y60 E.4684
G1 X146.401 Y59.999 E.01673
M73 Q1 S119
G1 X157.497 Y71.095 E.49207
G1 X157.497 Y71.628 E.01673
M73 P1 R118
G1 X145.868 Y59.999 E.51573
G1 X145.334 Y59.999 E.01673
G1 X157.497 Y72.161 E.5394
G1 X157.497 Y72.695 E.01673
G1 X144.801 Y59.999 E.56306
G1 X144.267 Y59.998 E.01673
G1 X157.497 Y73.228 E.58672
G1 X157.497 Y73.761 E.01673
G1 X143.733 Y59.998 E.61039
G1 X143.2 Y59.998 E.01673
G1 X157.497 Y74.295 E.63405
G1 X157.497 Y74.828 E.01673
G1 X142.666 Y59.998 E.65772
G1 X142.133 Y59.998 E.01673
G1 X157.497 Y75.362 E.68138
G1 X157.497 Y75.895 E.01673
G1 X141.599 Y59.997 E.70505
G1 X141.066 Y59.997 E.01673
G1 X157.497 Y76.428 E.72871
G1 X157.497 Y76.962 E.01673
G1 X140.532 Y59.997 E.75238
G1 X139.998 Y59.997 E.01673
G1 X157.497 Y77.495 E.77604
G1 X157.497 Y78.029 E.01673
G1 X139.465 Y59.997 E.79971
G1 X138.931 Y59.996 E.01673
G1 X157.497 Y78.562 E.82337
G1 X157.497 Y79.095 E.01673
G1 X138.398 Y59.996 E.84704
G1 X137.864 Y59.996 E.01673
G1 X157.497 Y79.629 E.8707
G1 X157.497 Y80.162 E.01673
G1 X137.331 Y59.996 E.89437
G1 X136.797 Y59.996 E.01673
G1 X157.497 Y80.695 E.91803
G1 X157.497 Y81.229 E.01673
G1 X136.263 Y59.995 E.94169
G1 X135.73 Y59.995 E.01673
G1 X157.497 Y81.762 E.96536
G1 X157.497 Y82.296 E.01673
G1 X135.196 Y59.995 E.98902
G1 X134.663 Y59.995 E.01673
G1 X157.497 Y82.829 E1.01269
G1 X157.497 Y83.362 E.01673
G1 X134.129 Y59.994 E1.03635
G1 X133.596 Y59.994 E.01673
M73 P1 R117
G1 X157.497 Y83.896 E1.06002
G1 X157.497 Y84.429 E.01673
G1 X133.062 Y59.994 E1.08368
G1 X132.528 Y59.994 E.01673
G1 X157.497 Y84.963 E1.10735
G1 X157.497 Y85.496 E.01673
G1 X131.995 Y59.994 E1.13101
G1 X131.461 Y59.993 E.01673
G1 X157.497 Y86.029 E1.15468
G1 X157.497 Y86.563 E.01673
G1 X130.928 Y59.993 E1.17834
G1 X130.394 Y59.993 E.01673
M73 Q1 S118
G1 X157.497 Y87.096 E1.20201
G1 X157.497 Y87.629 E.01673
G1 X129.691 Y59.823 E1.2332
M204 S1000
;WIPE_START
G1 F8640
G1 X132.018 Y62.15 E-.76
;WIPE_END
G1 E-.04 F2100
G1 Z.6 F720
G1 X128.923 Y56.921 F10800
G1 Z.2 F720
G1 E.8 F2100
M204 S800
G1 F1200
G1 X127.562 Y55.561 E.06036
G1 X127.518 Y56.05 E.01542
G1 X128.861 Y57.393 E.05954
G1 X128.922 Y57.988 E.01875
G1 X127.398 Y56.464 E.06758
G1 X127.225 Y56.824 E.01253
G1 X128.896 Y58.495 E.07409
G1 X128.835 Y58.967 E.01495
G1 X127.009 Y57.141 E.081
G1 X126.954 Y57.222 E.00306
G1 X126.751 Y57.416 E.00883
G1 X157.497 Y88.163 E1.3636
G1 X157.497 Y88.696 E.01673
G1 X126.458 Y57.657 E1.37656
G1 X126.28 Y57.779 E.00678
G1 X126.122 Y57.854 E.00548
G1 X157.497 Y89.23 E1.39148
G1 X157.497 Y89.763 E.01673
G1 X125.733 Y57.999 E1.40872
G1 X125.436 Y58.084 E.0097
G1 X125.296 Y58.095 E.00439
G1 X157.497 Y90.296 E1.4281
G1 X157.497 Y90.83 E.01673
G1 X124.58 Y57.912 E1.45988
M204 S1000
;WIPE_START
G1 F8640
G1 X126.907 Y60.239 E-.76
;WIPE_END
G1 E-.04 F2100
G1 Z.6 F720
G1 X122.61 Y55.409 F10800
G1 Z.2 F720
G1 E.8 F2100
M204 S800
G1 F1200
G1 X122.361 Y55.16 E.01102
G1 X122.09 Y55.422 E.01183
G1 X122.646 Y55.978 E.02464
M204 S1000
G1 X121.735 Y55.601 F10800
M204 S800
G1 F1200
G1 X122.603 Y56.469 E.03852
G1 X122.741 Y56.775 E.01052
G1 X123.045 Y57.221 E.01693
G1 X123.688 Y57.762 E.02635
G1 X124.081 Y57.946 E.0136
G1 X157.497 Y91.363 E1.48201
G1 X157.497 Y91.897 E.01673
G1 X121.634 Y56.033 E1.59053
G1 X121.457 Y56.39 E.01248
G1 X157.497 Y92.43 E1.59836
G1 X157.497 Y92.963 E.01673
G1 X121.301 Y56.767 E1.60528
G1 X121.177 Y57.177 E.01342
G1 X157.497 Y93.497 E1.61077
