; generated by PrusaSlicer 2.5.0+win64 on 2023-01-18 at 20:08:29 UTC


;
;
; 

; external perimeters extrusion width = 0.45mm
; perimeters extrusion width = 0.45mm
; infill extrusion width = 0.45mm
; solid infill extrusion width = 0.45mm
; top infill extrusion width = 0.40mm
; first layer extrusion width = 0.42mm

; external perimeters extrusion width = 0.45mm
; perimeters extrusion width = 0.45mm
; infill extrusion width = 0.45mm
; solid infill extrusion width = 0.45mm
; top infill extrusion width = 0.40mm
; first layer extrusion width = 0.42mm

M73 P0 R50
M73 Q0 S50
M201 X1000 Y1000 Z200 E5000 ; sets maximum accelerations, mm/sec^2
M203 X200 Y200 Z12 E120 ; sets maximum feedrates, mm / sec
M204 P1250 R1250 T1250 ; sets acceleration (P, T) and retract acceleration (R), mm/sec^2
M205 X8.00 Y8.00 Z0.40 E4.50 ; sets the jerk limits, mm/sec
M205 S0 T0 ; sets the minimum extruding and travel feed rate, mm/sec
M107
;TYPE:Custom
M862.3 P "MK3S" ; printer model check
M862.1 P0.4 ; nozzle diameter check
M115 U3.11.0 ; tell printer latest fw version
G90 ; use absolute coordinates
M83 ; extruder relative mode
M104 S215 ; set extruder temp
M140 S60 ; set bed temp
M190 S60 ; wait for bed temp
M109 S215 ; wait for extruder temp
G28 W ; home all without mesh bed level
G80 ; mesh bed leveling

G1 Z0.2 F720
G1 Y-3 F1000 ; go outside print area
G92 E0
G1 X60 E9 F1000 ; intro line
G1 X100 E12.5 F1000 ; intro line

G92 E0
M221 S95

; Don't change E values below. Excessive value can damage the printer.
M907 E430 ; set extruder motor current
G21 ; set units to millimeters
G90 ; use absolute coordinates
M83 ; use relative distances for extrusion
M900 K0.05 ; Filament gcode LA 1.5
M900 K30 ; Filament gcode LA 1.0
M107
;LAYER_CHANGE
;Z:0.2
;HEIGHT:0.2
;BEFORE_LAYER_CHANGE
G92 E0.0
;0.2


G1 E-.8 F2100
M73 P0 R49
G1 Z.4 F720
;AFTER_LAYER_CHANGE
;0.2
G1 X103.076 Y69.108 F10800
G1 Z.2 F720
G1 E.8 F2100
M204 S800
;TYPE:Skirt/Brim
;WIDTH:0.42
G1 F1200
G1 X104.121 Y68.232 E.04278
G1 X105.061 Y68.038 E.03008
G1 X120.939 Y68.038 E.49784
G1 X122.137 Y68.362 E.0389
G1 X146.137 Y82.362 E.87118
G1 X147.068 Y83.359 E.04278
G1 X147.316 Y84.415 E.03402
G1 X147.316 Y139.585 E1.72982
G1 X146.924 Y140.892 E.04278
G1 X145.879 Y141.768 E.04278
G1 X144.939 Y141.962 E.03008
G1 X105.061 Y141.962 E1.25035
G1 X103.754 Y141.57 E.04278
G1 X102.878 Y140.525 E.04278
G1 X102.684 Y139.585 E.03008
G1 X102.684 Y70.415 E2.16878
G1 X103.058 Y69.165 E.0409
M204 S1000
; printing object Motor mount fix.STL id:0 copy 0
;WIPE_START
G1 F8640
G1 X104.121 Y68.232 E-.32671
G1 X105.061 Y68.038 E-.22155
G1 X105.978 Y68.038 E-.21174
;WIPE_END
G1 E-.04 F2100
G1 Z.6 F720
G1 X120.63 Y85.18 F10800
G1 Z.2 F720
G1 E.8 F2100
M204 S800
;TYPE:Perimeter
;WIDTH:0.419999
G1 F1200
G1 X120.718 Y85.202 E.00282
G1 X144.152 Y85.202 E.73477
G1 X144.152 Y89.415 E.13209
G1 X144.152 Y93.628 E.13209
G1 X113.366 Y93.628 E.96527
;WIDTH:0.458503
G1 X112.847 Y93.609 E.01795
G1 X112.343 Y93.617 E.0174
;WIDTH:0.440933
G1 X111.605 Y93.628 E.02446
;WIDTH:0.419999
G1 X105.848 Y93.628 E.18049
G1 X105.848 Y71.202 E.70315
G1 X111.456 Y71.202 E.17583
;WIDTH:0.458503
G1 X111.975 Y71.221 E.01795
G1 X112.479 Y71.213 E.0174
;WIDTH:0.440934
G1 X113.217 Y71.202 E.02446
;WIDTH:0.419999
G1 X120.152 Y71.202 E.21743
G1 X120.154 Y84.689 E.42288
G1 X120.236 Y84.932 E.00804
G1 X120.444 Y85.131 E.00902
G1 X120.572 Y85.165 E.00417
M204 S1000
G1 X120.718 Y84.825 F10800
M204 S800
;TYPE:External perimeter
G1 F1200
G1 X144.529 Y84.825 E.74659
G1 X144.529 Y94.005 E.28783
G1 X105.471 Y94.005 E1.22463
G1 X105.471 Y70.825 E.72679
M73 Q0 S49
G1 X120.529 Y70.825 E.47213
G1 X120.529 Y84.636 E.43305
M73 P1 R49
M73 Q1 S49
G1 X120.569 Y84.753 E.00386
G1 X120.664 Y84.799 E.00329
M204 S1000
G1 X120.821 Y85.211 F10800
;WIPE_START
G1 F8640
G1 X123.955 Y84.802 E-.76
;WIPE_END
G1 E-.04 F2100
G1 Z.6 F720
G1 X110.953 Y92.677 F10800
G1 Z.2 F720
G1 E.8 F2100
M204 S800
;TYPE:Perimeter
G1 F1200
G1 X110.628 Y92.356 E.01433
G1 X110.407 Y92.024 E.0125
G1 X110.246 Y91.659 E.0125
G1 X110.151 Y91.272 E.0125
G1 X110.125 Y90.875 E.0125
G1 X110.169 Y90.479 E.0125
G1 X110.28 Y90.096 E.0125
G1 X110.456 Y89.738 E.0125
G1 X110.692 Y89.417 E.0125
G1 X110.979 Y89.141 E.0125
G1 X111.311 Y88.92 E.0125
G1 X111.676 Y88.759 E.0125
G1 X112.063 Y88.664 E.0125
G1 X112.46 Y88.638 E.0125
G1 X112.856 Y88.682 E.0125
G1 X113.239 Y88.793 E.0125
G1 X113.597 Y88.969 E.0125
G1 X113.918 Y89.205 E.0125
G1 X114.194 Y89.492 E.0125
G1 X114.415 Y89.824 E.0125
G1 X114.625 Y90.373 E.01843
G1 X114.697 Y90.875 E.0159
G1 X114.653 Y91.369 E.01557
G1 X114.542 Y91.752 E.0125
G1 X114.366 Y92.11 E.0125
G1 X114.13 Y92.431 E.0125
G1 X113.843 Y92.707 E.0125
G1 X113.511 Y92.928 E.0125
;WIDTH:0.451706
G1 X112.861 Y93.182 E.02374
G1 X112.361 Y93.22 E.01704
;WIDTH:0.442213
G1 X111.963 Y93.177 E.0133
G1 X111.311 Y92.928 E.02317
;WIDTH:0.419999
G1 X111.002 Y92.712 E.01183
M204 S1000
G1 X111.022 Y92.225 F10800
M204 S800
;TYPE:External perimeter
G1 F1200
G1 X110.937 Y92.139 E.00379
G1 X110.749 Y91.865 E.01044
G1 X110.61 Y91.562 E.01044
G1 X110.527 Y91.24 E.01044
G1 X110.501 Y90.908 E.01044
G1 X110.533 Y90.576 E.01044
G1 X110.622 Y90.255 E.01044
G1 X110.765 Y89.955 E.01044
G1 X110.958 Y89.684 E.01044
G1 X111.196 Y89.45 E.01044
G1 X111.47 Y89.262 E.01044
G1 X111.773 Y89.123 E.01044
G1 X112.095 Y89.04 E.01044
G1 X112.427 Y89.014 E.01044
G1 X112.759 Y89.046 E.01044
G1 X113.08 Y89.135 E.01044
G1 X113.38 Y89.278 E.01044
G1 X113.651 Y89.471 E.01044
G1 X113.885 Y89.709 E.01044
G1 X114.073 Y89.983 E.01044
G1 X114.261 Y90.47 E.01636
G1 X114.321 Y90.908 E.01384
G1 X114.289 Y91.272 E.01147
G1 X114.2 Y91.593 E.01044
G1 X114.057 Y91.893 E.01044
G1 X113.864 Y92.164 E.01044
G1 X113.626 Y92.398 E.01044
G1 X113.352 Y92.586 E.01044
G1 X113.049 Y92.725 E.01044
G1 X112.727 Y92.808 E.01044
G1 X112.395 Y92.834 E.01044
G1 X112.063 Y92.802 E.01044
G1 X111.742 Y92.713 E.01044
G1 X111.442 Y92.57 E.01044
G1 X111.171 Y92.377 E.01044
G1 X111.064 Y92.268 E.00477
M204 S1000
G1 X110.906 Y92.26 F10800
;WIPE_START
G1 F8640
G1 X110.937 Y92.139 E-.04176
G1 X110.749 Y91.865 E-.07688
G1 X110.61 Y91.562 E-.07689
G1 X110.527 Y91.24 E-.07688
G1 X110.501 Y90.908 E-.07688
G1 X110.533 Y90.576 E-.07689
G1 X110.622 Y90.255 E-.07688
G1 X110.765 Y89.955 E-.07688
G1 X110.958 Y89.684 E-.07689
G1 X111.196 Y89.45 E-.07688
G1 X111.29 Y89.386 E-.02629
;WIPE_END
G1 E-.04 F2100
G1 Z.6 F720
G1 X113.87 Y72.153 F10800
G1 Z.2 F720
G1 E.8 F2100
M204 S800
;TYPE:Perimeter
G1 F1200
G1 X114.194 Y72.474 E.01431
G1 X114.415 Y72.806 E.0125
G1 X114.576 Y73.171 E.0125
G1 X114.671 Y73.558 E.0125
G1 X114.697 Y73.955 E.0125
G1 X114.653 Y74.351 E.0125
G1 X114.542 Y74.734 E.0125
G1 X114.366 Y75.092 E.0125
G1 X114.13 Y75.413 E.0125
G1 X113.843 Y75.689 E.0125
G1 X113.511 Y75.91 E.0125
G1 X113.146 Y76.071 E.0125
G1 X112.78 Y76.163 E.01185
G1 X112.362 Y76.192 E.01315
G1 X111.966 Y76.148 E.0125
G1 X111.583 Y76.037 E.0125
G1 X111.225 Y75.861 E.0125
G1 X110.904 Y75.625 E.0125
G1 X110.628 Y75.338 E.0125
G1 X110.407 Y75.006 E.0125
G1 X110.246 Y74.641 E.0125
G1 X110.151 Y74.254 E.0125
G1 X110.125 Y73.857 E.0125
G1 X110.169 Y73.461 E.0125
G1 X110.28 Y73.078 E.0125
G1 X110.456 Y72.72 E.0125
G1 X110.692 Y72.399 E.0125
G1 X110.979 Y72.123 E.0125
G1 X111.311 Y71.902 E.0125
;WIDTH:0.451707
G1 X111.961 Y71.648 E.02374
G1 X112.461 Y71.61 E.01704
;WIDTH:0.442213
G1 X112.859 Y71.653 E.0133
G1 X113.511 Y71.902 E.02317
;WIDTH:0.419999
G1 X113.821 Y72.118 E.01184
M204 S1000
G1 X113.327 Y72.235 F10800
M204 S800
;TYPE:External perimeter
G1 F1200
G1 X113.651 Y72.453 E.01227
G1 X113.885 Y72.691 E.01044
G1 X114.073 Y72.965 E.01044
G1 X114.212 Y73.268 E.01044
G1 X114.295 Y73.59 E.01044
G1 X114.321 Y73.922 E.01044
G1 X114.289 Y74.254 E.01044
G1 X114.2 Y74.575 E.01044
G1 X114.057 Y74.875 E.01044
G1 X113.864 Y75.146 E.01044
G1 X113.626 Y75.38 E.01044
G1 X113.352 Y75.568 E.01044
G1 X113.049 Y75.707 E.01044
G1 X112.733 Y75.789 E.01022
G1 X112.395 Y75.816 E.01066
G1 X112.063 Y75.784 E.01044
G1 X111.742 Y75.695 E.01044
G1 X111.442 Y75.552 E.01044
G1 X111.171 Y75.359 E.01044
G1 X110.937 Y75.121 E.01044
G1 X110.749 Y74.847 E.01044
G1 X110.61 Y74.544 E.01044
G1 X110.527 Y74.222 E.01044
G1 X110.501 Y73.89 E.01044
G1 X110.533 Y73.558 E.01044
G1 X110.622 Y73.237 E.01044
G1 X110.765 Y72.937 E.01044
G1 X110.958 Y72.666 E.01044
G1 X111.196 Y72.432 E.01044
G1 X111.47 Y72.244 E.01044
G1 X111.773 Y72.105 E.01044
G1 X112.095 Y72.022 E.01044
G1 X112.427 Y71.996 E.01044
G1 X112.759 Y72.028 E.01044
G1 X113.08 Y72.117 E.01044
G1 X113.273 Y72.209 E.0067
M204 S1000
G1 X113.664 Y72.035 F10800
;WIPE_START
G1 F8640
G1 X113.651 Y72.453 E-.10409
G1 X113.885 Y72.691 E-.07688
G1 X114.073 Y72.965 E-.07688
G1 X114.212 Y73.268 E-.07689
G1 X114.295 Y73.59 E-.07688
G1 X114.321 Y73.922 E-.07688
G1 X114.289 Y74.254 E-.07689
G1 X114.2 Y74.575 E-.07688
G1 X114.057 Y74.875 E-.07688
G1 X113.954 Y75.019 E-.04084
;WIPE_END
G1 E-.04 F2100
G1 Z.6 F720
G1 X143.268 Y85.315 F10800
G1 Z.2 F720
G1 E.8 F2100
M204 S800
;TYPE:Solid infill
;WIDTH:0.424039
G1 F1200
G1 X143.869 Y85.916 E.02694
G1 X143.869 Y86.455 E.01708
G1 X142.899 Y85.485 E.04349
G1 X142.36 Y85.485 E.01708
G1 X143.869 Y86.994 E.06765
G1 X143.869 Y87.533 E.01708
G1 X141.821 Y85.485 E.0918
G1 X141.282 Y85.485 E.01708
G1 X143.869 Y88.072 E.11596
G1 X143.869 Y88.611 E.01708
G1 X140.743 Y85.485 E.14011
G1 X140.204 Y85.485 E.01708
G1 X143.869 Y89.15 E.16427
G1 X143.869 Y89.689 E.01708
G1 X139.665 Y85.485 E.18843
G1 X139.126 Y85.485 E.01708
G1 X143.869 Y90.228 E.21258
G1 X143.869 Y90.767 E.01708
G1 X138.587 Y85.485 E.23674
G1 X138.048 Y85.485 E.01708
G1 X143.869 Y91.306 E.26089
G1 X143.869 Y91.845 E.01708
G1 X137.509 Y85.485 E.28505
G1 X136.97 Y85.485 E.01708
G1 X143.869 Y92.384 E.3092
G1 X143.869 Y92.923 E.01708
G1 X136.431 Y85.485 E.33336
G1 X135.892 Y85.485 E.01708
G1 X143.752 Y93.345 E.35227
G1 X143.213 Y93.345 E.01708
G1 X135.353 Y85.485 E.35227
G1 X134.814 Y85.485 E.01708
G1 X142.674 Y93.345 E.35227
G1 X142.135 Y93.345 E.01708
G1 X134.275 Y85.485 E.35227
G1 X133.736 Y85.485 E.01708
G1 X141.596 Y93.345 E.35227
G1 X141.057 Y93.345 E.01708
G1 X133.197 Y85.485 E.35227
G1 X132.658 Y85.485 E.01708
G1 X140.518 Y93.345 E.35227
G1 X139.979 Y93.345 E.01708
G1 X132.119 Y85.485 E.35227
G1 X131.58 Y85.485 E.01708
G1 X139.44 Y93.345 E.35227
G1 X138.901 Y93.345 E.01708
G1 X131.041 Y85.485 E.35227
G1 X130.502 Y85.485 E.01708
G1 X138.362 Y93.345 E.35227
G1 X137.823 Y93.345 E.01708
G1 X129.963 Y85.485 E.35227
G1 X129.424 Y85.485 E.01708
G1 X137.284 Y93.345 E.35227
G1 X136.745 Y93.345 E.01708
G1 X128.885 Y85.485 E.35227
G1 X128.346 Y85.485 E.01708
G1 X136.206 Y93.345 E.35227
G1 X135.667 Y93.345 E.01708
G1 X127.807 Y85.485 E.35227
G1 X127.268 Y85.485 E.01708
G1 X135.128 Y93.345 E.35227
G1 X134.589 Y93.345 E.01708
G1 X126.729 Y85.485 E.35227
G1 X126.19 Y85.485 E.01708
G1 X134.05 Y93.345 E.35227
G1 X133.511 Y93.345 E.01708
G1 X125.651 Y85.485 E.35227
G1 X125.112 Y85.485 E.01708
G1 X132.972 Y93.345 E.35227
G1 X132.433 Y93.345 E.01708
G1 X124.573 Y85.485 E.35227
G1 X124.034 Y85.485 E.01708
G1 X131.894 Y93.345 E.35227
G1 X131.356 Y93.345 E.01708
G1 X123.495 Y85.485 E.35227
G1 X122.956 Y85.485 E.01708
G1 X130.817 Y93.345 E.35227
G1 X130.278 Y93.345 E.01708
G1 X122.417 Y85.485 E.35227
G1 X121.878 Y85.485 E.01708
G1 X129.739 Y93.345 E.35227
G1 X129.2 Y93.345 E.01708
G1 X121.17 Y85.315 E.35987
M204 S1000
;WIPE_START
G1 F8640
G1 X123.497 Y87.643 E-.76
;WIPE_END
G1 E-.04 F2100
G1 Z.6 F720
G1 X119.566 Y71.315 F10800
G1 Z.2 F720
G1 E.8 F2100
M204 S800
G1 F1200
G1 X119.869 Y71.618 E.01357
G1 X119.869 Y72.157 E.01708
G1 X119.197 Y71.485 E.03012
G1 X118.658 Y71.485 E.01708
G1 X119.869 Y72.696 E.05428
G1 X119.869 Y73.235 E.01708
G1 X118.119 Y71.485 E.07844
G1 X117.58 Y71.485 E.01708
G1 X119.869 Y73.774 E.10259
G1 X119.869 Y74.313 E.01708
G1 X117.041 Y71.485 E.12675
G1 X116.502 Y71.485 E.01708
G1 X119.869 Y74.852 E.1509
G1 X119.869 Y75.391 E.01708
G1 X115.963 Y71.485 E.17506
G1 X115.424 Y71.485 E.01708
G1 X119.869 Y75.93 E.19921
G1 X119.869 Y76.469 E.01708
G1 X114.885 Y71.485 E.22337
G1 X114.346 Y71.485 E.01708
G1 X119.869 Y77.008 E.24752
G1 X119.869 Y77.547 E.01708
G1 X113.807 Y71.485 E.27168
G1 X113.356 Y71.485 E.01429
M73 P2 R49
M73 Q2 S49
G1 X113.349 Y71.514 E.00095
G1 X113.754 Y71.716 E.01434
G1 X114.114 Y71.983 E.01419
G1 X114.422 Y72.307 E.01419
G1 X114.669 Y72.681 E.01419
G1 X114.827 Y73.043 E.01252
G1 X119.869 Y78.086 E.22599
G1 X119.869 Y78.625 E.01708
G1 X114.964 Y73.719 E.21985
G1 X114.979 Y73.974 E.00809
G1 X114.948 Y74.243 E.00858
G1 X119.869 Y79.164 E.22053
G1 X119.869 Y79.703 E.01708
G1 X114.85 Y74.684 E.22495
G1 X114.801 Y74.847 E.00541
G1 X114.697 Y75.07 E.00779
G1 X119.869 Y80.242 E.23178
G1 X119.869 Y80.781 E.01708
G1 X114.49 Y75.402 E.24107
G1 X114.422 Y75.505 E.0039
G1 X114.243 Y75.694 E.00826
G1 X119.869 Y81.32 E.25215
G1 X119.869 Y81.859 E.01708
G1 X113.957 Y75.946 E.26498
G1 X113.754 Y76.096 E.00798
G1 X113.63 Y76.158 E.00441
G1 X119.869 Y82.398 E.27964
G1 X119.869 Y82.937 E.01708
M73 P2 R48
G1 X113.256 Y76.324 E.29637
G1 X112.834 Y76.441 E.01387
G1 X119.869 Y83.476 E.31528
G1 X119.869 Y84.015 E.01708
G1 X112.131 Y76.277 E.3468
M204 S1000
;WIPE_START
G1 F8640
G1 X114.458 Y78.604 E-.76
;WIPE_END
G1 E-.04 F2100
G1 Z.6 F720
G1 X111.378 Y71.751 F10800
G1 Z.2 F720
G1 E.8 F2100
M204 S800
G1 F1200
G1 X111.112 Y71.485 E.01192
G1 X110.573 Y71.485 E.01708
G1 X110.916 Y71.828 E.01538
G1 X110.708 Y71.983 E.00822
G1 X110.622 Y72.073 E.00395
G1 X110.034 Y71.485 E.02635
G1 X109.495 Y71.485 E.01708
G1 X110.367 Y72.357 E.03908
G1 X110.153 Y72.681 E.01233
G1 X108.956 Y71.485 E.05362
G1 X108.417 Y71.485 E.01708
G1 X109.989 Y73.057 E.07046
G1 X109.879 Y73.486 E.01403
G1 X107.878 Y71.485 E.08968
G1 X107.339 Y71.485 E.01708
G1 X110.034 Y74.179 E.12075
M204 S1000
;WIPE_START
G1 F8640
G1 X107.706 Y71.852 E-.76
;WIPE_END
G1 E-.04 F2100
G1 Z.6 F720
G1 X106.631 Y71.315 F10800
G1 Z.2 F720
G1 E.8 F2100
M204 S800
G1 F1200
G1 X109.955 Y74.64 E.14899
G1 X110.153 Y75.131 E.01679
G1 X110.4 Y75.505 E.01419
G1 X110.708 Y75.829 E.01419
G1 X111.068 Y76.096 E.01419
G1 X111.469 Y76.296 E.01419
G1 X111.672 Y76.356 E.00672
G1 X119.869 Y84.554 E.36738
G1 X119.914 Y84.913 E.01146
G1 X120.007 Y85.102 E.00668
G1 X120.194 Y85.306 E.00877
G1 X120.399 Y85.423 E.00748
G1 X120.555 Y85.47 E.00516
G1 X120.8 Y85.485 E.0078
G1 X128.661 Y93.345 E.35227
G1 X128.122 Y93.345 E.01708
G1 X106.261 Y71.485 E.9797
G1 X106.131 Y71.485 E.00413
G1 X106.131 Y71.893 E.01295
G1 X127.583 Y93.345 E.9614
G1 X127.044 Y93.345 E.01708
G1 X106.131 Y72.432 E.93724
G1 X106.131 Y72.971 E.01708
G1 X126.505 Y93.345 E.91308
G1 X125.966 Y93.345 E.01708
G1 X106.131 Y73.51 E.88893
G1 X106.131 Y74.049 E.01708
G1 X125.427 Y93.345 E.86477
G1 X124.888 Y93.345 E.01708
G1 X106.131 Y74.588 E.84062
G1 X106.131 Y75.127 E.01708
G1 X124.349 Y93.345 E.81646
G1 X123.81 Y93.345 E.01708
G1 X106.131 Y75.666 E.79231
G1 X106.131 Y76.205 E.01708
G1 X123.271 Y93.345 E.76815
G1 X122.732 Y93.345 E.01708
G1 X106.131 Y76.744 E.744
G1 X106.131 Y77.283 E.01708
G1 X122.193 Y93.345 E.71984
G1 X121.654 Y93.345 E.01708
G1 X106.131 Y77.822 E.69569
G1 X106.131 Y78.361 E.01708
G1 X121.115 Y93.345 E.67153
G1 X120.576 Y93.345 E.01708
M73 Q2 S48
G1 X106.131 Y78.9 E.64737
G1 X106.131 Y79.439 E.01708
G1 X120.037 Y93.345 E.62322
G1 X119.498 Y93.345 E.01708
M73 P3 R48
G1 X106.131 Y79.978 E.59906
G1 X106.131 Y80.517 E.01708
M73 Q3 S48
G1 X118.959 Y93.345 E.57491
G1 X118.42 Y93.345 E.01708
G1 X106.131 Y81.056 E.55075
G1 X106.131 Y81.595 E.01708
G1 X112.957 Y88.421 E.30593
G1 X112.848 Y88.39 E.00359
G1 X112.357 Y88.36 E.0156
G1 X106.131 Y82.134 E.27902
G1 X106.131 Y82.673 E.01708
G1 X111.872 Y88.414 E.2573
G1 X111.458 Y88.539 E.01371
G1 X106.131 Y83.212 E.23875
G1 X106.131 Y83.751 E.01708
G1 X111.099 Y88.719 E.22263
G1 X110.785 Y88.944 E.01224
G1 X106.131 Y84.29 E.20856
G1 X106.131 Y84.829 E.01708
G1 X110.511 Y89.209 E.19628
G1 X110.4 Y89.325 E.0051
G1 X110.276 Y89.513 E.00712
G1 X106.131 Y85.368 E.18576
G1 X106.131 Y85.907 E.01708
G1 X110.083 Y89.859 E.17713
G1 X109.975 Y90.109 E.00862
G1 X109.937 Y90.252 E.00469
