; generated by PrusaSlicer 2.5.2+win64 on 2023-05-09 at 19:57:03 UTC


;
;
; 

; external perimeters extrusion width = 0.45mm
; perimeters extrusion width = 0.45mm
; infill extrusion width = 0.45mm
; solid infill extrusion width = 0.45mm
; top infill extrusion width = 0.40mm
; first layer extrusion width = 0.42mm

M73 P0 R176
M73 Q0 S177
M201 X1000 Y1000 Z200 E5000 ; sets maximum accelerations, mm/sec^2
M203 X200 Y200 Z12 E120 ; sets maximum feedrates, mm / sec
M204 P1250 R1250 T1250 ; sets acceleration (P, T) and retract acceleration (R), mm/sec^2
M205 X8.00 Y8.00 Z0.40 E4.50 ; sets the jerk limits, mm/sec
M205 S0 T0 ; sets the minimum extruding and travel feed rate, mm/sec
M107
;TYPE:Custom
M862.3 P "MK3S" ; printer model check
M862.1 P0.4 ; nozzle diameter check
M115 U3.11.0 ; tell printer latest fw version
G90 ; use absolute coordinates
M83 ; extruder relative mode
M104 S215 ; set extruder temp
M140 S60 ; set bed temp
M190 S60 ; wait for bed temp
M109 S215 ; wait for extruder temp
G28 W ; home all without mesh bed level
G80 ; mesh bed leveling

G1 Z0.2 F720
G1 Y-3 F1000 ; go outside print area
G92 E0
G1 X60 E9 F1000 ; intro line
G1 X100 E12.5 F1000 ; intro line

G92 E0
M221 S95

; Don't change E values below. Excessive value can damage the printer.
M907 E430 ; set extruder motor current
G21 ; set units to millimeters
G90 ; use absolute coordinates
M83 ; use relative distances for extrusion
M900 K0.05 ; Filament gcode LA 1.5
M900 K30 ; Filament gcode LA 1.0
M107
;LAYER_CHANGE
;Z:0.2
;HEIGHT:0.2
;BEFORE_LAYER_CHANGE
G92 E0.0
;0.2


G1 E-.8 F2100
G1 Z.4 F720
;AFTER_LAYER_CHANGE
;0.2
G1 X95.933 Y89.511 F10800
G1 Z.2 F720
G1 E.8 F2100
M204 S800
;TYPE:Skirt/Brim
;WIDTH:0.42
G1 F1200
G1 X96.606 Y89.021 E.02611
G1 X97.213 Y88.773 E.02057
G1 X98.126 Y88.637 E.02894
G1 X152.125 Y88.65 E1.69312
G1 X152.787 Y88.773 E.02109
G1 X153.394 Y89.021 E.02056
G1 X154.196 Y89.638 E.03174
G1 X154.811 Y90.566 E.03491
G1 X155.008 Y91.195 E.02066
G1 X155.068 Y91.691 E.01564
G1 X155.073 Y119.18 E.86191
G1 X154.681 Y120.487 E.04278
G1 X153.636 Y121.363 E.04278
G1 X152.696 Y121.557 E.03008
G1 X97.304 Y121.557 E1.73676
G1 X95.997 Y121.165 E.04278
G1 X95.121 Y120.12 E.04278
G1 X94.927 Y119.18 E.03008
G1 X94.932 Y91.691 E.86191
G1 X95.069 Y90.887 E.02556
G1 X95.406 Y90.154 E.0253
G1 X95.895 Y89.558 E.02417
M204 S1000
; printing object New Motor Mount.STL id:0 copy 0
;WIPE_START
G1 F8640
G1 X96.606 Y89.021 E-.20573
G1 X97.213 Y88.773 E-.15145
G1 X98.126 Y88.637 E-.21311
G1 X98.948 Y88.637 E-.18971
;WIPE_END
G1 E-.04 F2100
G1 Z.6 F720
G1 X128.913 Y118.393 F10800
G1 Z.2 F720
G1 E.8 F2100
M204 S800
;TYPE:Perimeter
;WIDTH:0.419999
G1 F1200
G1 X128.913 Y92.193 E.82149
G1 X151.517 Y92.204 E.70876
G1 X151.517 Y118.393 E.82113
G1 X128.973 Y118.393 E.70688
M204 S1000
G1 X128.535 Y118.77 F10800
M204 S800
;TYPE:External perimeter
G1 F1200
G1 X128.535 Y91.887 E.84288
G1 X128.615 Y91.815 E.00337
G1 X151.85 Y91.827 E.7285
G1 X151.895 Y91.894 E.00252
G1 X151.895 Y118.77 E.84267
G1 X128.595 Y118.77 E.73053
M204 S1000
M73 P0 R175
G1 X128.63 Y118.381 F10800
;WIPE_START
G1 F8640
G1 X128.588 Y115.479 E-.76
;WIPE_END
G1 E-.04 F2100
G1 Z.6 F720
G1 X135.554 Y99.479 F10800
G1 Z.2 F720
G1 E.8 F2100
M204 S800
;TYPE:Perimeter
G1 F1200
G1 X135.629 Y99.463 E.00239
G1 X146.072 Y99.463 E.32744
G1 X146.286 Y99.505 E.00685
G1 X146.479 Y99.637 E.00733
G1 X146.617 Y99.879 E.00875
G1 X146.637 Y100.029 E.00472
G1 X146.637 Y110.471 E.32743
G1 X146.559 Y110.758 E.00931
G1 X146.379 Y110.946 E.00818
G1 X146.169 Y111.029 E.00705
G1 X146.071 Y111.037 E.00308
G1 X135.629 Y111.037 E.32743
G1 X135.404 Y110.991 E.00718
G1 X135.234 Y110.876 E.00645
G1 X135.111 Y110.7 E.00674
G1 X135.063 Y110.471 E.00731
G1 X135.063 Y100.029 E.32743
G1 X135.11 Y99.803 E.00721
G1 X135.229 Y99.628 E.00666
G1 X135.4 Y99.511 E.00648
G1 X135.495 Y99.491 E.00306
M204 S1000
G1 X135.629 Y99.84 F10800
M204 S800
;TYPE:External perimeter
G1 F1200
G1 X146.072 Y99.84 E.32743
G1 X146.207 Y99.898 E.00463
G1 X146.26 Y100.029 E.00441
G1 X146.26 Y110.471 E.32743
G1 X146.206 Y110.603 E.00447
G1 X146.071 Y110.66 E.00458
G1 X135.629 Y110.66 E.32743
G1 X135.497 Y110.606 E.00446
G1 X135.44 Y110.471 E.00459
G1 X135.44 Y100.029 E.32743
G1 X135.495 Y99.895 E.00453
G1 X135.573 Y99.863 E.00263
M204 S1000
G1 X135.732 Y99.454 F10800
;WIPE_START
G1 F8640
G1 X138.865 Y99.856 E-.76
;WIPE_END
G1 E-.04 F2100
G1 Z.6 F720
G1 X151.404 Y93.087 F10800
G1 Z.2 F720
G1 E.8 F2100
M204 S800
;TYPE:Solid infill
;WIDTH:0.423317
G1 F1200
G1 X150.804 Y92.487 E.02684
G1 X150.266 Y92.486 E.01702
G1 X151.235 Y93.455 E.04332
G1 X151.235 Y93.993 E.01702
G1 X149.728 Y92.486 E.0674
G1 X149.19 Y92.486 E.01702
G1 X151.235 Y94.531 E.09147
G1 X151.235 Y95.069 E.01702
G1 X148.651 Y92.486 E.11555
G1 X148.113 Y92.485 E.01702
G1 X151.235 Y95.607 E.13963
G1 X151.235 Y96.145 E.01702
G1 X147.575 Y92.485 E.1637
G1 X147.037 Y92.485 E.01702
G1 X151.235 Y96.683 E.18778
G1 X151.235 Y97.221 E.01702
G1 X146.499 Y92.484 E.21186
G1 X145.96 Y92.484 E.01702
G1 X151.235 Y97.759 E.23593
G1 X151.235 Y98.296 E.01702
G1 X145.422 Y92.484 E.26001
G1 X144.884 Y92.484 E.01702
G1 X151.235 Y98.834 E.28408
G1 X151.235 Y99.372 E.01702
G1 X144.346 Y92.483 E.30816
G1 X143.807 Y92.483 E.01702
G1 X151.235 Y99.91 E.33224
G1 X151.235 Y100.448 E.01702
G1 X143.269 Y92.483 E.35631
G1 X142.731 Y92.483 E.01702
G1 X151.235 Y100.986 E.38039
G1 X151.235 Y101.524 E.01702
G1 X142.193 Y92.482 E.40447
G1 X141.654 Y92.482 E.01702
G1 X151.235 Y102.062 E.42854
G1 X151.235 Y102.6 E.01702
G1 X141.116 Y92.482 E.45262
G1 X140.578 Y92.481 E.01702
G1 X151.235 Y103.138 E.47669
G1 X151.235 Y103.676 E.01702
G1 X140.04 Y92.481 E.50077
G1 X139.501 Y92.481 E.01702
G1 X151.235 Y104.214 E.52485
G1 X151.235 Y104.752 E.01702
G1 X146.92 Y100.437 E.19301
G1 X146.92 Y100.975 E.01702
G1 X151.235 Y105.29 E.19301
G1 X151.235 Y105.828 E.01702
G1 X146.92 Y101.513 E.19301
G1 X146.92 Y102.051 E.01702
G1 X151.235 Y106.366 E.19301
G1 X151.235 Y106.904 E.01702
G1 X146.92 Y102.589 E.19301
G1 X146.92 Y103.127 E.01702
G1 X151.235 Y107.442 E.19301
G1 X151.235 Y107.98 E.01702
G1 X146.92 Y103.665 E.19301
G1 X146.92 Y104.203 E.01702
G1 X151.235 Y108.518 E.19301
G1 X151.235 Y109.056 E.01702
G1 X146.92 Y104.741 E.19301
G1 X146.92 Y105.279 E.01702
G1 X151.235 Y109.594 E.19301
G1 X151.235 Y110.132 E.01702
G1 X146.92 Y105.817 E.19301
G1 X146.92 Y106.355 E.01702
G1 X151.235 Y110.67 E.19301
G1 X151.235 Y111.208 E.01702
G1 X146.92 Y106.893 E.19301
G1 X146.92 Y107.431 E.01702
G1 X151.235 Y111.746 E.19301
G1 X151.235 Y112.284 E.01702
G1 X146.92 Y107.969 E.19301
G1 X146.92 Y108.507 E.01702
G1 X151.235 Y112.821 E.19301
G1 X151.235 Y113.359 E.01702
G1 X146.92 Y109.045 E.19301
G1 X146.92 Y109.583 E.01702
G1 X151.235 Y113.897 E.19301
G1 X151.235 Y114.435 E.01702
G1 X146.92 Y110.121 E.19301
G1 X146.92 Y110.478 E.0113
G1 X146.898 Y110.637 E.00508
G1 X151.235 Y114.973 E.19398
G1 X151.235 Y115.511 E.01702
G1 X146.726 Y111.003 E.20167
G1 X146.678 Y111.065 E.00249
G1 X146.533 Y111.184 E.00594
G1 X146.425 Y111.24 E.00384
G1 X151.235 Y116.049 E.21515
G1 X151.235 Y116.587 E.01702
G1 X145.967 Y111.32 E.23562
G1 X145.429 Y111.32 E.01702
G1 X151.235 Y117.125 E.25968
G1 X151.235 Y117.663 E.01702
G1 X144.891 Y111.32 E.28375
G1 X144.353 Y111.32 E.01702
G1 X151.144 Y118.11 E.30374
G1 X150.606 Y118.11 E.01702
G1 X143.815 Y111.32 E.30374
G1 X143.278 Y111.32 E.01702
G1 X150.068 Y118.11 E.30374
G1 X149.53 Y118.11 E.01702
G1 X142.74 Y111.32 E.30374
G1 X142.202 Y111.32 E.01702
M73 Q0 S176
G1 X148.992 Y118.11 E.30374
G1 X148.454 Y118.11 E.01702
G1 X141.664 Y111.32 E.30374
G1 X141.126 Y111.32 E.01702
G1 X147.916 Y118.11 E.30374
G1 X147.378 Y118.11 E.01702
G1 X140.588 Y111.32 E.30374
G1 X140.05 Y111.32 E.01702
G1 X146.84 Y118.11 E.30374
G1 X146.302 Y118.11 E.01702
G1 X139.512 Y111.32 E.30374
G1 X138.974 Y111.32 E.01702
G1 X145.764 Y118.11 E.30374
G1 X145.226 Y118.11 E.01702
G1 X138.436 Y111.32 E.30374
G1 X137.898 Y111.32 E.01702
G1 X144.688 Y118.11 E.30374
G1 X144.15 Y118.11 E.01702
G1 X137.36 Y111.32 E.30374
G1 X136.822 Y111.32 E.01702
G1 X143.612 Y118.11 E.30374
G1 X143.074 Y118.11 E.01702
G1 X136.114 Y111.15 E.31133
M204 S1000
;WIPE_START
G1 F8640
G1 X138.442 Y113.478 E-.76
;WIPE_END
G1 E-.04 F2100
G1 Z.6 F720
G1 X145.832 Y99.35 F10800
G1 Z.2 F720
G1 E.8 F2100
M204 S800
G1 F1200
G1 X138.963 Y92.481 E.30727
G1 X138.425 Y92.48 E.01702
G1 X145.125 Y99.18 E.29969
G1 X144.587 Y99.18 E.01702
G1 X137.887 Y92.48 E.29971
G1 X137.349 Y92.48 E.01702
G1 X144.049 Y99.18 E.29972
G1 X143.511 Y99.18 E.01702
G1 X136.81 Y92.48 E.29973
G1 X136.272 Y92.479 E.01702
G1 X142.973 Y99.18 E.29974
G1 X142.435 Y99.18 E.01702
G1 X135.734 Y92.479 E.29976
G1 X135.196 Y92.479 E.01702
G1 X141.897 Y99.18 E.29977
G1 X141.359 Y99.18 E.01702
G1 X134.657 Y92.478 E.29978
G1 X134.119 Y92.478 E.01702
G1 X140.821 Y99.18 E.29979
G1 X140.283 Y99.18 E.01702
G1 X133.581 Y92.478 E.2998
G1 X133.043 Y92.478 E.01702
G1 X139.745 Y99.18 E.29982
G1 X139.207 Y99.18 E.01702
G1 X132.504 Y92.477 E.29983
G1 X131.966 Y92.477 E.01702
G1 X138.669 Y99.18 E.29984
G1 X138.131 Y99.18 E.01702
G1 X131.428 Y92.477 E.29985
G1 X130.89 Y92.476 E.01702
G1 X137.593 Y99.18 E.29987
G1 X137.055 Y99.18 E.01702
G1 X130.351 Y92.476 E.29988
G1 X129.813 Y92.476 E.01702
G1 X136.517 Y99.18 E.29989
G1 X135.979 Y99.18 E.01702
G1 X129.275 Y92.476 E.2999
G1 X129.195 Y92.476 E.00252
G1 X129.195 Y92.934 E.0145
G1 X135.459 Y99.198 E.28018
G1 X135.286 Y99.252 E.00575
G1 X135.095 Y99.372 E.00711
G1 X129.195 Y93.472 E.26392
G1 X129.195 Y94.01 E.01702
G1 X134.859 Y99.674 E.25336
G1 X134.798 Y99.854 E.00603
G1 X134.78 Y100.133 E.00882
G1 X129.195 Y94.548 E.24982
G1 X129.195 Y95.086 E.01702
G1 X134.78 Y100.671 E.24982
G1 X134.78 Y101.209 E.01702
G1 X129.195 Y95.624 E.24982
G1 X129.195 Y96.162 E.01702
G1 X134.78 Y101.747 E.24982
G1 X134.78 Y102.285 E.01702
G1 X129.195 Y96.7 E.24982
G1 X129.195 Y97.238 E.01702
G1 X134.78 Y102.822 E.24982
G1 X134.78 Y103.36 E.01702
G1 X129.195 Y97.776 E.24982
G1 X129.195 Y98.314 E.01702
G1 X134.78 Y103.898 E.24982
G1 X134.78 Y104.436 E.01702
G1 X129.195 Y98.852 E.24982
G1 X129.195 Y99.39 E.01702
G1 X134.78 Y104.974 E.24982
G1 X134.78 Y105.512 E.01702
G1 X129.195 Y99.927 E.24982
G1 X129.195 Y100.465 E.01702
G1 X134.78 Y106.05 E.24982
G1 X134.78 Y106.588 E.01702
G1 X129.195 Y101.003 E.24982
G1 X129.195 Y101.541 E.01702
G1 X134.78 Y107.126 E.24982
G1 X134.78 Y107.664 E.01702
G1 X129.195 Y102.079 E.24982
G1 X129.195 Y102.617 E.01702
G1 X134.78 Y108.202 E.24982
G1 X134.78 Y108.74 E.01702
G1 X129.195 Y103.155 E.24982
G1 X129.195 Y103.693 E.01702
G1 X134.78 Y109.278 E.24982
G1 X134.78 Y109.816 E.01702
G1 X129.195 Y104.231 E.24982
G1 X129.195 Y104.769 E.01702
G1 X134.78 Y110.354 E.24982
G1 X134.798 Y110.648 E.00933
G1 X134.852 Y110.814 E.0055
G1 X134.934 Y110.959 E.00528
G1 X135.036 Y111.079 E.00497
G1 X135.149 Y111.172 E.00464
G1 X135.292 Y111.251 E.00518
G1 X135.455 Y111.302 E.0054
G1 X135.746 Y111.32 E.00922
G1 X142.536 Y118.11 E.30374
G1 X141.998 Y118.11 E.01702
G1 X129.195 Y105.307 E.5727
G1 X129.195 Y105.845 E.01702
G1 X141.46 Y118.11 E.54864
G1 X140.922 Y118.11 E.01702
G1 X129.195 Y106.383 E.52457
G1 X129.195 Y106.921 E.01702
G1 X140.384 Y118.11 E.50051
G1 X139.846 Y118.11 E.01702
G1 X129.195 Y107.459 E.47645
G1 X129.195 Y107.997 E.01702
M73 P0 R174
G1 X139.309 Y118.11 E.45238
G1 X138.771 Y118.11 E.01702
G1 X129.195 Y108.535 E.42832
G1 X129.195 Y109.073 E.01702
G1 X138.233 Y118.11 E.40425
G1 X137.695 Y118.11 E.01702
G1 X129.195 Y109.611 E.38019
G1 X129.195 Y110.149 E.01702
G1 X137.157 Y118.11 E.35613
G1 X136.619 Y118.11 E.01702
G1 X129.195 Y110.687 E.33206
G1 X129.195 Y111.225 E.01702
G1 X136.081 Y118.11 E.308
G1 X135.543 Y118.11 E.01702
G1 X129.195 Y111.763 E.28393
G1 X129.195 Y112.301 E.01702
G1 X135.005 Y118.11 E.25987
G1 X134.467 Y118.11 E.01702
G1 X129.195 Y112.839 E.23581
G1 X129.195 Y113.377 E.01702
G1 X133.929 Y118.11 E.21174
G1 X133.391 Y118.11 E.01702
G1 X129.195 Y113.915 E.18768
G1 X129.195 Y114.452 E.01702
G1 X132.853 Y118.11 E.16361
G1 X132.315 Y118.11 E.01702
G1 X129.195 Y114.99 E.13955
G1 X129.195 Y115.528 E.01702
G1 X131.777 Y118.11 E.11549
G1 X131.239 Y118.11 E.01702
G1 X129.195 Y116.066 E.09142
G1 X129.195 Y116.604 E.01702
G1 X130.701 Y118.11 E.06736
G1 X130.163 Y118.11 E.01702
G1 X129.195 Y117.142 E.04329
G1 X129.195 Y117.68 E.01702
G1 X129.795 Y118.28 E.02682
M204 S1000
;WIPE_START
G1 F8640
G1 X129.195 Y117.68 E-.19579
G1 X129.195 Y117.142 E-.12422
G1 X130.163 Y118.11 E-.31605
G1 X130.7 Y118.11 E-.12395
;WIPE_END
G1 E-.04 F2100
G1 Z.6 F720
G1 X121.087 Y118.393 F10800
G1 Z.2 F720
G1 E.8 F2100
M204 S800
;TYPE:Perimeter
;WIDTH:0.419999
G1 F1200
G1 X98.483 Y118.393 E.70876
G1 X98.483 Y92.193 E.82149
G1 X121.087 Y92.193 E.70876
G1 X121.087 Y118.333 E.81961
M204 S1000
G1 X121.465 Y118.77 F10800
M204 S800
;TYPE:External perimeter
G1 F1200
G1 X98.105 Y118.77 E.73241
G1 X98.105 Y91.896 E.84261
G1 X98.168 Y91.815 E.0032
G1 X121.364 Y91.815 E.72731
G1 X121.419 Y91.83 E.00176
G1 X121.465 Y91.899 E.00261
G1 X121.465 Y118.71 E.84063
M204 S1000
G1 X121.118 Y118.57 F10800
;WIPE_START
G1 F8640
G1 X118.173 Y118.718 E-.76
;WIPE_END
G1 E-.04 F2100
G1 Z.6 F720
G1 X103.386 Y99.943 F10800
G1 Z.2 F720
G1 E.8 F2100
M204 S800
;TYPE:Perimeter
G1 F1200
G1 X103.439 Y99.745 E.00644
G1 X103.616 Y99.557 E.00811
G1 X103.831 Y99.471 E.00723
G1 X103.929 Y99.463 E.00308
G1 X114.371 Y99.463 E.32743
G1 X114.6 Y99.511 E.00732
G1 X114.771 Y99.628 E.00648
G1 X114.89 Y99.803 E.00666
G1 X114.937 Y100.029 E.00721
G1 X114.937 Y110.471 E.32743
G1 X114.889 Y110.7 E.00731
G1 X114.766 Y110.876 E.00674
G1 X114.596 Y110.991 E.00645
G1 X114.371 Y111.037 E.00718
G1 X103.929 Y111.037 E.32743
G1 X103.721 Y110.998 E.00663
M73 P1 R174
G1 X103.524 Y110.867 E.00739
G1 X103.383 Y110.623 E.00885
G1 X103.363 Y110.471 E.00478
G1 X103.37 Y100.001 E.32828
M204 S1000
G1 X103.74 Y100.029 F10800
M204 S800
;TYPE:External perimeter
M73 Q1 S176
G1 F1200
G1 X103.793 Y99.898 E.00442
G1 X103.929 Y99.84 E.00463
G1 X114.371 Y99.84 E.32743
G1 X114.505 Y99.895 E.00451
G1 X114.56 Y100.029 E.00453
G1 X114.56 Y110.471 E.32743
G1 X114.503 Y110.606 E.00459
G1 X114.371 Y110.66 E.00446
G1 X103.929 Y110.66 E.32743
G1 X103.794 Y110.603 E.00458
G1 X103.74 Y110.471 E.00447
G1 X103.74 Y100.089 E.32555
M204 S1000
G1 X103.64 Y99.93 F10800
;WIPE_START
G1 F8640
G1 X103.793 Y99.898 E-.0457
G1 X103.929 Y99.84 E-.03408
G1 X106.874 Y99.84 E-.68022
;WIPE_END
G1 E-.04 F2100
G1 Z.6 F720
G1 X120.205 Y92.306 F10800
G1 Z.2 F720
G1 E.8 F2100
M204 S800
;TYPE:Solid infill
;WIDTH:0.423408
G1 F1200
G1 X120.805 Y92.905 E.02684
G1 X120.805 Y93.444 E.01702
G1 X119.836 Y92.475 E.04332
G1 X119.298 Y92.475 E.01702
G1 X120.805 Y93.982 E.0674
G1 X120.805 Y94.52 E.01702
G1 X118.76 Y92.475 E.09147
G1 X118.222 Y92.475 E.01702
G1 X120.805 Y95.058 E.11555
G1 X120.805 Y95.596 E.01702
G1 X117.684 Y92.475 E.13962
G1 X117.146 Y92.475 E.01702
G1 X120.805 Y96.134 E.1637
G1 X120.805 Y96.672 E.01702
G1 X116.608 Y92.475 E.18777
G1 X116.07 Y92.475 E.01702
G1 X120.805 Y97.21 E.21185
G1 X120.805 Y97.748 E.01702
G1 X115.532 Y92.475 E.23592
G1 X114.994 Y92.475 E.01702
G1 X120.805 Y98.286 E.26
G1 X120.805 Y98.824 E.01702
G1 X114.456 Y92.475 E.28408
G1 X113.917 Y92.475 E.01702
G1 X120.805 Y99.363 E.30815
G1 X120.805 Y99.901 E.01702
G1 X113.379 Y92.475 E.33223
G1 X112.841 Y92.475 E.01702
M73 Q1 S175
G1 X120.805 Y100.439 E.3563
G1 X120.805 Y100.977 E.01702
G1 X112.303 Y92.475 E.38038
G1 X111.765 Y92.475 E.01702
G1 X120.805 Y101.515 E.40445
G1 X120.805 Y102.053 E.01702
G1 X111.227 Y92.475 E.42853
G1 X110.689 Y92.475 E.01702
G1 X120.805 Y102.591 E.4526
G1 X120.805 Y103.129 E.01702
G1 X110.151 Y92.475 E.47668
G1 X109.613 Y92.475 E.01702
G1 X120.805 Y103.667 E.50076
G1 X120.805 Y104.205 E.01702
G1 X109.075 Y92.475 E.52483
G1 X108.537 Y92.475 E.01702
G1 X120.805 Y104.743 E.54891
G1 X120.805 Y105.282 E.01702
G1 X107.998 Y92.475 E.57298
G1 X107.46 Y92.475 E.01702
G1 X114.165 Y99.18 E.29999
G1 X113.627 Y99.18 E.01702
G1 X106.922 Y92.475 E.29999
G1 X106.384 Y92.475 E.01702
G1 X113.089 Y99.18 E.29999
G1 X112.551 Y99.18 E.01702
G1 X105.846 Y92.475 E.29999
