; generated by PrusaSlicer 2.5.2+win64 on 2023-05-11 at 20:08:38 UTC


;
;
; 

; external perimeters extrusion width = 0.45mm
; perimeters extrusion width = 0.45mm
; infill extrusion width = 0.45mm
; solid infill extrusion width = 0.45mm
; top infill extrusion width = 0.40mm
; first layer extrusion width = 0.42mm

M73 P0 R85
M73 Q0 S86
M201 X1000 Y1000 Z200 E5000 ; sets maximum accelerations, mm/sec^2
M203 X200 Y200 Z12 E120 ; sets maximum feedrates, mm / sec
M204 P1250 R1250 T1250 ; sets acceleration (P, T) and retract acceleration (R), mm/sec^2
M205 X8.00 Y8.00 Z0.40 E4.50 ; sets the jerk limits, mm/sec
M205 S0 T0 ; sets the minimum extruding and travel feed rate, mm/sec
M107
;TYPE:Custom
M862.3 P "MK3S" ; printer model check
M862.1 P0.4 ; nozzle diameter check
M115 U3.11.0 ; tell printer latest fw version
G90 ; use absolute coordinates
M83 ; extruder relative mode
M104 S215 ; set extruder temp
M140 S60 ; set bed temp
M190 S60 ; wait for bed temp
M109 S215 ; wait for extruder temp
G28 W ; home all without mesh bed level
G80 ; mesh bed leveling

G1 Z0.2 F720
G1 Y-3 F1000 ; go outside print area
G92 E0
G1 X60 E9 F1000 ; intro line
G1 X100 E12.5 F1000 ; intro line

G92 E0
M221 S95

; Don't change E values below. Excessive value can damage the printer.
M907 E430 ; set extruder motor current
G21 ; set units to millimeters
G90 ; use absolute coordinates
M83 ; use relative distances for extrusion
M900 K0.05 ; Filament gcode LA 1.5
M900 K30 ; Filament gcode LA 1.0
M107
;LAYER_CHANGE
;Z:0.2
;HEIGHT:0.2
;BEFORE_LAYER_CHANGE
G92 E0.0
;0.2


G1 E-.8 F2100
G1 Z.4 F720
;AFTER_LAYER_CHANGE
;0.2
G1 X92.166 Y65.845 F10800
G1 Z.2 F720
G1 E.8 F2100
M204 S800
;TYPE:Skirt/Brim
;WIDTH:0.42
G1 F1200
G1 X93.736 Y64.812 E.05893
G1 X123.736 Y59.483 E.95537
G1 X125.203 Y59.382 E.0461
G1 X126.266 Y59.483 E.03347
G1 X156.266 Y64.812 E.95537
G1 X157.485 Y65.426 E.04278
G1 X158.228 Y67.153 E.05893
G1 X158.228 Y142.849 E2.3734
G1 X157.836 Y144.156 E.04278
G1 X156.266 Y145.189 E.05893
G1 X126.266 Y150.517 E.95537
G1 X125.203 Y150.618 E.03346
G1 X123.736 Y150.517 E.0461
G1 X93.736 Y145.189 E.95537
G1 X92.517 Y144.575 E.04278
G1 X91.774 Y142.849 E.05893
G1 X91.774 Y67.153 E2.3734
G1 X92.149 Y65.903 E.0409
M204 S1000
; printing object Pico_Top.STL id:0 copy 0
;WIPE_START
M73 Q0 S85
G1 F8640
G1 X93.736 Y64.812 E-.44465
G1 X95.08 Y64.573 E-.31535
;WIPE_END
G1 E-.04 F2100
G1 Z.6 F720
G1 X120.893 Y67.896 F10800
G1 Z.2 F720
G1 E.8 F2100
M204 S800
;TYPE:Perimeter
;WIDTH:0.419999
G1 F1200
G1 X120.905 Y67.826 E.00222
G1 X120.824 Y67.296 E.01681
G1 X120.792 Y66.616 E.02133
G1 X120.879 Y65.888 E.023
G1 X121.085 Y65.202 E.02246
G1 X121.404 Y64.56 E.02247
G1 X121.803 Y64.017 E.02113
G1 X122.186 Y63.638 E.01688
G1 X122.577 Y63.326 E.01569
G1 X123.034 Y63.034 E.01701
G1 X122.873 Y63.419 E.0131
G1 X122.77 Y63.761 E.01118
G1 X122.716 Y64.204 E.01398
G1 X122.741 Y64.597 E.01236
G1 X122.837 Y64.986 E.01256
G1 X122.996 Y65.349 E.01242
G1 X123.219 Y65.683 E.01257
G1 X123.493 Y65.97 E.01246
G1 X123.819 Y66.206 E.01261
G1 X124.173 Y66.38 E.01238
G1 X124.553 Y66.492 E.01243
G1 X124.95 Y66.537 E.01253
G1 X125.353 Y66.509 E.01266
G1 X125.779 Y66.401 E.01378
G1 X126.227 Y66.175 E.01572
G1 X126.684 Y65.791 E.01871
G1 X126.953 Y65.441 E.01386
G1 X127.098 Y65.15 E.01019
G1 X127.227 Y64.757 E.01296
G1 X127.288 Y64.303 E.01436
G1 X127.26 Y63.898 E.01273
G1 X127.164 Y63.512 E.01246
G1 X126.911 Y63.007 E.01772
G1 X127.059 Y63.077 E.00514
G1 X127.656 Y63.484 E.02266
G1 X128.173 Y63.981 E.02249
G1 X128.598 Y64.56 E.0225
G1 X128.917 Y65.201 E.02244
G1 X129.12 Y65.887 E.02244
G1 X129.209 Y66.63 E.02348
G1 X129.17 Y67.354 E.02272
G1 X129.1 Y67.924 E.018
G1 X129.188 Y68.164 E.00802
G1 X129.395 Y68.354 E.0088
G1 X129.662 Y68.42 E.00861
G1 X154.577 Y68.425 E.78119
G1 X154.577 Y141.575 E2.29359
G1 X129.562 Y141.589 E.78433
G1 X129.3 Y141.711 E.00905
G1 X129.141 Y141.926 E.00838
G1 X129.097 Y142.177 E.008
G1 X129.177 Y142.706 E.01676
G1 X129.209 Y143.37 E.02084
G1 X129.121 Y144.113 E.02347
G1 X128.917 Y144.799 E.02245
G1 X128.598 Y145.44 E.02244
G1 X128.173 Y146.019 E.0225
G1 X127.811 Y146.367 E.01576
G1 X127.425 Y146.674 E.01545
G1 X126.965 Y146.967 E.01711
G1 X127.129 Y146.581 E.01317
G1 X127.232 Y146.239 E.01118
G1 X127.288 Y145.801 E.01385
G1 X127.26 Y145.398 E.01266
G1 X127.165 Y145.014 E.0124
G1 X127.006 Y144.651 E.01242
G1 X126.783 Y144.317 E.01257
G1 X126.509 Y144.031 E.01244
G1 X126.188 Y143.795 E.01249
G1 X125.827 Y143.619 E.01258
G1 X125.388 Y143.495 E.01431
G1 X124.862 Y143.474 E.01649
G1 X124.309 Y143.576 E.01764
G1 X123.902 Y143.746 E.01382
G1 X123.605 Y143.942 E.01118
G1 X123.282 Y144.242 E.01382
G1 X123.05 Y144.558 E.01228
G1 X122.905 Y144.848 E.01019
G1 X122.775 Y145.243 E.01302
G1 X122.716 Y145.701 E.01449
G1 X122.741 Y146.097 E.01243
G1 X122.838 Y146.488 E.01262
G1 X123.092 Y146.993 E.01773
G1 X122.943 Y146.923 E.00515
G1 X122.346 Y146.516 E.02266
G1 X121.829 Y146.019 E.02249
G1 X121.404 Y145.44 E.0225
G1 X121.085 Y144.798 E.02247
G1 X120.879 Y144.112 E.02246
G1 X120.793 Y143.386 E.02293
G1 X120.83 Y142.657 E.02287
G1 X120.902 Y142.078 E.01832
G1 X120.802 Y141.819 E.00868
G1 X120.607 Y141.646 E.00819
G1 X120.34 Y141.58 E.00862
G1 X95.425 Y141.575 E.78119
G1 X95.425 Y68.425 E2.29359
G1 X120.34 Y68.42 E.78118
G1 X120.44 Y68.411 E.00315
G1 X120.701 Y68.29 E.00903
G1 X120.861 Y68.074 E.0084
G1 X120.882 Y67.955 E.00381
M204 S1000
G1 X120.528 Y67.845 F10800
M204 S800
;TYPE:External perimeter
G1 F1200
G1 X120.449 Y67.334 E.01621
G1 X120.414 Y66.603 E.02296
G1 X120.509 Y65.811 E.025
G1 X120.733 Y65.062 E.02449
G1 X121.081 Y64.363 E.0245
G1 X121.544 Y63.732 E.02453
G1 X122.107 Y63.19 E.02451
G1 X122.715 Y62.776 E.02307
G1 X123.146 Y62.565 E.01506
;WIDTH:0.422583
G1 X123.626 Y62.362 E.01644
G1 X124.366 Y62.144 E.02436
;WIDTH:0.419747
G1 X124.901 Y62.075 E.0169
;WIDTH:0.417126
G1 X125.398 Y62.111 E.0155
;WIDTH:0.428307
G1 X126.018 Y62.248 E.02036
G1 X126.525 Y62.409 E.01703
;WIDTH:0.419999
G1 X127.247 Y62.749 E.02501
G1 X127.895 Y63.19 E.02459
G1 X128.458 Y63.732 E.02451
G1 X128.921 Y64.363 E.02453
G1 X129.269 Y65.062 E.02448
G1 X129.491 Y65.81 E.02448
G1 X129.588 Y66.618 E.02551
G1 X129.551 Y67.29 E.02108
G1 X129.476 Y67.825 E.01694
G1 X129.519 Y67.978 E.00499
G1 X129.662 Y68.043 E.00493
G1 X154.954 Y68.048 E.79301
G1 X154.954 Y93.34 E.79301
G1 X154.954 Y141.952 E1.52422
G1 X129.662 Y141.957 E.79301
G1 X129.531 Y142.01 E.00443
G1 X129.474 Y142.156 E.00492
G1 X129.552 Y142.667 E.01621
G1 X129.588 Y143.383 E.02246
G1 X129.491 Y144.189 E.02547
G1 X129.269 Y144.938 E.02448
G1 X128.921 Y145.637 E.02448
G1 X128.458 Y146.268 E.02453
G1 X127.895 Y146.81 E.02451
G1 X127.286 Y147.224 E.02308
G1 X126.855 Y147.436 E.01507
;WIDTH:0.422498
G1 X126.379 Y147.637 E.01632
;WIDTH:0.435998
G1 X125.749 Y147.834 E.02157
G1 X125.026 Y147.927 E.02381
;WIDTH:0.430898
G1 X124.604 Y147.889 E.01368
;WIDTH:0.428761
G1 X123.985 Y147.753 E.02033
G1 X123.477 Y147.591 E.01711
;WIDTH:0.419999
G1 X122.755 Y147.251 E.02501
G1 X122.107 Y146.81 E.02459
G1 X121.544 Y146.268 E.02451
G1 X121.081 Y145.637 E.02453
G1 X120.733 Y144.938 E.0245
G1 X120.509 Y144.189 E.02449
G1 X120.414 Y143.399 E.02496
G1 X120.449 Y142.726 E.02112
G1 X120.526 Y142.176 E.01744
G1 X120.487 Y142.027 E.0048
G1 X120.34 Y141.957 E.00512
G1 X95.048 Y141.952 E.79301
G1 X95.048 Y68.048 E2.31723
G1 X120.34 Y68.043 E.793
G1 X120.471 Y67.99 E.00442
G1 X120.506 Y67.901 E.00302
M204 S1000
G1 X120.901 Y67.699 F10800
;WIPE_START
G1 F8640
G1 X120.449 Y67.334 E-.1315
G1 X120.414 Y66.603 E-.16911
G1 X120.509 Y65.811 E-.18412
G1 X120.733 Y65.062 E-.18037
G1 X120.916 Y64.695 E-.09489
;WIPE_END
G1 E-.04 F2100
G1 Z.6 F720
G1 X124.067 Y62.635 F10800
G1 Z.2 F720
G1 E.8 F2100
M204 S800
;WIDTH:0.428765
G1 F1200
G1 X124.415 Y62.518 E.01178
;WIDTH:0.419747
G1 X124.95 Y62.446 E.0169
;WIDTH:0.417126
M73 P1 R85
M73 Q1 S85
G1 X125.328 Y62.474 E.01181
;WIDTH:0.428703
G1 X125.887 Y62.61 E.01843
G1 X126.255 Y62.837 E.0139
;WIDTH:0.419999
G1 X126.466 Y63.037 E.00908
G1 X126.661 Y63.311 E.01055
G1 X126.8 Y63.611 E.01039
G1 X126.884 Y63.933 E.01041
G1 X126.912 Y64.268 E.01057
G1 X126.863 Y64.659 E.01234
G1 X126.664 Y65.191 E.01781
G1 X126.441 Y65.502 E.012
G1 X125.984 Y65.886 E.01871
G1 X125.653 Y66.046 E.01153
G1 X125.319 Y66.134 E.01084
G1 X124.985 Y66.161 E.0105
G1 X124.652 Y66.128 E.0105
G1 X124.332 Y66.039 E.0104
G1 X123.828 Y65.754 E.01817
G1 X123.527 Y65.466 E.01304
G1 X123.247 Y64.993 E.01723
G1 X123.117 Y64.565 E.01402
G1 X123.092 Y64.235 E.01038
G1 X123.134 Y63.86 E.01184
G1 X123.213 Y63.58 E.00911
G1 X123.359 Y63.28 E.01046
G1 X123.561 Y63.009 E.01059
;WIDTH:0.422583
G1 X123.813 Y62.781 E.01074
;WIDTH:0.428765
G1 X124.015 Y62.665 E.00748
M204 S1000
;WIPE_START
G1 F8640
G1 X124.415 Y62.518 E-.09839
G1 X124.95 Y62.446 E-.12456
G1 X125.328 Y62.474 E-.08765
G1 X125.887 Y62.61 E-.13267
G1 X126.255 Y62.837 E-.10003
G1 X126.466 Y63.037 E-.0669
G1 X126.661 Y63.311 E-.07767
G1 X126.792 Y63.594 E-.07211
;WIPE_END
G1 E-.04 F2100
G1 Z.6 F720
G1 X123.11 Y145.587 F10800
G1 Z.2 F720
G1 E.8 F2100
M204 S800
;WIDTH:0.419999
G1 F1200
G1 X123.139 Y145.341 E.00776
G1 X123.338 Y144.809 E.01781
G1 X123.548 Y144.509 E.01149
G1 X123.82 Y144.252 E.01172
G1 X124.062 Y144.087 E.00917
G1 X124.378 Y143.947 E.01084
G1 X124.931 Y143.845 E.01764
G1 X125.35 Y143.872 E.01318
G1 X125.669 Y143.961 E.01037
G1 X126.162 Y144.237 E.01771
G1 X126.475 Y144.534 E.01352
G1 X126.756 Y145.008 E.01729
G1 X126.885 Y145.432 E.01389
G1 X126.912 Y145.766 E.0105
G1 X126.868 Y146.14 E.0118
G1 X126.789 Y146.42 E.00911
G1 X126.642 Y146.721 E.0105
G1 X126.442 Y146.988 E.01047
G1 X126.254 Y147.163 E.00806
;WIDTH:0.428886
G1 X125.887 Y147.39 E.01385
G1 X125.328 Y147.526 E.01844
;WIDTH:0.413357
G1 X124.72 Y147.532 E.01875
;WIDTH:0.429156
G1 X124.117 Y147.39 E.01988
G1 X123.748 Y147.163 E.01392
;WIDTH:0.419999
G1 X123.537 Y146.962 E.00915
G1 X123.341 Y146.69 E.0105
G1 X123.202 Y146.389 E.01041
G1 X123.117 Y146.065 E.01048
G1 X123.092 Y145.733 E.01045
G1 X123.102 Y145.646 E.00274
M204 S1000
G1 X122.905 Y145.447 F10800
;WIPE_START
G1 F8640
G1 X123.139 Y145.341 E-.07097
G1 X123.338 Y144.809 E-.13118
G1 X123.548 Y144.509 E-.08464
G1 X123.82 Y144.252 E-.0863
G1 X124.062 Y144.087 E-.0675
G1 X124.378 Y143.947 E-.07986
G1 X124.931 Y143.845 E-.12988
G1 X125.35 Y143.872 E-.09708
G1 X125.403 Y143.887 E-.01259
;WIPE_END
G1 E-.04 F2100
G1 Z.6 F720
G1 X128.94 Y65.676 F10800
G1 Z.2 F720
G1 E.8 F2100
M204 S800
;TYPE:Solid infill
;WIDTH:0.420592
G1 F1200
G1 X127.571 Y64.307 E.0608
G1 X127.541 Y64.635 E.01035
G1 X127.507 Y64.777 E.00458
G1 X128.865 Y66.136 E.06034
G1 X128.926 Y66.64 E.01594
G1 X128.921 Y66.725 E.00269
G1 X127.384 Y65.188 E.06826
G1 X127.26 Y65.474 E.00978
G1 X127.21 Y65.548 E.00282
G1 X129.05 Y67.389 E.08174
M204 S1000
;WIPE_START
G1 F8640
G1 X127.21 Y65.548 E-.60101
G1 X127.26 Y65.474 E-.02072
G1 X127.384 Y65.188 E-.07191
G1 X127.587 Y65.391 E-.06636
;WIPE_END
G1 E-.04 F2100
G1 Z.6 F720
G1 X122.607 Y64.15 F10800
G1 Z.2 F720
G1 E.8 F2100
M204 S800
G1 F1200
G1 X122.339 Y63.883 E.01189
G1 X122.067 Y64.144 E.01186
G1 X122.651 Y64.728 E.02594
M204 S1000
;WIPE_START
G1 F8640
G1 X122.067 Y64.144 E-.1907
G1 X122.339 Y63.883 E-.08722
G1 X122.607 Y64.15 E-.08741
;WIPE_END
G1 E-.43467 F2100
G1 Z.6 F720
G1 X154.464 Y69.301 F10800
G1 Z.2 F720
M73 P1 R84
G1 E.8 F2100
M204 S800
G1 F1200
G1 X153.87 Y68.707 E.02638
G1 X153.335 Y68.707 E.01678
G1 X154.294 Y69.666 E.04257
G1 X154.294 Y70.2 E.01677
G1 X152.801 Y68.707 E.06629
G1 X152.267 Y68.707 E.01678
G1 X154.294 Y70.734 E.09002
G1 X154.294 Y71.268 E.01677
G1 X151.733 Y68.707 E.11374
G1 X151.199 Y68.707 E.01678
G1 X154.294 Y71.802 E.13746
G1 X154.294 Y72.336 E.01677
G1 X150.664 Y68.707 E.16119
G1 X150.13 Y68.707 E.01678
G1 X154.294 Y72.87 E.18491
G1 X154.294 Y73.404 E.01677
G1 X149.596 Y68.707 E.20864
G1 X149.062 Y68.706 E.01678
G1 X154.294 Y73.938 E.23236
G1 X154.294 Y74.473 E.01677
G1 X148.528 Y68.706 E.25609
G1 X147.993 Y68.706 E.01678
G1 X154.294 Y75.007 E.27981
G1 X154.294 Y75.541 E.01677
G1 X147.459 Y68.706 E.30354
G1 X146.925 Y68.706 E.01678
G1 X154.294 Y76.075 E.32726
G1 X154.294 Y76.609 E.01677
G1 X146.391 Y68.706 E.35098
G1 X145.857 Y68.706 E.01678
G1 X154.294 Y77.143 E.37471
G1 X154.294 Y77.677 E.01677
G1 X145.322 Y68.706 E.39843
G1 X144.788 Y68.706 E.01678
G1 X154.294 Y78.211 E.42216
G1 X154.294 Y78.745 E.01677
G1 X144.254 Y68.706 E.44588
G1 X143.72 Y68.706 E.01678
G1 X154.294 Y79.28 E.46961
G1 X154.294 Y79.814 E.01677
G1 X143.186 Y68.705 E.49333
G1 X142.651 Y68.705 E.01678
G1 X154.294 Y80.348 E.51706
G1 X154.294 Y80.882 E.01677
G1 X142.117 Y68.705 E.54078
G1 X141.583 Y68.705 E.01678
G1 X154.294 Y81.416 E.56451
G1 X154.294 Y81.95 E.01677
G1 X141.049 Y68.705 E.58823
G1 X140.515 Y68.705 E.01678
G1 X154.294 Y82.484 E.61195
G1 X154.294 Y83.018 E.01677
G1 X139.98 Y68.705 E.63568
G1 X139.446 Y68.705 E.01678
G1 X154.294 Y83.552 E.6594
G1 X154.294 Y84.087 E.01677
G1 X138.912 Y68.705 E.68313
G1 X138.378 Y68.705 E.01678
G1 X154.294 Y84.621 E.70685
G1 X154.294 Y85.155 E.01677
G1 X137.844 Y68.705 E.73058
G1 X137.309 Y68.704 E.01678
G1 X154.294 Y85.689 E.7543
G1 X154.294 Y86.223 E.01677
G1 X136.775 Y68.704 E.77803
G1 X136.241 Y68.704 E.01678
G1 X154.294 Y86.757 E.80175
G1 X154.294 Y87.291 E.01677
G1 X135.707 Y68.704 E.82547
G1 X135.173 Y68.704 E.01678
M73 Q1 S84
G1 X154.294 Y87.825 E.8492
G1 X154.294 Y88.359 E.01677
G1 X134.638 Y68.704 E.87292
G1 X134.104 Y68.704 E.01678
G1 X154.294 Y88.894 E.89665
G1 X154.294 Y89.428 E.01677
G1 X133.57 Y68.704 E.92037
G1 X133.036 Y68.704 E.01678
G1 X154.294 Y89.962 E.9441
G1 X154.294 Y90.496 E.01677
G1 X132.502 Y68.704 E.96782
G1 X131.967 Y68.704 E.01678
G1 X154.294 Y91.03 E.99155
G1 X154.294 Y91.564 E.01677
G1 X131.433 Y68.703 E1.01527
G1 X130.899 Y68.703 E.01678
G1 X154.294 Y92.098 E1.039
G1 X154.294 Y92.632 E.01677
G1 X130.195 Y68.534 E1.07026
M204 S1000
;WIPE_START
G1 F8640
G1 X132.523 Y70.861 E-.76
;WIPE_END
G1 E-.04 F2100
G1 Z.6 F720
G1 X126.871 Y65.744 F10800
G1 Z.2 F720
G1 E.8 F2100
M204 S800
G1 F1200
G1 X128.834 Y67.706 E.08716
G1 X128.813 Y67.853 E.00467
G1 X128.835 Y68.049 E.00618
G1 X128.91 Y68.25 E.00674
G1 X129.071 Y68.465 E.00846
G1 X129.262 Y68.604 E.00742
G1 X129.504 Y68.689 E.00804
G1 X129.831 Y68.703 E.01027
G1 X154.294 Y93.166 E1.08644
G1 X154.294 Y93.7 E.01677
G1 X126.716 Y66.123 E1.22475
G1 X126.426 Y66.367 E.01191
G1 X154.294 Y94.235 E1.23765
G1 X154.294 Y94.769 E.01677
M73 P2 R84
M73 Q2 S84
G1 X126.093 Y66.568 E1.25245
G1 X125.94 Y66.641 E.00533
G1 X125.7 Y66.709 E.00782
G1 X154.294 Y95.303 E1.26988
G1 X154.294 Y95.837 E.01677
G1 X125.256 Y66.799 E1.2896
G1 X125.002 Y66.822 E.00802
G1 X124.72 Y66.797 E.00889
G1 X154.294 Y96.371 E1.31342
G1 X154.294 Y96.905 E.01677
G1 X124 Y66.612 E1.34537
G1 X123.721 Y66.479 E.0097
G1 X123.404 Y66.263 E.01208
G1 X123.045 Y65.919 E.01559
G1 X122.742 Y65.475 E.01689
G1 X122.638 Y65.25 E.0078
G1 X121.837 Y64.448 E.03558
G1 X121.619 Y64.764 E.01206
G1 X154.294 Y97.439 E1.45114
G1 X154.294 Y97.973 E.01677
M73 P2 R83
G1 X121.441 Y65.121 E1.45904
G1 X121.349 Y65.306 E.0065
G1 X121.29 Y65.503 E.00647
G1 X154.294 Y98.507 E1.46576
G1 X154.294 Y99.042 E.01677
G1 X121.167 Y65.914 E1.47122
G1 X121.105 Y66.386 E.01495
G1 X154.294 Y99.576 E1.47398
G1 X154.294 Y100.11 E.01677
G1 X121.089 Y66.905 E1.47467
G1 X121.106 Y67.267 E.01139
G1 X121.139 Y67.489 E.00706
G1 X154.294 Y100.644 E1.47243
G1 X154.294 Y101.178 E.01677
G1 X121.166 Y68.05 E1.47126
G1 X121.092 Y68.25 E.00669
G1 X120.98 Y68.399 E.00584
G1 X154.294 Y101.712 E1.4795
G1 X154.294 Y102.246 E.01677
G1 X120.677 Y68.629 E1.49299
G1 X120.471 Y68.694 E.00677
G1 X120.207 Y68.694 E.00828
G1 X154.294 Y102.78 E1.51382
G1 X154.294 Y103.314 E.01677
G1 X119.674 Y68.694 E1.53753
G1 X119.14 Y68.695 E.01676
M73 Q2 S83
G1 X154.294 Y103.849 E1.56124
G1 X154.294 Y104.383 E.01677
G1 X118.606 Y68.695 E1.58495
G1 X118.072 Y68.695 E.01676
G1 X154.294 Y104.917 E1.60865
G1 X154.294 Y105.451 E.01677
G1 X117.538 Y68.695 E1.63236
G1 X117.005 Y68.696 E.01676
G1 X154.294 Y105.985 E1.65607
G1 X154.294 Y106.519 E.01677
M73 P3 R83
M73 Q3 S83
G1 X116.471 Y68.696 E1.67978
