; generated by PrusaSlicer 2.5.2+win64 on 2023-05-24 at 16:06:32 UTC


;
;
; 

; external perimeters extrusion width = 0.45mm
; perimeters extrusion width = 0.45mm
; infill extrusion width = 0.45mm
; solid infill extrusion width = 0.45mm
; top infill extrusion width = 0.40mm
; first layer extrusion width = 0.42mm

M73 P0 R99
M73 Q0 S100
M201 X1000 Y1000 Z200 E5000 ; sets maximum accelerations, mm/sec^2
M203 X200 Y200 Z12 E120 ; sets maximum feedrates, mm / sec
M204 P1250 R1250 T1250 ; sets acceleration (P, T) and retract acceleration (R), mm/sec^2
M205 X8.00 Y8.00 Z0.40 E4.50 ; sets the jerk limits, mm/sec
M205 S0 T0 ; sets the minimum extruding and travel feed rate, mm/sec
M107
;TYPE:Custom
M862.3 P "MK3S" ; printer model check
M862.1 P0.4 ; nozzle diameter check
M115 U3.11.0 ; tell printer latest fw version
G90 ; use absolute coordinates
M83 ; extruder relative mode
M104 S215 ; set extruder temp
M140 S60 ; set bed temp
M190 S60 ; wait for bed temp
M109 S215 ; wait for extruder temp
G28 W ; home all without mesh bed level
G80 ; mesh bed leveling

G1 Z0.2 F720
G1 Y-3 F1000 ; go outside print area
G92 E0
G1 X60 E9 F1000 ; intro line
G1 X100 E12.5 F1000 ; intro line

G92 E0
M221 S95

; Don't change E values below. Excessive value can damage the printer.
M907 E430 ; set extruder motor current
G21 ; set units to millimeters
G90 ; use absolute coordinates
M83 ; use relative distances for extrusion
M900 K0.05 ; Filament gcode LA 1.5
M900 K30 ; Filament gcode LA 1.0
M107
;LAYER_CHANGE
;Z:0.2
;HEIGHT:0.2
;BEFORE_LAYER_CHANGE
G92 E0.0
;0.2


G1 E-.8 F2100
G1 Z.4 F720
;AFTER_LAYER_CHANGE
;0.2
G1 X89.961 Y63.639 F10800
G1 Z.2 F720
G1 E.8 F2100
M204 S800
;TYPE:Skirt/Brim
;WIDTH:0.42
G1 F1200
G1 X91.007 Y62.763 E.04278
G1 X91.731 Y62.579 E.02344
G1 X124.8 Y59.579 E1.04112
G1 X125.97 Y59.644 E.03674
G1 X158.263 Y62.585 E1.01671
G1 X159.529 Y63.094 E.04278
G1 X160.307 Y64.215 E.04278
G1 X160.424 Y64.953 E.02342
G1 X160.424 Y145.047 E2.51131
G1 X160.033 Y146.354 E.04278
G1 X158.987 Y147.231 E.04278
G1 X158.263 Y147.415 E.02342
G1 X125.2 Y150.421 E1.04096
G1 X91.737 Y147.415 E1.05343
G1 X90.471 Y146.906 E.04278
G1 X89.693 Y145.785 E.04278
G1 X89.576 Y145.048 E.02342
G1 X89.569 Y64.946 E2.51152
G1 X89.944 Y63.697 E.0409
M204 S1000
; printing object Pico_Top.STL id:0 copy 0
;WIPE_START
G1 F8640
G1 X91.007 Y62.763 E-.32671
G1 X91.731 Y62.579 E-.17261
G1 X92.856 Y62.477 E-.26068
;WIPE_END
G1 E-.04 F2100
G1 Z.6 F720
G1 X127.231 Y145.93 F10800
G1 Z.2 F720
G1 E.8 F2100
M204 S800
;TYPE:Perimeter
;WIDTH:0.419999
G1 F1200
G1 X127.237 Y145.699 E.00723
G1 X127.166 Y145.251 E.01424
G1 X127.006 Y144.86 E.01324
G1 X126.784 Y144.522 E.01268
G1 X126.547 Y144.271 E.01082
G1 X126.186 Y143.995 E.01426
G1 X125.828 Y143.819 E.0125
G1 X125.37 Y143.693 E.01491
G1 X124.868 Y143.673 E.01574
G1 X124.31 Y143.775 E.0178
G1 X123.9 Y143.946 E.01392
G1 X123.568 Y144.167 E.0125
G1 X123.281 Y144.444 E.01251
G1 X123.065 Y144.74 E.0115
G1 X122.871 Y145.134 E.01375
G1 X122.774 Y145.544 E.0132
G1 X122.769 Y145.93 E.01211
G1 X121.791 Y144.983 E.04267
G1 X121.077 Y144.507 E.02692
G1 X120.12 Y144.079 E.03286
G1 X119.289 Y143.864 E.02692
G1 X118.301 Y143.775 E.03109
G1 X93.225 Y143.775 E.78625
G1 X93.222 Y66.222 E2.43161
M73 Q0 S99
G1 X118.347 Y66.221 E.78776
G1 X119.289 Y66.136 E.02964
G1 X120.21 Y65.89 E.02989
G1 X120.907 Y65.578 E.02394
G1 X121.279 Y65.358 E.01358
G1 X121.87 Y64.953 E.02246
G1 X122.769 Y64.07 E.03949
G1 X122.763 Y64.301 E.00723
G1 X122.834 Y64.749 E.01424
G1 X122.994 Y65.14 E.01324
G1 X123.216 Y65.478 E.01268
G1 X123.453 Y65.729 E.01082
G1 X123.814 Y66.005 E.01426
G1 X124.172 Y66.181 E.0125
G1 X124.555 Y66.292 E.0125
G1 X124.951 Y66.336 E.0125
G1 X125.348 Y66.31 E.0125
G1 X125.735 Y66.215 E.0125
G1 X126.1 Y66.054 E.0125
G1 X126.432 Y65.833 E.0125
G1 X126.719 Y65.556 E.01251
G1 X126.935 Y65.26 E.0115
G1 X127.129 Y64.866 E.01375
G1 X127.226 Y64.456 E.0132
G1 X127.231 Y64.07 E.01211
G1 X128.209 Y65.017 E.04267
G1 X128.923 Y65.493 E.02692
G1 X129.88 Y65.921 E.03286
G1 X130.805 Y66.152 E.02989
G1 X131.699 Y66.225 E.02812
G1 X156.775 Y66.225 E.78625
G1 X156.775 Y143.775 E2.43153
G1 X131.699 Y143.775 E.78625
G1 X130.711 Y143.864 E.03109
G1 X129.79 Y144.11 E.02989
G1 X129.093 Y144.422 E.02394
G1 X128.721 Y144.642 E.01358
G1 X128.13 Y145.047 E.02246
G1 X127.274 Y145.887 E.0376
M204 S1000
;WIPE_START
G1 F8640
G1 X127.237 Y145.699 E-.04428
G1 X127.166 Y145.251 E-.10485
G1 X127.006 Y144.86 E-.09748
G1 X126.784 Y144.522 E-.09341
G1 X126.547 Y144.271 E-.07971
G1 X126.186 Y143.995 E-.10499
G1 X125.828 Y143.819 E-.09205
G1 X125.37 Y143.693 E-.10977
G1 X125.225 Y143.687 E-.03347
;WIPE_END
G1 E-.04 F2100
G1 Z.6 F720
G1 X126.238 Y147.142 F10800
G1 Z.2 F720
G1 E.8 F2100
M204 S800
;TYPE:External perimeter
G1 F1200
G1 X126.482 Y146.803 E.01311
G1 X126.747 Y146.326 E.01709
G1 X126.846 Y146.007 E.01049
G1 X126.86 Y145.691 E.00991
G1 X126.797 Y145.326 E.01159
G1 X126.626 Y144.956 E.0128
G1 X126.28 Y144.537 E.01701
G1 X125.969 Y144.304 E.01219
G1 X125.669 Y144.161 E.01044
G1 X125.348 Y144.072 E.01045
G1 X124.933 Y144.045 E.01304
G1 X124.377 Y144.146 E.01771
G1 X124.059 Y144.288 E.01091
G1 X123.72 Y144.537 E.01321
G1 X123.375 Y144.954 E.01697
G1 X123.216 Y145.287 E.01157
G1 X123.143 Y145.619 E.01065
G1 X123.146 Y145.958 E.01061
G1 X123.237 Y146.288 E.01073
G1 X123.417 Y146.621 E.01187
G1 X123.768 Y147.134 E.01948
G1 X123.713 Y147.129 E.00172
G1 X123.172 Y146.887 E.01858
G1 X122.33 Y146.014 E.03804
G1 X121.635 Y145.345 E.03025
G1 X121.36 Y145.15 E.01058
G1 X120.753 Y144.766 E.02253
G1 X120.026 Y144.444 E.02493
G1 X119.194 Y144.23 E.02692
G1 X118.301 Y144.152 E.02811
G1 X92.848 Y144.152 E.79807
G1 X92.845 Y65.845 E2.45525
G1 X118.301 Y65.845 E.79814
G1 X119.194 Y65.77 E.02811
G1 X120.056 Y65.546 E.02791
G1 X120.867 Y65.18 E.02791
G1 X121.582 Y64.702 E.02696
M73 P0 R98
G1 X122.336 Y63.98 E.03274
G1 X123.172 Y63.113 E.03777
G1 X123.762 Y62.858 E.02014
G1 X123.518 Y63.197 E.01311
G1 X123.253 Y63.674 E.0171
G1 X123.154 Y63.993 E.01049
G1 X123.14 Y64.309 E.00991
G1 X123.203 Y64.674 E.01159
G1 X123.374 Y65.044 E.0128
G1 X123.72 Y65.463 E.01701
G1 X124.031 Y65.696 E.01219
G1 X124.331 Y65.839 E.01044
G1 X124.652 Y65.928 E.01044
G1 X124.984 Y65.96 E.01044
G1 X125.316 Y65.934 E.01044
G1 X125.638 Y65.851 E.01044
G1 X125.941 Y65.712 E.01044
G1 X126.28 Y65.463 E.01321
G1 X126.625 Y65.046 E.01697
G1 X126.784 Y64.713 E.01157
G1 X126.857 Y64.381 E.01065
G1 X126.854 Y64.042 E.01061
G1 X126.763 Y63.712 E.01073
G1 X126.583 Y63.379 E.01187
G1 X126.232 Y62.866 E.01948
G1 X126.287 Y62.871 E.00172
G1 X126.828 Y63.113 E.01858
G1 X127.67 Y63.986 E.03804
G1 X128.365 Y64.655 E.03025
G1 X128.64 Y64.85 E.01058
G1 X129.247 Y65.234 E.02253
G1 X129.974 Y65.556 E.02493
G1 X130.837 Y65.776 E.02791
G1 X131.699 Y65.848 E.02712
G1 X157.152 Y65.848 E.79807
G1 X157.152 Y144.152 E2.45518
G1 X131.699 Y144.152 E.79807
G1 X130.806 Y144.23 E.02811
G1 X129.944 Y144.454 E.02791
G1 X129.133 Y144.82 E.02791
G1 X128.418 Y145.298 E.02696
G1 X127.664 Y146.02 E.03274
G1 X126.828 Y146.887 E.03777
G1 X126.293 Y147.118 E.01826
M204 S1000
G1 X126.501 Y146.841 F10800
;WIPE_START
G1 F8640
G1 X126.482 Y146.803 E-.08496
G1 X126.747 Y146.326 E-.12589
G1 X126.846 Y146.007 E-.07723
G1 X126.86 Y145.691 E-.07301
G1 X126.797 Y145.326 E-.08537
G1 X126.626 Y144.956 E-.09426
G1 X126.28 Y144.537 E-.12528
G1 X125.969 Y144.304 E-.08977
G1 X125.953 Y144.296 E-.00424
;WIPE_END
G1 E-.04 F2100
G1 Z.6 F720
G1 X156.662 Y67.103 F10800
G1 Z.2 F720
G1 E.8 F2100
M204 S800
;TYPE:Solid infill
;WIDTH:0.421271
G1 F1200
G1 X156.067 Y66.508 E.02649
G1 X155.532 Y66.508 E.01683
G1 X156.492 Y67.468 E.04274
G1 X156.492 Y68.003 E.01683
G1 X154.997 Y66.508 E.06655
G1 X154.461 Y66.508 E.01683
G1 X156.492 Y68.538 E.09036
G1 X156.492 Y69.074 E.01683
G1 X153.926 Y66.508 E.11416
G1 X153.391 Y66.508 E.01683
G1 X156.492 Y69.609 E.13797
G1 X156.492 Y70.144 E.01683
G1 X152.856 Y66.507 E.16178
G1 X152.321 Y66.507 E.01683
G1 X156.492 Y70.679 E.18559
G1 X156.492 Y71.214 E.01683
G1 X151.786 Y66.507 E.20939
G1 X151.251 Y66.507 E.01683
G1 X156.492 Y71.749 E.2332
G1 X156.492 Y72.284 E.01683
G1 X150.716 Y66.507 E.25701
G1 X150.181 Y66.507 E.01683
G1 X156.492 Y72.819 E.28081
G1 X156.492 Y73.354 E.01683
G1 X149.646 Y66.507 E.30462
G1 X149.11 Y66.507 E.01683
G1 X156.492 Y73.889 E.32843
G1 X156.492 Y74.424 E.01683
G1 X148.575 Y66.507 E.35223
G1 X148.04 Y66.507 E.01683
G1 X156.492 Y74.959 E.37604
G1 X156.492 Y75.494 E.01683
M73 P1 R98
M73 Q1 S99
G1 X147.505 Y66.507 E.39985
G1 X146.97 Y66.507 E.01683
G1 X156.492 Y76.029 E.42366
G1 X156.492 Y76.565 E.01683
G1 X146.435 Y66.507 E.44746
G1 X145.9 Y66.507 E.01683
G1 X156.492 Y77.1 E.47127
G1 X156.492 Y77.635 E.01683
G1 X145.365 Y66.507 E.49508
G1 X144.83 Y66.507 E.01683
G1 X156.492 Y78.17 E.51888
G1 X156.492 Y78.705 E.01683
G1 X144.295 Y66.507 E.54269
G1 X143.76 Y66.507 E.01683
G1 X156.492 Y79.24 E.5665
G1 X156.492 Y79.775 E.01683
G1 X143.224 Y66.507 E.59031
G1 X142.689 Y66.507 E.01683
G1 X156.492 Y80.31 E.61411
G1 X156.492 Y80.845 E.01683
G1 X142.154 Y66.507 E.63792
G1 X141.619 Y66.507 E.01683
G1 X156.492 Y81.38 E.66173
G1 X156.492 Y81.915 E.01683
G1 X141.084 Y66.507 E.68553
G1 X140.549 Y66.507 E.01683
G1 X156.492 Y82.45 E.70934
G1 X156.492 Y82.985 E.01683
G1 X140.014 Y66.507 E.73315
G1 X139.479 Y66.507 E.01683
G1 X156.492 Y83.52 E.75695
G1 X156.492 Y84.055 E.01683
G1 X138.944 Y66.507 E.78076
G1 X138.409 Y66.507 E.01683
G1 X156.492 Y84.591 E.80457
G1 X156.492 Y85.126 E.01683
G1 X137.873 Y66.507 E.82838
G1 X137.338 Y66.507 E.01683
G1 X156.492 Y85.661 E.85218
G1 X156.492 Y86.196 E.01683
G1 X136.803 Y66.507 E.87599
G1 X136.268 Y66.507 E.01683
G1 X156.492 Y86.731 E.8998
G1 X156.492 Y87.266 E.01683
G1 X135.733 Y66.507 E.9236
G1 X135.198 Y66.507 E.01683
M73 Q1 S98
G1 X156.492 Y87.801 E.94741
G1 X156.492 Y88.336 E.01683
G1 X134.663 Y66.507 E.97122
G1 X134.128 Y66.507 E.01683
G1 X156.492 Y88.871 E.99502
G1 X156.492 Y89.406 E.01683
G1 X133.593 Y66.507 E1.01883
G1 X133.058 Y66.507 E.01683
G1 X156.492 Y89.941 E1.04264
G1 X156.492 Y90.476 E.01683
G1 X132.523 Y66.506 E1.06645
G1 X131.987 Y66.506 E.01683
G1 X156.492 Y91.011 E1.09025
G1 X156.492 Y91.546 E.01683
G1 X131.433 Y66.487 E1.11491
G1 X130.847 Y66.436 E.01852
G1 X156.492 Y92.082 E1.141
G1 X156.492 Y92.617 E.01683
G1 X130.155 Y66.279 E1.17177
G1 X129.706 Y66.161 E.01462
G1 X129.331 Y65.99 E.01295
G1 X156.492 Y93.152 E1.20843
G1 X156.492 Y93.687 E.01683
G1 X128.067 Y65.261 E1.26468
G1 X127.458 Y64.698 E.02609
M73 P1 R97
G1 X127.39 Y64.975 E.00897
G1 X127.343 Y65.072 E.00341
G1 X156.492 Y94.222 E1.29689
G1 X156.492 Y94.757 E.01683
G1 X127.162 Y65.427 E1.30493
G1 X126.936 Y65.736 E.01204
G1 X156.492 Y95.292 E1.315
G1 X156.492 Y95.827 E.01683
G1 X126.664 Y65.999 E1.32709
G1 X126.357 Y66.226 E.01204
G1 X156.492 Y96.362 E1.34078
G1 X156.492 Y96.897 E.01683
G1 X126.005 Y66.409 E1.35643
G1 X125.905 Y66.456 E.00346
G1 X125.601 Y66.54 E.00995
G1 X156.492 Y97.432 E1.37441
G1 X156.492 Y97.967 E.01683
M73 P2 R97
M73 Q2 S98
G1 X125.136 Y66.611 E1.39508
G1 X125.044 Y66.62 E.0029
G1 X124.574 Y66.584 E.01484
G1 X156.492 Y98.502 E1.42009
G1 X156.492 Y99.037 E.01683
G1 X122.34 Y64.885 E1.51948
G1 X122.064 Y65.144 E.01191
G1 X156.492 Y99.572 E1.53175
G1 X156.492 Y100.108 E.01683
G1 X121.76 Y65.376 E1.54526
G1 X121.438 Y65.589 E.01215
G1 X156.492 Y100.643 E1.55959
G1 X156.492 Y101.178 E.01683
G1 X121.11 Y65.795 E1.5742
G1 X120.741 Y65.961 E.01273
G1 X156.492 Y101.713 E1.59063
G1 X156.492 Y102.248 E.01683
G1 X120.372 Y66.127 E1.60705
G1 X119.957 Y66.247 E.01359
G1 X156.492 Y102.783 E1.6255
G1 X156.492 Y103.318 E.01683
M73 Q2 S97
G1 X119.535 Y66.36 E1.6443
G1 X119.298 Y66.423 E.0077
G1 X119.081 Y66.442 E.00685
G1 X156.492 Y103.853 E1.66448
G1 X156.492 Y104.388 E.01683
G1 X118.588 Y66.484 E1.68642
G1 X118.073 Y66.504 E.0162
G1 X156.492 Y104.923 E1.70931
G1 X156.492 Y105.458 E.01683
G1 X117.538 Y66.504 E1.73311
G1 X117.003 Y66.504 E.01683
G1 X156.492 Y105.993 E1.75692
G1 X156.492 Y106.528 E.01683
G1 X116.468 Y66.504 E1.78072
G1 X115.933 Y66.504 E.01683
G1 X156.492 Y107.063 E1.80453
G1 X156.492 Y107.599 E.01683
M73 P2 R96
G1 X115.398 Y66.504 E1.82833
G1 X114.863 Y66.504 E.01683
G1 X156.492 Y108.134 E1.85214
G1 X156.492 Y108.669 E.01683
G1 X114.328 Y66.504 E1.87594
G1 X113.793 Y66.504 E.01683
G1 X156.492 Y109.204 E1.89975
G1 X156.492 Y109.739 E.01683
M73 P3 R96
M73 Q3 S97
G1 X113.258 Y66.504 E1.92355
G1 X112.723 Y66.504 E.01683
G1 X156.492 Y110.274 E1.94736
G1 X156.492 Y110.809 E.01683
G1 X112.188 Y66.504 E1.97116
G1 X111.653 Y66.504 E.01683
G1 X156.492 Y111.344 E1.99497
G1 X156.492 Y111.879 E.01683
G1 X111.118 Y66.504 E2.01877
G1 X110.583 Y66.504 E.01683
G1 X156.492 Y112.414 E2.04258
G1 X156.492 Y112.949 E.01683
G1 X110.048 Y66.504 E2.06638
G1 X109.513 Y66.504 E.01683
G1 X156.492 Y113.484 E2.09019
G1 X156.492 Y114.019 E.01683
M73 Q3 S96
G1 X108.978 Y66.505 E2.11399
G1 X108.442 Y66.505 E.01683
G1 X156.492 Y114.554 E2.1378
G1 X156.492 Y115.089 E.01683
G1 X107.907 Y66.505 E2.1616
G1 X107.372 Y66.505 E.01683
G1 X156.492 Y115.625 E2.18541
G1 X156.492 Y116.16 E.01683
G1 X106.837 Y66.505 E2.20921
G1 X106.302 Y66.505 E.01683
G1 X156.492 Y116.695 E2.23301
G1 X156.492 Y117.23 E.01683
M73 P3 R95
G1 X105.767 Y66.505 E2.25682
G1 X105.232 Y66.505 E.01683
G1 X156.492 Y117.765 E2.28062
G1 X156.492 Y118.3 E.01683
G1 X104.697 Y66.505 E2.30443
G1 X104.162 Y66.505 E.01683
G1 X156.492 Y118.835 E2.32823
G1 X156.492 Y119.37 E.01683
M73 P4 R95
M73 Q4 S96
G1 X103.627 Y66.505 E2.35204
G1 X103.092 Y66.505 E.01683
G1 X156.492 Y119.905 E2.37584
G1 X156.492 Y120.44 E.01683
G1 X102.557 Y66.505 E2.39965
G1 X102.022 Y66.505 E.01683
G1 X156.492 Y120.975 E2.42345
G1 X156.492 Y121.51 E.01683
G1 X101.487 Y66.505 E2.44726
G1 X100.952 Y66.505 E.01683
G1 X156.492 Y122.045 E2.47106
G1 X156.492 Y122.58 E.01683
M73 Q4 S95
G1 X100.417 Y66.505 E2.49487
G1 X99.882 Y66.505 E.01683
G1 X156.492 Y123.116 E2.51867
G1 X156.492 Y123.651 E.01683
G1 X99.347 Y66.505 E2.54248
G1 X98.812 Y66.505 E.01683
G1 X156.492 Y124.186 E2.56628
G1 X156.492 Y124.721 E.01683
G1 X98.277 Y66.505 E2.59009
G1 X97.742 Y66.505 E.01683
M73 P4 R94
G1 X156.492 Y125.256 E2.61389
G1 X156.492 Y125.791 E.01683
G1 X97.207 Y66.505 E2.6377
G1 X96.671 Y66.505 E.01683
G1 X156.492 Y126.326 E2.6615
G1 X156.492 Y126.861 E.01683
G1 X96.136 Y66.505 E2.68531
G1 X95.601 Y66.505 E.01683
M73 P5 R94
M73 Q5 S95
G1 X156.492 Y127.396 E2.70911
G1 X156.492 Y127.931 E.01683
G1 X95.066 Y66.505 E2.73292
G1 X94.531 Y66.505 E.01683
G1 X156.492 Y128.466 E2.75672
G1 X156.492 Y129.001 E.01683
G1 X93.996 Y66.505 E2.78053
G1 X93.505 Y66.505 E.01545
G1 X93.505 Y66.549 E.00139
G1 X156.492 Y129.536 E2.80237
G1 X156.492 Y130.071 E.01683
M73 Q5 S94
G1 X93.505 Y67.084 E2.80237
G1 X93.505 Y67.619 E.01683
G1 X156.492 Y130.606 E2.80237
G1 X156.492 Y131.142 E.01683
G1 X93.505 Y68.155 E2.80237
G1 X93.505 Y68.69 E.01683
G1 X156.492 Y131.677 E2.80237
G1 X156.492 Y132.212 E.01683
G1 X93.505 Y69.225 E2.80237
G1 X93.505 Y69.76 E.01683
M73 P5 R93
G1 X156.492 Y132.747 E2.80236
G1 X156.492 Y133.282 E.01683
G1 X93.505 Y70.295 E2.80236
G1 X93.505 Y70.83 E.01683
G1 X156.492 Y133.817 E2.80236
G1 X156.492 Y134.352 E.01683
M73 P6 R93
M73 Q6 S94
G1 X93.505 Y71.365 E2.80236
G1 X93.505 Y71.9 E.01683
G1 X156.492 Y134.887 E2.80236
G1 X156.492 Y135.422 E.01683
G1 X93.505 Y72.435 E2.80236
G1 X93.505 Y72.97 E.01683
G1 X156.492 Y135.957 E2.80236
G1 X156.492 Y136.492 E.01683
G1 X93.505 Y73.505 E2.80236
G1 X93.506 Y74.04 E.01683
G1 X156.492 Y137.027 E2.80236
G1 X156.492 Y137.562 E.01683
M73 Q6 S93
G1 X93.506 Y74.576 E2.80236
G1 X93.506 Y75.111 E.01683
G1 X156.492 Y138.097 E2.80236
G1 X156.492 Y138.633 E.01683
G1 X93.506 Y75.646 E2.80236
G1 X93.506 Y76.181 E.01683
G1 X156.492 Y139.168 E2.80236
G1 X156.492 Y139.703 E.01683
M73 P6 R92
G1 X93.506 Y76.716 E2.80236
G1 X93.506 Y77.251 E.01683
G1 X156.492 Y140.238 E2.80235
G1 X156.492 Y140.773 E.01683
G1 X93.506 Y77.786 E2.80235
G1 X93.506 Y78.321 E.01683
M73 P7 R92
G1 X156.492 Y141.308 E2.80235
G1 X156.492 Y141.843 E.01683
M73 Q7 S93
G1 X93.506 Y78.856 E2.80235
G1 X93.506 Y79.391 E.01683
