; generated by PrusaSlicer 2.5.2+win64 on 2023-05-16 at 19:54:06 UTC


;
;
; 

; external perimeters extrusion width = 0.45mm
; perimeters extrusion width = 0.45mm
; infill extrusion width = 0.45mm
; solid infill extrusion width = 0.45mm
; top infill extrusion width = 0.40mm
; first layer extrusion width = 0.42mm

M73 P0 R87
M73 Q0 S88
M201 X1000 Y1000 Z200 E5000 ; sets maximum accelerations, mm/sec^2
M203 X200 Y200 Z12 E120 ; sets maximum feedrates, mm / sec
M204 P1250 R1250 T1250 ; sets acceleration (P, T) and retract acceleration (R), mm/sec^2
M205 X8.00 Y8.00 Z0.40 E4.50 ; sets the jerk limits, mm/sec
M205 S0 T0 ; sets the minimum extruding and travel feed rate, mm/sec
M107
;TYPE:Custom
M862.3 P "MK3S" ; printer model check
M862.1 P0.4 ; nozzle diameter check
M115 U3.11.0 ; tell printer latest fw version
G90 ; use absolute coordinates
M83 ; extruder relative mode
M104 S215 ; set extruder temp
M140 S60 ; set bed temp
M190 S60 ; wait for bed temp
M109 S215 ; wait for extruder temp
G28 W ; home all without mesh bed level
G80 ; mesh bed leveling

G1 Z0.2 F720
G1 Y-3 F1000 ; go outside print area
G92 E0
G1 X60 E9 F1000 ; intro line
G1 X100 E12.5 F1000 ; intro line

G92 E0
M221 S95

; Don't change E values below. Excessive value can damage the printer.
M907 E430 ; set extruder motor current
G21 ; set units to millimeters
G90 ; use absolute coordinates
M83 ; use relative distances for extrusion
M900 K0.05 ; Filament gcode LA 1.5
M900 K30 ; Filament gcode LA 1.0
M107
;LAYER_CHANGE
;Z:0.2
;HEIGHT:0.2
;BEFORE_LAYER_CHANGE
G92 E0.0
;0.2


M73 Q0 S87
G1 E-.8 F2100
G1 Z.4 F720
;AFTER_LAYER_CHANGE
;0.2
G1 X92.058 Y65.515 F10800
G1 Z.2 F720
G1 E.8 F2100
M204 S800
;TYPE:Skirt/Brim
;WIDTH:0.42
G1 F1200
G1 X93.538 Y64.612 E.05436
G1 X123.737 Y59.282 E.96151
G1 X124.797 Y59.182 E.03338
G1 X126.049 Y59.254 E.03931
G1 X156.46 Y64.612 E.96822
G1 X157.68 Y65.224 E.04278
G1 X158.419 Y66.792 E.05435
G1 X160.822 Y102.341 E1.11714
G1 X160.827 Y107.499 E.16173
G1 X158.419 Y143.209 E1.12219
G1 X157.94 Y144.486 E.04278
G1 X156.46 Y145.389 E.05435
G1 X126.261 Y150.718 E.96151
G1 X125.199 Y150.818 E.03346
G1 X123.737 Y150.718 E.04594
G1 X93.538 Y145.389 E.96151
G1 X92.318 Y144.777 E.04278
G1 X91.579 Y143.209 E.05436
G1 X89.173 Y107.499 E1.12219
G1 X89.178 Y102.341 E.16173
G1 X91.579 Y66.792 E1.11714
G1 X92.037 Y65.571 E.0409
M204 S1000
; printing object Pico_Top.STL id:0 copy 0
;WIPE_START
G1 F8640
G1 X93.538 Y64.612 E-.41129
G1 X95.025 Y64.349 E-.34871
;WIPE_END
G1 E-.04 F2100
G1 Z.6 F720
G1 X155.303 Y106.738 F10800
G1 Z.2 F720
G1 E.8 F2100
M204 S800
;TYPE:Perimeter
;WIDTH:0.419999
G1 F1200
G1 X155.153 Y106.744 E.00471
G1 X155.016 Y106.814 E.00485
G1 X154.829 Y107.035 E.00904
G1 X154.775 Y107.278 E.00781
G1 X154.775 Y141.776 E1.08167
G1 X129.559 Y141.789 E.79061
G1 X129.297 Y141.911 E.00906
G1 X129.138 Y142.126 E.0084
G1 X129.094 Y142.377 E.008
G1 X129.176 Y142.906 E.01677
G1 X129.208 Y143.571 E.02088
G1 X129.12 Y144.31 E.02334
G1 X128.913 Y144.999 E.02255
G1 X128.595 Y145.641 E.02246
G1 X128.171 Y146.219 E.02247
G1 X127.808 Y146.568 E.01578
G1 X127.423 Y146.874 E.01543
G1 X126.965 Y147.166 E.01702
G1 X127.127 Y146.781 E.0131
G1 X127.23 Y146.439 E.01118
G1 X127.286 Y146.003 E.01378
G1 X127.258 Y145.598 E.01273
G1 X127.163 Y145.213 E.01243
G1 X127.003 Y144.851 E.01242
G1 X126.782 Y144.52 E.01248
G1 X126.51 Y144.233 E.01239
G1 X126.186 Y143.995 E.01261
G1 X125.825 Y143.819 E.01258
G1 X125.385 Y143.695 E.01432
G1 X124.858 Y143.674 E.01655
G1 X124.307 Y143.776 E.01756
G1 X123.9 Y143.945 E.01383
G1 X123.612 Y144.135 E.01081
G1 X123.277 Y144.447 E.01434
G1 X123.052 Y144.755 E.01197
G1 X122.901 Y145.052 E.01044
G1 X122.773 Y145.444 E.01296
G1 X122.714 Y145.904 E.01452
G1 X122.74 Y146.297 E.01237
G1 X122.836 Y146.688 E.01261
G1 X123.089 Y147.192 E.01769
G1 X122.94 Y147.123 E.00514
G1 X122.344 Y146.716 E.02263
G1 X121.827 Y146.219 E.02249
G1 X121.403 Y145.641 E.02248
G1 X121.085 Y144.999 E.02246
G1 X120.877 Y144.31 E.02257
G1 X120.791 Y143.587 E.02283
G1 X120.83 Y142.847 E.02322
G1 X120.9 Y142.276 E.01803
G1 X120.801 Y142.02 E.00862
G1 X120.604 Y141.846 E.00822
G1 X120.338 Y141.78 E.00859
G1 X95.223 Y141.776 E.78746
G1 X95.223 Y107.278 E1.08167
G1 X95.205 Y107.136 E.00449
G1 X95.068 Y106.888 E.00889
G1 X94.845 Y106.744 E.00832
G1 X94.658 Y106.712 E.00595
G1 X92.337 Y106.712 E.07276
G1 X92.337 Y103.288 E.10735
G1 X94.707 Y103.286 E.07431
G1 X94.982 Y103.186 E.00919
G1 X95.169 Y102.965 E.00904
G1 X95.223 Y102.722 E.00781
G1 X95.223 Y68.225 E1.08166
G1 X120.438 Y68.211 E.79058
G1 X120.699 Y68.09 E.00905
G1 X120.859 Y67.876 E.00837
G1 X120.903 Y67.623 E.00804
G1 X120.824 Y67.095 E.01675
G1 X120.79 Y66.416 E.02132
G1 X120.877 Y65.689 E.02296
G1 X121.084 Y65.002 E.0225
G1 X121.403 Y64.359 E.02247
G1 X121.801 Y63.816 E.02114
G1 X122.182 Y63.438 E.01681
G1 X122.575 Y63.126 E.01573
G1 X123.035 Y62.833 E.01711
G1 X122.871 Y63.219 E.01317
G1 X122.769 Y63.56 E.01114
G1 X122.714 Y64.004 E.01403
G1 X122.739 Y64.397 E.01236
G1 X122.835 Y64.787 E.01257
G1 X122.995 Y65.149 E.01241
G1 X123.215 Y65.48 E.01248
G1 X123.491 Y65.769 E.01254
G1 X123.812 Y66.005 E.01249
G1 X124.173 Y66.181 E.01259
G1 X124.555 Y66.292 E.01248
G1 X124.95 Y66.335 E.01244
G1 X125.346 Y66.31 E.01244
G1 X125.735 Y66.214 E.01257
G1 X126.098 Y66.055 E.01242
G1 X126.393 Y65.859 E.01111
G1 X126.719 Y65.558 E.0139
G1 X126.945 Y65.248 E.01202
G1 X127.097 Y64.949 E.01052
G1 X127.225 Y64.556 E.01297
G1 X127.286 Y64.103 E.01431
G1 X127.258 Y63.698 E.01273
G1 X127.162 Y63.312 E.01246
G1 X126.909 Y62.808 E.0177
G1 X127.058 Y62.878 E.00518
G1 X127.654 Y63.282 E.02258
G1 X128.171 Y63.781 E.02251
G1 X128.595 Y64.359 E.0225
G1 X128.914 Y65.002 E.02247
G1 X129.121 Y65.689 E.0225
M73 P0 R86
G1 X129.207 Y66.417 E.02299
G1 X129.17 Y67.142 E.02277
G1 X129.098 Y67.723 E.01837
G1 X129.187 Y67.966 E.00812
G1 X129.393 Y68.153 E.00873
G1 X129.659 Y68.22 E.00858
G1 X154.775 Y68.225 E.78749
G1 X154.775 Y102.722 E1.08166
G1 X154.793 Y102.864 E.00449
G1 X154.93 Y103.112 E.00889
G1 X155.153 Y103.256 E.00832
G1 X155.34 Y103.288 E.00595
G1 X157.663 Y103.288 E.07282
G1 X157.663 Y106.712 E.10735
G1 X155.951 Y106.712 E.05368
G1 X155.363 Y106.735 E.01844
M204 S1000
G1 X155.34 Y107.089 F10800
M204 S800
;TYPE:External perimeter
G1 F1200
G1 X155.204 Y107.148 E.00466
G1 X155.152 Y107.278 E.00439
G1 X155.152 Y142.153 E1.09349
G1 X129.659 Y142.157 E.79931
G1 X129.528 Y142.21 E.00443
G1 X129.471 Y142.356 E.00492
G1 X129.551 Y142.867 E.01621
G1 X129.586 Y143.584 E.02251
G1 X129.491 Y144.387 E.02536
G1 X129.265 Y145.138 E.02458
G1 X128.918 Y145.837 E.02448
G1 X128.456 Y146.468 E.02452
G1 X127.893 Y147.01 E.02451
G1 X127.285 Y147.424 E.02307
G1 X126.852 Y147.635 E.01509
;WIDTH:0.422494
G1 X126.376 Y147.836 E.01632
;WIDTH:0.436059
G1 X125.746 Y148.034 E.02158
G1 X125.022 Y148.127 E.02386
;WIDTH:0.430855
G1 X124.604 Y148.089 E.01354
;WIDTH:0.428205
G1 X123.98 Y147.952 E.02048
G1 X123.475 Y147.789 E.01699
;WIDTH:0.419999
G1 X122.753 Y147.451 E.025
G1 X122.105 Y147.01 E.02458
G1 X121.542 Y146.468 E.02451
G1 X121.08 Y145.837 E.02452
G1 X120.733 Y145.138 E.02448
G1 X120.507 Y144.387 E.02459
G1 X120.412 Y143.599 E.02488
G1 X120.449 Y142.912 E.02159
G1 X120.524 Y142.375 E.01698
G1 X120.485 Y142.227 E.00479
G1 X120.338 Y142.157 E.00512
G1 X94.846 Y142.153 E.79928
G1 X94.846 Y107.278 E1.09349
G1 X94.794 Y107.148 E.00439
G1 X94.658 Y107.089 E.00466
G1 X91.96 Y107.089 E.08458
G1 X91.96 Y102.911 E.131
G1 X94.658 Y102.911 E.08458
G1 X94.794 Y102.852 E.00466
G1 X94.846 Y102.722 E.00439
G1 X94.846 Y67.848 E1.09348
G1 X120.338 Y67.843 E.79928
G1 X120.469 Y67.79 E.00443
G1 X120.526 Y67.644 E.00492
G1 X120.448 Y67.133 E.01621
G1 X120.412 Y66.402 E.02293
G1 X120.507 Y65.611 E.02498
G1 X120.733 Y64.862 E.02452
G1 X121.08 Y64.163 E.02448
G1 X121.542 Y63.532 E.02453
G1 X122.105 Y62.988 E.02454
G1 X122.714 Y62.575 E.02307
G1 X123.146 Y62.365 E.01507
;WIDTH:0.422461
G1 X123.621 Y62.164 E.01628
G1 X124.364 Y61.944 E.02444
;WIDTH:0.419784
G1 X124.895 Y61.875 E.01679
;WIDTH:0.416856
G1 X125.396 Y61.911 E.01563
;WIDTH:0.428042
G1 X126.017 Y62.048 E.02037
G1 X126.523 Y62.211 E.017
;WIDTH:0.419999
G1 X127.245 Y62.549 E.02501
G1 X127.893 Y62.988 E.02453
G1 X128.456 Y63.532 E.02454
G1 X128.918 Y64.163 E.02453
G1 X129.265 Y64.862 E.02448
G1 X129.491 Y65.611 E.02452
G1 X129.586 Y66.404 E.02503
G1 X129.551 Y67.072 E.02096
G1 X129.473 Y67.623 E.01748
G1 X129.517 Y67.778 E.00505
G1 X129.659 Y67.843 E.00488
G1 X155.152 Y67.848 E.79931
G1 X155.152 Y102.722 E1.09348
G1 X155.204 Y102.852 E.00439
G1 X155.34 Y102.911 E.00466
G1 X158.04 Y102.911 E.08465
G1 X158.04 Y105 E.0655
G1 X158.04 Y107.089 E.0655
M73 Q1 S87
G1 X155.4 Y107.089 E.08277
M204 S1000
M73 P1 R86
G1 X155.214 Y107.01 F10800
;WIPE_START
G1 F8640
G1 X155.204 Y107.148 E-.04738
G1 X155.152 Y107.278 E-.0323
G1 X155.152 Y110.224 E-.68032
;WIPE_END
G1 E-.04 F2100
G1 Z.6 F720
G1 X123.779 Y62.61 F10800
G1 Z.2 F720
G1 E.8 F2100
M204 S800
;WIDTH:0.422461
G1 F1200
G1 X123.81 Y62.582 E.00131
;WIDTH:0.428205
G1 X124.101 Y62.414 E.01076
G1 X124.413 Y62.317 E.01049
;WIDTH:0.419784
G1 X124.944 Y62.246 E.01679
;WIDTH:0.416856
G1 X125.327 Y62.274 E.01192
;WIDTH:0.428465
G1 X125.884 Y62.41 E.01841
G1 X126.253 Y62.637 E.01387
;WIDTH:0.419999
G1 X126.463 Y62.838 E.00912
G1 X126.659 Y63.11 E.0105
G1 X126.798 Y63.411 E.01041
G1 X126.882 Y63.733 E.01041
G1 X126.91 Y64.068 E.01057
G1 X126.861 Y64.457 E.01229
G1 X126.635 Y65.033 E.01939
G1 X126.452 Y65.291 E.00992
G1 X126.177 Y65.55 E.01185
G1 X125.94 Y65.713 E.00901
G1 X125.637 Y65.85 E.01043
G1 X125.314 Y65.934 E.01046
G1 X124.982 Y65.959 E.01045
G1 X124.653 Y65.928 E.01036
G1 X124.331 Y65.839 E.01046
G1 X123.838 Y65.563 E.01772
G1 X123.525 Y65.265 E.01356
G1 X123.243 Y64.79 E.01733
G1 X123.115 Y64.365 E.01389
G1 X123.09 Y64.035 E.01038
G1 X123.133 Y63.659 E.01189
G1 X123.211 Y63.38 E.00906
G1 X123.358 Y63.079 E.0105
G1 X123.558 Y62.812 E.01047
;WIDTH:0.422461
G1 X123.735 Y62.65 E.00756
M204 S1000
;WIPE_START
G1 F8640
G1 X123.81 Y62.582 E-.0234
G1 X124.101 Y62.414 E-.07757
G1 X124.413 Y62.317 E-.07559
G1 X124.944 Y62.246 E-.1237
G1 X125.327 Y62.274 E-.08855
G1 X125.884 Y62.41 E-.13258
G1 X126.253 Y62.637 E-.09992
G1 X126.463 Y62.838 E-.06715
G1 X126.644 Y63.09 E-.07154
;WIPE_END
G1 E-.04 F2100
G1 Z.6 F720
G1 X123.108 Y145.788 F10800
G1 Z.2 F720
G1 E.8 F2100
M204 S800
;WIDTH:0.419999
G1 F1200
G1 X123.137 Y145.543 E.00774
G1 X123.337 Y145.01 E.01783
G1 X123.545 Y144.712 E.01141
G1 X123.829 Y144.444 E.01222
G1 X124.058 Y144.287 E.00871
G1 X124.376 Y144.147 E.0109
G1 X124.927 Y144.045 E.01756
G1 X125.348 Y144.072 E.01325
G1 X125.667 Y144.161 E.01038
G1 X125.969 Y144.304 E.01048
G1 X126.241 Y144.498 E.0105
G1 X126.473 Y144.736 E.01041
G1 X126.755 Y145.211 E.01731
G1 X126.883 Y145.633 E.01381
G1 X126.91 Y145.968 E.01057
G1 X126.866 Y146.34 E.01173
G1 X126.787 Y146.62 E.00911
G1 X126.641 Y146.92 E.01046
G1 X126.439 Y147.191 E.01059
;WIDTH:0.422494
G1 X126.188 Y147.418 E.0107
;WIDTH:0.428692
G1 X125.884 Y147.59 E.01118
G1 X125.326 Y147.726 E.01843
;WIDTH:0.413391
G1 X124.72 Y147.732 E.01868
;WIDTH:0.428645
G1 X124.114 Y147.59 E.01997
G1 X123.744 Y147.362 E.01392
;WIDTH:0.419999
G1 X123.534 Y147.163 E.00906
G1 X123.339 Y146.889 E.01055
G1 X123.2 Y146.589 E.01039
G1 X123.115 Y146.265 E.01047
G1 X123.09 Y145.935 E.01038
G1 X123.1 Y145.848 E.00277
M204 S1000
G1 X122.903 Y145.649 F10800
;WIPE_START
G1 F8640
G1 X123.137 Y145.543 E-.07089
G1 X123.337 Y145.01 E-.13133
G1 X123.545 Y144.712 E-.08405
G1 X123.829 Y144.444 E-.09002
G1 X124.058 Y144.287 E-.06417
G1 X124.376 Y144.147 E-.08028
G1 X124.927 Y144.045 E-.12928
G1 X125.348 Y144.072 E-.09755
G1 X125.4 Y144.087 E-.01243
;WIPE_END
G1 E-.04 F2100
G1 Z.6 F720
G1 X153.896 Y68.337 F10800
G1 Z.2 F720
G1 E.8 F2100
M204 S800
;TYPE:Solid infill
;WIDTH:0.421351
G1 F1200
G1 X154.492 Y68.933 E.02652
G1 X154.492 Y69.468 E.01684
G1 X153.53 Y68.507 E.04279
G1 X152.995 Y68.506 E.01685
G1 X154.492 Y70.004 E.06662
G1 X154.492 Y70.539 E.01684
G1 X152.459 Y68.506 E.09046
G1 X151.924 Y68.506 E.01685
G1 X154.492 Y71.074 E.11429
G1 X154.492 Y71.609 E.01684
G1 X151.388 Y68.506 E.13812
G1 X150.853 Y68.505 E.01685
G1 X154.492 Y72.144 E.16195
G1 X154.492 Y72.68 E.01684
G1 X150.317 Y68.505 E.18578
G1 X149.782 Y68.505 E.01685
G1 X154.492 Y73.215 E.20961
G1 X154.492 Y73.75 E.01684
G1 X149.246 Y68.504 E.23344
G1 X148.711 Y68.504 E.01685
G1 X154.492 Y74.285 E.25727
G1 X154.492 Y74.821 E.01684
G1 X148.176 Y68.504 E.2811
G1 X147.64 Y68.503 E.01685
G1 X154.492 Y75.356 E.30493
G1 X154.492 Y75.891 E.01684
G1 X147.105 Y68.503 E.32876
G1 X146.569 Y68.503 E.01685
G1 X154.492 Y76.426 E.35259
G1 X154.492 Y76.961 E.01684
M73 Q1 S86
G1 X146.034 Y68.503 E.37642
G1 X145.498 Y68.502 E.01685
G1 X154.492 Y77.497 E.40025
G1 X154.492 Y78.032 E.01684
G1 X144.963 Y68.502 E.42408
G1 X144.427 Y68.502 E.01685
G1 X154.492 Y78.567 E.44791
G1 X154.493 Y79.102 E.01684
G1 X143.892 Y68.501 E.47174
G1 X143.356 Y68.501 E.01685
G1 X154.493 Y79.637 E.49557
G1 X154.493 Y80.173 E.01684
G1 X142.821 Y68.501 E.5194
G1 X142.285 Y68.501 E.01685
G1 X154.493 Y80.708 E.54324
G1 X154.493 Y81.243 E.01684
G1 X141.75 Y68.5 E.56707
G1 X141.214 Y68.5 E.01685
G1 X154.493 Y81.778 E.5909
G1 X154.493 Y82.314 E.01684
G1 X140.679 Y68.5 E.61473
G1 X140.143 Y68.499 E.01685
G1 X154.493 Y82.849 E.63856
G1 X154.493 Y83.384 E.01684
G1 X139.608 Y68.499 E.66239
G1 X139.072 Y68.499 E.01685
G1 X154.493 Y83.919 E.68622
G1 X154.493 Y84.454 E.01684
G1 X138.537 Y68.498 E.71005
G1 X138.001 Y68.498 E.01685
G1 X154.493 Y84.99 E.73388
G1 X154.493 Y85.525 E.01684
G1 X137.466 Y68.498 E.75771
G1 X136.93 Y68.498 E.01685
G1 X154.493 Y86.06 E.78154
G1 X154.493 Y86.595 E.01684
G1 X136.395 Y68.497 E.80537
G1 X135.86 Y68.497 E.01685
G1 X154.493 Y87.13 E.8292
G1 X154.493 Y87.666 E.01684
G1 X135.324 Y68.497 E.85303
G1 X134.789 Y68.496 E.01685
G1 X154.493 Y88.201 E.87686
G1 X154.493 Y88.736 E.01684
G1 X134.253 Y68.496 E.90069
G1 X133.718 Y68.496 E.01685
G1 X154.493 Y89.271 E.92452
G1 X154.493 Y89.807 E.01684
G1 X133.182 Y68.496 E.94835
G1 X132.647 Y68.495 E.01685
G1 X154.493 Y90.342 E.97218
G1 X154.493 Y90.877 E.01684
G1 X132.111 Y68.495 E.99602
G1 X131.576 Y68.495 E.01685
G1 X154.493 Y91.412 E1.01985
G1 X154.493 Y91.947 E.01684
G1 X131.04 Y68.494 E1.04368
G1 X130.505 Y68.494 E.01685
M73 P1 R85
G1 X154.493 Y92.483 E1.06751
G1 X154.493 Y93.018 E.01684
G1 X129.8 Y68.324 E1.09889
M204 S1000
;WIPE_START
G1 F8640
G1 X132.127 Y70.651 E-.76
;WIPE_END
G1 E-.04 F2100
G1 Z.6 F720
G1 X128.872 Y65.256 F10800
G1 Z.2 F720
G1 E.8 F2100
M204 S800
G1 F1200
G1 X127.565 Y63.949 E.05816
G1 X127.527 Y64.445 E.01568
G1 X128.845 Y65.764 E.05866
G1 X128.917 Y66.371 E.01926
G1 X127.428 Y64.882 E.06629
G1 X127.266 Y65.255 E.0128
G1 X128.9 Y66.889 E.07273
G1 X128.848 Y67.372 E.01529
G1 X127.052 Y65.577 E.07992
G1 X126.956 Y65.718 E.00539
G1 X126.804 Y65.864 E.00662
G1 X154.493 Y93.553 E1.23219
G1 X154.493 Y94.088 E.01684
G1 X126.52 Y66.115 E1.24484
G1 X126.191 Y66.321 E.01221
G1 X154.493 Y94.624 E1.25946
G1 X154.494 Y95.159 E.01684
M73 P2 R85
M73 Q2 S86
G1 X125.812 Y66.477 E1.27636
G1 X125.387 Y66.588 E.0138
G1 X154.494 Y95.694 E1.29525
G1 X154.494 Y96.229 E.01684
G1 X124.688 Y66.424 E1.32636
M204 S1000
;WIPE_START
G1 F8640
G1 X127.016 Y68.751 E-.76
;WIPE_END
G1 E-.04 F2100
G1 Z.6 F720
G1 X122.619 Y63.819 F10800
G1 Z.2 F720
G1 E.8 F2100
M204 S800
G1 F1200
G1 X122.411 Y63.611 E.00926
G1 X122.138 Y63.874 E.01191
G1 X122.631 Y64.366 E.02193
M204 S1000
G1 X121.774 Y64.045 F10800
M204 S800
G1 F1200
G1 X122.552 Y64.823 E.03462
G1 X122.741 Y65.274 E.01539
G1 X123.042 Y65.719 E.0169
G1 X123.398 Y66.06 E.01553
G1 X123.717 Y66.279 E.01216
G1 X124.061 Y66.441 E.01196
G1 X124.214 Y66.484 E.005
G1 X154.494 Y96.764 E1.34747
G1 X154.494 Y97.3 E.01684
G1 X121.669 Y64.475 E1.46072
G1 X121.486 Y64.828 E.0125
G1 X154.494 Y97.835 E1.46884
G1 X154.494 Y98.37 E.01684
G1 X121.321 Y65.197 E1.47621
G1 X121.197 Y65.608 E.01351
M73 Q2 S85
G1 X154.494 Y98.905 E1.48173
G1 X154.494 Y99.44 E.01684
G1 X121.117 Y66.064 E1.48527
G1 X121.074 Y66.426 E.01146
G1 X121.081 Y66.563 E.00432
G1 X154.494 Y99.976 E1.4869
