; generated by PrusaSlicer 2.5.0+win64 on 2022-12-08 at 01:45:22 UTC


;
;
; 

; external perimeters extrusion width = 0.45mm
; perimeters extrusion width = 0.45mm
; infill extrusion width = 0.45mm
; solid infill extrusion width = 0.45mm
; top infill extrusion width = 0.40mm
; first layer extrusion width = 0.42mm

; external perimeters extrusion width = 0.45mm
; perimeters extrusion width = 0.45mm
; infill extrusion width = 0.45mm
; solid infill extrusion width = 0.45mm
; top infill extrusion width = 0.40mm
; first layer extrusion width = 0.42mm

; external perimeters extrusion width = 0.45mm
; perimeters extrusion width = 0.45mm
; infill extrusion width = 0.45mm
; solid infill extrusion width = 0.45mm
; top infill extrusion width = 0.40mm
; first layer extrusion width = 0.42mm

; external perimeters extrusion width = 0.45mm
; perimeters extrusion width = 0.45mm
; infill extrusion width = 0.45mm
; solid infill extrusion width = 0.45mm
; top infill extrusion width = 0.40mm
; first layer extrusion width = 0.42mm

M73 P0 R38
M73 Q0 S39
M201 X1000 Y1000 Z200 E5000 ; sets maximum accelerations, mm/sec^2
M203 X200 Y200 Z12 E120 ; sets maximum feedrates, mm / sec
M204 P1250 R1250 T1250 ; sets acceleration (P, T) and retract acceleration (R), mm/sec^2
M205 X8.00 Y8.00 Z0.40 E4.50 ; sets the jerk limits, mm/sec
M205 S0 T0 ; sets the minimum extruding and travel feed rate, mm/sec
M107
;TYPE:Custom
M862.3 P "MK3S" ; printer model check
M862.1 P0.4 ; nozzle diameter check
M115 U3.11.0 ; tell printer latest fw version
G90 ; use absolute coordinates
M83 ; extruder relative mode
M104 S215 ; set extruder temp
M140 S60 ; set bed temp
M190 S60 ; wait for bed temp
M109 S215 ; wait for extruder temp
G28 W ; home all without mesh bed level
G80 ; mesh bed leveling

G1 Z0.2 F720
G1 Y-3 F1000 ; go outside print area
G92 E0
G1 X60 E9 F1000 ; intro line
G1 X100 E12.5 F1000 ; intro line

G92 E0
M221 S95

; Don't change E values below. Excessive value can damage the printer.
M907 E430 ; set extruder motor current
G21 ; set units to millimeters
G90 ; use absolute coordinates
M83 ; use relative distances for extrusion
M900 K0.05 ; Filament gcode LA 1.5
M900 K30 ; Filament gcode LA 1.0
M107
;LAYER_CHANGE
;Z:0.2
;HEIGHT:0.2
;BEFORE_LAYER_CHANGE
G92 E0.0
;0.2


G1 E-.8 F2100
G1 Z.4 F720
;AFTER_LAYER_CHANGE
;0.2
G1 X83.112 Y62.479 F10800
G1 Z.2 F720
G1 E.8 F2100
M204 S800
;TYPE:Skirt/Brim
;WIDTH:0.42
G1 F1200
G1 X90.72 Y57.399 E.28683
G1 X92.04 Y56.999 E.04325
G1 X157.96 Y56.999 E2.06688
G1 X159.28 Y57.399 E.04325
G1 X166.886 Y62.479 E.2868
G1 X167.921 Y64.132 E.06113
G1 X168.523 Y68.506 E.13844
G1 X168.545 Y150.624 E2.57476
G1 X168.153 Y151.931 E.04278
M73 Q0 S38
G1 X167.108 Y152.807 E.04278
G1 X166.168 Y153.001 E.03008
G1 X83.832 Y153.001 E2.58159
G1 X82.525 Y152.609 E.04278
G1 X81.649 Y151.564 E.04278
G1 X81.455 Y150.624 E.03008
G1 X81.455 Y68.83 E2.56459
G1 X82.077 Y64.133 E.14856
M73 P1 R38
M73 Q1 S38
G1 X83.08 Y62.53 E.05929
M204 S1000
; printing object Tof sensor attachment_v2.STL id:0 copy 0
;WIPE_START
G1 F8640
G1 X85.813 Y60.695 E-.76
;WIPE_END
G1 E-.04 F2100
G1 Z.6 F720
G1 X94.851 Y69.126 F10800
G1 Z.2 F720
G1 E.8 F2100
M204 S800
;TYPE:Perimeter
;WIDTH:0.419999
G1 F1200
G1 X94.886 Y69.286 E.00514
G1 X94.983 Y69.433 E.0055
G1 X95.163 Y69.565 E.00699
G1 X95.401 Y69.617 E.00764
G1 X101.192 Y69.616 E.18158
;WIDTH:0.431302
G1 X101.818 Y69.622 E.02022
G1 X101.637 Y69.689 E.00624
;WIDTH:0.425578
G1 X101.111 Y70.031 E.01995
;WIDTH:0.419999
G1 X100.742 Y70.524 E.0193
G1 X100.562 Y71.116 E.01942
G1 X100.57 Y71.642 E.01648
G1 X100.742 Y72.136 E.0164
G1 X101.111 Y72.629 E.0193
G1 X101.54 Y72.912 E.01611
G1 X101.841 Y73.036 E.01021
G1 X102.343 Y73.098 E.01588
G1 X102.891 Y72.956 E.01772
G1 X103.118 Y72.83 E.00815
G1 X103.062 Y73.31 E.01515
G1 X103.045 Y73.829 E.0163
G1 X103.043 Y83.043 E.28888
G1 X97.117 Y83.043 E.1858
G1 X97.117 Y73.654 E.29437
G1 X97.095 Y72.451 E.03775
G1 X96.943 Y72.201 E.00916
G1 X96.77 Y72.087 E.00649
G1 X96.551 Y72.043 E.007
G1 X91.109 Y72.043 E.17066
G1 X91.011 Y72.051 E.00307
G1 X90.718 Y72.199 E.01029
G1 X90.609 Y72.343 E.00565
G1 X90.543 Y72.609 E.00857
G1 X90.543 Y83.043 E.32716
G1 X84.619 Y83.043 E.18574
G1 X84.617 Y74.607 E.2645
G1 X84.607 Y73.511 E.03436
G1 X84.542 Y72.816 E.02189
G1 X84.913 Y73.017 E.01323
G1 X85.38 Y73.079 E.01478
G1 X85.723 Y73.059 E.01076
G1 X86.124 Y72.922 E.01328
G1 X86.304 Y72.821 E.00648
G1 X86.755 Y72.399 E.01938
G1 X87.024 Y71.899 E.01779
G1 X87.117 Y71.363 E.01705
G1 X87.036 Y70.815 E.01739
G1 X86.755 Y70.261 E.01946
G1 X86.304 Y69.839 E.01938
G1 X86.124 Y69.738 E.00648
G1 X85.553 Y69.593 E.01845
G1 X86.144 Y69.616 E.01853
G1 X92.261 Y69.617 E.19181
G1 X92.499 Y69.565 E.00764
G1 X92.679 Y69.433 E.00699
G1 X92.776 Y69.286 E.0055
G1 X92.827 Y69.051 E.00753
G1 X92.827 Y64.235 E.15103
G1 X92.799 Y64.059 E.00558
G1 X92.665 Y63.838 E.00808
G1 X92.396 Y63.685 E.00973
G1 X92.261 Y63.669 E.00425
G1 X87.32 Y63.673 E.15492
G1 X86.941 Y63.703 E.01193
G1 X87.269 Y63.504 E.01203
G1 X92.278 Y60.163 E.18879
G1 X95.383 Y60.163 E.09736
G1 X100.329 Y63.462 E.18639
G1 X100.731 Y63.689 E.01449
G1 X100.377 Y63.673 E.01112
G1 X95.401 Y63.669 E.15601
G1 X95.266 Y63.685 E.00425
G1 X95.057 Y63.785 E.00727
G1 X94.927 Y63.925 E.00598
G1 X94.835 Y64.235 E.01013
G1 X94.838 Y69.067 E.15153
M204 S1000
G1 X95.212 Y69.051 F10800
M204 S800
;TYPE:External perimeter
G1 F1200
G1 X95.261 Y69.179 E.00427
G1 X95.401 Y69.24 E.00477
G1 X103.446 Y69.239 E.25225
G1 X103.504 Y69.877 E.02009
G1 X103.616 Y70.379 E.01614
G1 X103.616 Y70.631 E.00791
;WIDTH:0.464957
G1 X103.593 Y70.892 E.00917
;WIDTH:0.509914
G1 X103.571 Y71.152 E.01015
G1 X103.47 Y70.931 E.00944
;WIDTH:0.464957
G1 X103.368 Y70.71 E.00853
;WIDTH:0.419999
G1 X103.047 Y70.257 E.01742
G1 X102.63 Y70.003 E.01531
G1 X102.344 Y69.943 E.00916
G1 X101.891 Y69.997 E.01431
G1 X101.452 Y70.23 E.01555
G1 X101.129 Y70.598 E.01538
G1 X100.95 Y71.051 E.01526
G1 X100.939 Y71.544 E.01545
G1 X101.096 Y72.006 E.01531
G1 X101.401 Y72.387 E.01529
G1 X101.824 Y72.64 E.01546
G1 X102.308 Y72.719 E.0154
G1 X102.782 Y72.594 E.01535
G1 X103.047 Y72.403 E.01024
G1 X103.368 Y71.95 E.01742
;WIDTH:0.466726
G1 X103.469 Y71.749 E.00791
;WIDTH:0.513452
G1 X103.569 Y71.548 E.00878
G1 X103.574 Y71.591 E.00168
;WIDTH:0.503417
G1 X103.595 Y71.948 E.01371
;WIDTH:0.461708
G1 X103.616 Y72.306 E.01246
;WIDTH:0.419999
G1 X103.501 Y72.804 E.01602
G1 X103.439 Y73.322 E.01637
G1 X103.422 Y73.83 E.01592
G1 X103.42 Y83.42 E.3007
G1 X96.74 Y83.42 E.20945
G1 X96.74 Y72.609 E.33899
G1 X96.682 Y72.473 E.00463
G1 X96.551 Y72.42 E.00442
G1 X91.109 Y72.42 E.17066
G1 X90.978 Y72.472 E.0044
G1 X90.92 Y72.609 E.00465
G1 X90.92 Y83.42 E.33899
G1 X84.242 Y83.42 E.20939
G1 X84.24 Y73.823 E.30089
G1 X84.222 Y73.306 E.01624
G1 X84.157 Y72.783 E.0165
G1 X84.046 Y72.281 E.01614
;WIDTH:0.462112
G1 X84.067 Y71.935 E.01207
;WIDTH:0.504224
G1 X84.088 Y71.59 E.01328
G1 X84.19 Y71.77 E.00794
;WIDTH:0.462112
G1 X84.292 Y71.95 E.00721
;WIDTH:0.419999
G1 X84.613 Y72.403 E.01741
G1 X85.033 Y72.657 E.01539
G1 X85.526 Y72.712 E.01555
G1 X86.002 Y72.566 E.01562
G1 X86.387 Y72.26 E.01543
G1 X86.642 Y71.842 E.01534
G1 X86.738 Y71.363 E.01534
G1 X86.665 Y70.88 E.01531
G1 X86.429 Y70.45 E.01536
G1 X86.062 Y70.128 E.01532
G1 X85.601 Y69.957 E.01541
G1 X85.313 Y69.942 E.00902
G1 X84.877 Y70.066 E.01424
G1 X84.613 Y70.257 E.01021
G1 X84.292 Y70.71 E.01741
;WIDTH:0.465242
G1 X84.191 Y70.931 E.00852
;WIDTH:0.510484
G1 X84.091 Y71.152 E.00944
G1 X84.082 Y71.07 E.00321
;WIDTH:0.491859
G1 X84.064 Y70.712 E.01338
;WIDTH:0.455929
G1 X84.046 Y70.354 E.01231
;WIDTH:0.419999
G1 X84.161 Y69.856 E.01602
G1 X84.226 Y69.239 E.01948
G1 X92.261 Y69.24 E.25194
G1 X92.401 Y69.179 E.00477
G1 X92.45 Y69.051 E.00427
G1 X92.45 Y64.235 E.15103
G1 X92.396 Y64.102 E.00447
G1 X92.261 Y64.046 E.00458
G1 X87.267 Y64.051 E.1566
G1 X86.312 Y64.141 E.03005
G1 X85.835 Y64.246 E.01532
G1 X85.126 Y64.246 E.02225
G1 X85.735 Y63.841 E.02294
G1 X86.617 Y63.456 E.03017
G1 X87.06 Y63.19 E.0162
G1 X92.164 Y59.786 E.19237
G1 X95.498 Y59.786 E.10452
G1 X100.538 Y63.149 E.18997
G1 X101.418 Y63.641 E.03164
G1 X101.892 Y63.831 E.01599
G1 X102.531 Y64.246 E.02389
G1 X101.821 Y64.246 E.02224
G1 X100.887 Y64.076 E.02978
G1 X100.376 Y64.05 E.01603
G1 X95.401 Y64.046 E.15601
G1 X95.286 Y64.085 E.0038
G1 X95.212 Y64.235 E.00524
G1 X95.212 Y68.991 E.14915
M204 S1000
G1 X95.114 Y69.146 F10800
;WIPE_START
G1 F8640
G1 X95.261 Y69.179 E-.04467
G1 X95.401 Y69.24 E-.03515
G1 X98.346 Y69.239 E-.68018
;WIPE_END
G1 E-.04 F2100
G1 Z.6 F720
G1 X103.571 Y71.152 F10800
G1 Z.2 F720
G1 E.8 F2100
M204 S800
;WIDTH:0.513452
G1 F1200
G1 X103.569 Y71.548 E.01551
M204 S1000
;WIPE_START
G1 F8640
G1 X103.571 Y71.152 E-.09152
;WIPE_END
G1 E-.70848 F2100
G1 Z.6 F720
G1 X101.818 Y69.622 F10800
G1 Z.2 F720
G1 E.8 F2100
M204 S800
;TYPE:Perimeter
;WIDTH:0.431302
G1 F1200
G1 X102.11 Y69.608 E.00946
;WIDTH:0.403341
G1 X102.403 Y69.594 E.00878
;WIDTH:0.417175
G1 X102.527 Y69.614 E.00393
;WIDTH:0.45897
G1 X102.652 Y69.635 E.00437
;WIDTH:0.500765
G1 X102.776 Y69.656 E.00481
;WIDTH:0.54256
G1 X102.901 Y69.677 E.00525
;WIDTH:0.584354
G1 X103.026 Y69.698 E.00568
M204 S1000
;WIPE_START
G1 F8640
G1 X102.901 Y69.677 E-.02915
G1 X102.776 Y69.656 E-.02915
G1 X102.652 Y69.635 E-.02915
G1 X102.527 Y69.614 E-.02915
G1 X102.403 Y69.594 E-.02915
G1 X102.11 Y69.608 E-.06763
G1 X101.818 Y69.622 E-.06763
;WIPE_END
G1 E-.51896 F2100
G1 Z.6 F720
G1 X84.632 Y69.686 F10800
G1 Z.2 F720
G1 E.8 F2100
M204 S800
;WIDTH:0.560522
G1 F1200
G1 X84.761 Y69.665 E.0056
;WIDTH:0.518717
G1 X84.889 Y69.644 E.00514
;WIDTH:0.476912
G1 X85.017 Y69.623 E.00469
;WIDTH:0.435107
G1 X85.146 Y69.602 E.00424
;WIDTH:0.393302
G1 X85.553 Y69.593 E.01188
M204 S1000
;WIPE_START
G1 F8640
G1 X85.146 Y69.602 E-.09412
G1 X85.017 Y69.623 E-.03002
G1 X84.889 Y69.644 E-.03002
G1 X84.761 Y69.665 E-.03002
G1 X84.632 Y69.686 E-.03002
;WIPE_END
G1 E-.58578 F2100
G1 Z.6 F720
G1 X84.093 Y71.548 F10800
G1 Z.2 F720
G1 E.8 F2100
M204 S800
;TYPE:External perimeter
;WIDTH:0.514022
G1 F1200
G1 X84.091 Y71.152 E.01552
M204 S1000
;WIPE_START
G1 F8640
G1 X84.093 Y71.548 E-.09149
;WIPE_END
G1 E-.70851 F2100
G1 Z.6 F720
G1 X97.543 Y61.74 F10800
G1 Z.2 F720
G1 E.8 F2100
M204 S800
;TYPE:Solid infill
;WIDTH:0.421958
G1 F1200
G1 X99.192 Y63.389 E.07352
G1 X98.656 Y63.389 E.01691
G1 X96.545 Y61.278 E.09408
G1 X95.298 Y60.446 E.04725
G1 X95.177 Y60.446 E.00381
G1 X98.119 Y63.388 E.13115
G1 X97.583 Y63.388 E.01691
G1 X94.641 Y60.446 E.13113
G1 X94.105 Y60.446 E.01689
G1 X97.046 Y63.387 E.13111
G1 X96.51 Y63.387 E.01691
G1 X93.569 Y60.446 E.13109
G1 X93.033 Y60.446 E.01689
G1 X95.973 Y63.387 E.13107
G1 X95.437 Y63.386 E.01691
G1 X92.497 Y60.446 E.13105
G1 X92.364 Y60.446 E.00418
G1 X92.122 Y60.607 E.00917
G1 X95.012 Y63.498 E.12882
G1 X94.89 Y63.556 E.00427
G1 X94.716 Y63.737 E.00792
G1 X91.8 Y60.822 E.12996
G1 X91.479 Y61.036 E.01218
G1 X94.568 Y64.126 E.1377
G1 X94.552 Y64.227 E.00324
G1 X94.552 Y64.646 E.0132
G1 X91.157 Y61.251 E.15133
G1 X90.836 Y61.465 E.01218
G1 X94.553 Y65.182 E.16567
G1 X94.553 Y65.718 E.0169
G1 X93.11 Y64.275 E.06432
G1 X93.069 Y63.972 E.00965
G1 X92.973 Y63.771 E.00701
G1 X92.868 Y63.641 E.00526
G1 X92.772 Y63.556 E.00405
G1 X92.467 Y63.41 E.01066
G1 X92.221 Y63.386 E.0078
G1 X90.514 Y61.68 E.07607
G1 X90.192 Y61.894 E.01218
G1 X91.685 Y63.387 E.06653
G1 X91.149 Y63.387 E.01688
G1 X89.871 Y62.108 E.05699
G1 X89.549 Y62.323 E.01218
G1 X90.614 Y63.387 E.04745
G1 X90.078 Y63.388 E.01688
G1 X89.228 Y62.537 E.03791
G1 X88.906 Y62.752 E.01218
G1 X89.543 Y63.388 E.02837
G1 X89.007 Y63.389 E.01688
G1 X88.585 Y62.966 E.01883
G1 X88.263 Y63.181 E.01218
G1 X88.641 Y63.559 E.01685
M204 S1000
;WIPE_START
G1 F8640
G1 X88.263 Y63.181 E-.12343
G1 X88.585 Y62.966 E-.08925
G1 X89.007 Y63.389 E-.13795
G1 X89.543 Y63.388 E-.12367
G1 X88.906 Y62.752 E-.20784
G1 X89.187 Y62.565 E-.07786
;WIPE_END
G1 E-.04 F2100
G1 Z.6 F720
G1 X92.94 Y64.641 F10800
G1 Z.2 F720
G1 E.8 F2100
M204 S800
G1 F1200
G1 X94.553 Y66.255 E.07191
G1 X94.554 Y66.791 E.0169
G1 X93.109 Y65.347 E.06438
G1 X93.109 Y65.883 E.01688
G1 X94.554 Y67.328 E.06441
G1 X94.554 Y67.864 E.0169
G1 X93.109 Y66.418 E.06444
G1 X93.108 Y66.954 E.01688
G1 X94.724 Y68.57 E.07203
M204 S1000
;WIPE_START
M73 P2 R38
G1 F8640
G1 X93.108 Y66.954 E-.52772
G1 X93.109 Y66.418 E-.1237
G1 X93.441 Y66.751 E-.10858
;WIPE_END
M73 Q2 S38
G1 E-.04 F2100
G1 Z.6 F720
G1 X102.944 Y73.574 F10800
G1 Z.2 F720
G1 E.8 F2100
M204 S800
G1 F1200
G1 X102.684 Y73.313 E.01163
G1 X102.323 Y73.381 E.01157
G1 X102.201 Y73.366 E.00388
G1 X102.932 Y74.098 E.0326
M204 S1000
;WIPE_START
G1 F8640
G1 X102.201 Y73.366 E-.23884
G1 X102.323 Y73.381 E-.02841
G1 X102.684 Y73.313 E-.0848
G1 X102.944 Y73.574 E-.08517
;WIPE_END
G1 E-.36278 F2100
G1 Z.6 F720
G1 X100.744 Y70.301 F10800
G1 Z.2 F720
G1 E.8 F2100
M204 S800
G1 F1200
G1 X100.342 Y69.899 E.01793
G1 X99.806 Y69.899 E.01689
G1 X100.438 Y70.532 E.0282
G1 X100.328 Y70.831 E.01006
G1 X100.309 Y70.938 E.00343
G1 X99.27 Y69.899 E.04632
G1 X98.734 Y69.899 E.01689
G1 X100.456 Y71.621 E.07675
M204 S1000
;WIPE_START
G1 F8640
G1 X98.734 Y69.899 E-.56226
G1 X99.27 Y69.899 E-.12375
G1 X99.496 Y70.126 E-.07399
;WIPE_END
G1 E-.04 F2100
G1 Z.6 F720
G1 X98.028 Y69.73 F10800
G1 Z.2 F720
G1 E.8 F2100
M204 S800
G1 F1200
G1 X102.762 Y74.464 E.21101
G1 X102.762 Y75 E.01689
M73 P2 R37
G1 X97.662 Y69.899 E.22733
G1 X97.126 Y69.9 E.01689
G1 X102.762 Y75.536 E.25121
G1 X102.762 Y76.072 E.01689
G1 X96.59 Y69.9 E.2751
G1 X96.054 Y69.9 E.01689
G1 X102.762 Y76.608 E.29898
G1 X102.762 Y77.143 E.01689
G1 X95.518 Y69.9 E.32286
G1 X95.39 Y69.9 E.00403
G1 X95.044 Y69.823 E.01119
G1 X94.774 Y69.626 E.01053
G1 X94.627 Y69.404 E.0084
G1 X94.555 Y69.129 E.00893
G1 X94.555 Y68.937 E.00608
G1 X93.108 Y67.49 E.06449
G1 X93.108 Y68.025 E.01688
G1 X102.762 Y77.679 E.43029
G1 X102.761 Y78.215 E.01689
G1 X97.393 Y72.846 E.2393
G1 X97.393 Y73.383 E.01691
G1 X102.761 Y78.751 E.23928
G1 X102.761 Y79.287 E.01689
G1 X97.393 Y73.919 E.23925
G1 X97.394 Y74.456 E.01691
G1 X102.761 Y79.823 E.23923
G1 X102.761 Y80.359 E.01689
G1 X97.394 Y74.992 E.23921
G1 X97.395 Y75.529 E.01691
G1 X102.761 Y80.895 E.23918
G1 X102.761 Y81.431 E.01689
G1 X97.395 Y76.065 E.23916
G1 X97.395 Y76.601 E.01691
G1 X102.761 Y81.967 E.23914
G1 X102.76 Y82.503 E.01689
G1 X97.396 Y77.138 E.23911
G1 X97.396 Y77.674 E.01691
G1 X102.482 Y82.76 E.22669
G1 X101.946 Y82.76 E.01689
G1 X97.397 Y78.211 E.20278
G1 X97.397 Y78.747 E.01691
G1 X101.41 Y82.76 E.17887
G1 X100.874 Y82.76 E.01689
G1 X97.397 Y79.284 E.15496
G1 X97.398 Y79.82 E.01691
G1 X100.338 Y82.76 E.13105
G1 X99.802 Y82.76 E.01689
G1 X97.398 Y80.356 E.10714
G1 X97.398 Y80.893 E.01691
G1 X99.266 Y82.76 E.08323
G1 X98.73 Y82.76 E.01689
G1 X97.399 Y81.429 E.05932
G1 X97.399 Y81.966 E.01691
G1 X98.194 Y82.76 E.03541
G1 X97.658 Y82.76 E.01689
G1 X97.23 Y82.332 E.01907
M204 S1000
;WIPE_START
G1 F8640
G1 X97.658 Y82.76 E-.13969
G1 X98.194 Y82.76 E-.12377
G1 X97.399 Y81.966 E-.25941
G1 X97.399 Y81.429 E-.12386
G1 X97.746 Y81.776 E-.11327
;WIPE_END
G1 E-.04 F2100
G1 Z.6 F720
G1 X96.476 Y71.93 F10800
G1 Z.2 F720
G1 E.8 F2100
M204 S800
G1 F1200
G1 X93.107 Y68.561 E.15015
G1 X93.107 Y69.097 E.01688
G1 X95.77 Y71.76 E.11871
G1 X95.235 Y71.761 E.01688
G1 X92.972 Y69.498 E.10084
G1 X92.888 Y69.626 E.00482
G1 X92.701 Y69.763 E.0073
G1 X94.7 Y71.762 E.0891
G1 X94.165 Y71.763 E.01685
G1 X92.291 Y69.889 E.08355
G1 X91.756 Y69.89 E.01686
G1 X93.631 Y71.765 E.08357
G1 X93.096 Y71.766 E.01685
G1 X91.221 Y69.891 E.08359
G1 X90.685 Y69.892 E.01686
G1 X92.561 Y71.767 E.08361
G1 X92.027 Y71.769 E.01685
G1 X90.15 Y69.893 E.08363
G1 X89.615 Y69.893 E.01686
G1 X91.492 Y71.77 E.08365
G1 X90.959 Y71.773 E.0168
G1 X89.08 Y69.894 E.08374
G1 X88.545 Y69.895 E.01686
G1 X90.595 Y71.946 E.09138
G1 X90.522 Y71.993 E.00274
G1 X90.348 Y72.234 E.00938
G1 X88.01 Y69.896 E.10422
G1 X87.475 Y69.897 E.01686
G1 X90.26 Y72.682 E.12414
G1 X90.26 Y73.219 E.01689
G1 X86.94 Y69.898 E.14799
G1 X86.816 Y69.898 E.00391
G1 X86.996 Y70.112 E.00881
G1 X87.217 Y70.494 E.01391
G1 X87.324 Y70.818 E.01076
