; generated by PrusaSlicer 2.5.0+win64 on 2022-12-14 at 20:22:36 UTC


;
;
; 

; external perimeters extrusion width = 0.45mm
; perimeters extrusion width = 0.45mm
; infill extrusion width = 0.45mm
; solid infill extrusion width = 0.45mm
; top infill extrusion width = 0.40mm
; first layer extrusion width = 0.42mm

; external perimeters extrusion width = 0.45mm
; perimeters extrusion width = 0.45mm
; infill extrusion width = 0.45mm
; solid infill extrusion width = 0.45mm
; top infill extrusion width = 0.40mm
; first layer extrusion width = 0.42mm

; external perimeters extrusion width = 0.45mm
; perimeters extrusion width = 0.45mm
; infill extrusion width = 0.45mm
; solid infill extrusion width = 0.45mm
; top infill extrusion width = 0.40mm
; first layer extrusion width = 0.42mm

; external perimeters extrusion width = 0.45mm
; perimeters extrusion width = 0.45mm
; infill extrusion width = 0.45mm
; solid infill extrusion width = 0.45mm
; top infill extrusion width = 0.40mm
; first layer extrusion width = 0.42mm

; external perimeters extrusion width = 0.45mm
; perimeters extrusion width = 0.45mm
; infill extrusion width = 0.45mm
; solid infill extrusion width = 0.45mm
; top infill extrusion width = 0.40mm
; first layer extrusion width = 0.42mm

; external perimeters extrusion width = 0.45mm
; perimeters extrusion width = 0.45mm
; infill extrusion width = 0.45mm
; solid infill extrusion width = 0.45mm
; top infill extrusion width = 0.40mm
; first layer extrusion width = 0.42mm

; external perimeters extrusion width = 0.45mm
; perimeters extrusion width = 0.45mm
; infill extrusion width = 0.45mm
; solid infill extrusion width = 0.45mm
; top infill extrusion width = 0.40mm
; first layer extrusion width = 0.42mm

; external perimeters extrusion width = 0.45mm
; perimeters extrusion width = 0.45mm
; infill extrusion width = 0.45mm
; solid infill extrusion width = 0.45mm
; top infill extrusion width = 0.40mm
; first layer extrusion width = 0.42mm

; external perimeters extrusion width = 0.45mm
; perimeters extrusion width = 0.45mm
; infill extrusion width = 0.45mm
; solid infill extrusion width = 0.45mm
; top infill extrusion width = 0.40mm
; first layer extrusion width = 0.42mm

M73 P0 R83
M73 Q0 S83
M201 X1000 Y1000 Z200 E5000 ; sets maximum accelerations, mm/sec^2
M203 X200 Y200 Z12 E120 ; sets maximum feedrates, mm / sec
M204 P1250 R1250 T1250 ; sets acceleration (P, T) and retract acceleration (R), mm/sec^2
M205 X8.00 Y8.00 Z0.40 E4.50 ; sets the jerk limits, mm/sec
M205 S0 T0 ; sets the minimum extruding and travel feed rate, mm/sec
M107
;TYPE:Custom
M862.3 P "MK3S" ; printer model check
M862.1 P0.4 ; nozzle diameter check
M115 U3.11.0 ; tell printer latest fw version
G90 ; use absolute coordinates
M83 ; extruder relative mode
M104 S215 ; set extruder temp
M140 S60 ; set bed temp
M190 S60 ; wait for bed temp
M109 S215 ; wait for extruder temp
G28 W ; home all without mesh bed level
G80 ; mesh bed leveling

G1 Z0.2 F720
G1 Y-3 F1000 ; go outside print area
G92 E0
G1 X60 E9 F1000 ; intro line
G1 X100 E12.5 F1000 ; intro line

G92 E0
M221 S95

; Don't change E values below. Excessive value can damage the printer.
M907 E430 ; set extruder motor current
G21 ; set units to millimeters
G90 ; use absolute coordinates
M83 ; use relative distances for extrusion
M900 K0.05 ; Filament gcode LA 1.5
M900 K30 ; Filament gcode LA 1.0
M107
;LAYER_CHANGE
;Z:0.2
;HEIGHT:0.2
;BEFORE_LAYER_CHANGE
G92 E0.0
;0.2


G1 E-.8 F2100
G1 Z.4 F720
;AFTER_LAYER_CHANGE
;0.2
G1 X70.546 Y55.467 F10800
G1 Z.2 F720
G1 E.8 F2100
M204 S800
;TYPE:Skirt/Brim
;WIDTH:0.42
G1 F1200
G1 X71.11 Y54.75 E.02859
G1 X78.719 Y49.672 E.28683
G1 X80.038 Y49.272 E.04322
G1 X169.96 Y49.272 E2.81944
G1 X171.279 Y49.672 E.04322
G1 X178.886 Y54.75 E.28679
G1 X179.798 Y55.909 E.04622
G1 X181.402 Y60.285 E.14613
G1 X181.547 Y61.103 E.02605
G1 X181.547 Y158.351 E3.04914
G1 X181.155 Y159.658 E.04278
M73 P0 R82
G1 X180.11 Y160.534 E.04278
G1 X179.17 Y160.728 E.03008
G1 X70.83 Y160.728 E3.39692
G1 X69.523 Y160.337 E.04278
G1 X68.647 Y159.291 E.04278
G1 X68.453 Y158.351 E.03008
G1 X68.453 Y61.103 E3.04915
G1 X68.597 Y60.287 E.02599
G1 X70.197 Y55.911 E.14609
G1 X70.509 Y55.514 E.01582
M204 S1000
; printing object Tof sensor attachment_v3.STL id:6 copy 0
;WIPE_START
G1 F8640
G1 X71.11 Y54.75 E-.22442
G1 X73.039 Y53.462 E-.53558
;WIPE_END
G1 E-.04 F2100
G1 Z.6 F720
G1 X177.895 Y147.081 F10800
G1 Z.2 F720
G1 E.8 F2100
M204 S800
;TYPE:Perimeter
;WIDTH:0.352882
G1 F1200
G1 X178.416 Y147.092 E.01346
G1 X178.416 Y147.94 E.02186
G1 X178.261 Y147.529 E.01133
G1 X178.15 Y147.352 E.00538
G1 X177.936 Y147.125 E.00806
M204 S1000
;WIPE_START
G1 F8640
G1 X178.416 Y147.092 E-.11126
G1 X178.416 Y147.94 E-.1958
G1 X178.261 Y147.529 E-.10153
G1 X178.15 Y147.352 E-.04823
G1 X177.936 Y147.125 E-.07217
;WIPE_END
G1 E-.27101 F2100
G1 Z.6 F720
G1 X175.368 Y147.112 F10800
G1 Z.2 F720
G1 E.8 F2100
M204 S800
;WIDTH:0.419999
G1 F1200
G1 X175.062 Y147.479 E.01497
G1 X174.888 Y147.929 E.01514
G1 X174.85 Y148.13 E.0064
G1 X174.849 Y148.569 E.01377
G1 X174.906 Y148.825 E.00823
;WIDTH:0.454028
G1 X175.007 Y149.1 E.01
;WIDTH:0.488056
G1 X175.109 Y149.374 E.01083
;WIDTH:0.490216
G1 X175.274 Y149.572 E.00957
G1 X175.421 Y149.694 E.00713
;WIDTH:0.455108
G1 X175.569 Y149.815 E.00657
;WIDTH:0.419999
G1 X176.135 Y150.103 E.0199
G1 X176.67 Y150.189 E.01697
G1 X177.203 Y150.103 E.01694
G1 X177.769 Y149.816 E.01989
G1 X178.203 Y149.352 E.01992
G1 X178.383 Y148.957 E.0136
G1 X178.383 Y157.564 E.26986
G1 X174.955 Y157.564 E.10748
G1 X174.955 Y150.612 E.21796
;WIDTH:0.457643
G1 X174.947 Y149.953 E.02272
;WIDTH:0.484017
G1 X174.847 Y149.745 E.00849
G1 X174.603 Y149.597 E.01044
;WIDTH:0.435673
G1 X174.389 Y149.564 E.00706
;WIDTH:0.419999
G1 X162.485 Y149.564 E.37326
;WIDTH:0.43558
G1 X161.734 Y149.597 E.02455
;WIDTH:0.461483
G1 X161.64 Y149.64 E.00357
;WIDTH:0.487385
G1 X161.547 Y149.683 E.00379
;WIDTH:0.489448
G1 X161.427 Y149.828 E.007
G1 X161.404 Y149.979 E.00566
;WIDTH:0.454724
G1 X161.381 Y150.129 E.00522
;WIDTH:0.419999
G1 X161.381 Y157.564 E.2331
G1 X157.957 Y157.564 E.10735
G1 X157.957 Y148.966 E.26959
G1 X158.036 Y149.182 E.00723
G1 X158.419 Y149.69 E.01992
G1 X158.952 Y150.036 E.01994
G1 X159.571 Y150.18 E.01993
G1 X159.77 Y150.18 E.00622
G1 X160.386 Y150.036 E.01985
;WIDTH:0.457429
G1 X160.934 Y149.702 E.02211
;WIDTH:0.487385
G1 X161.229 Y149.374 E.01631
G1 X161.342 Y149.07 E.01197
;WIDTH:0.453692
G1 X161.454 Y148.766 E.01107
;WIDTH:0.419999
G1 X161.488 Y148.354 E.01298
G1 X161.45 Y147.928 E.01341
G1 X161.286 Y147.502 E.0143
G1 X160.97 Y147.112 E.01574
G1 X161.531 Y147.136 E.01761
G1 X166.599 Y147.138 E.1589
G1 X166.837 Y147.086 E.00764
G1 X167.017 Y146.954 E.00699
G1 X167.114 Y146.807 E.0055
G1 X167.165 Y146.572 E.00753
G1 X167.165 Y141.753 E.15109
G1 X167.137 Y141.578 E.00558
G1 X167.003 Y141.357 E.00808
G1 X166.734 Y141.204 E.00973
G1 X166.599 Y141.188 E.00425
G1 X161.658 Y141.192 E.15493
G1 X161.28 Y141.222 E.01189
G1 X161.607 Y141.023 E.01199
G1 X166.616 Y137.684 E.18877
G1 X169.722 Y137.684 E.09736
G1 X174.667 Y140.982 E.18637
G1 X175.068 Y141.208 E.01445
G1 X174.715 Y141.192 E.0111
G1 X169.739 Y141.188 E.15601
G1 X169.604 Y141.204 E.00425
G1 X169.395 Y141.304 E.00728
G1 X169.265 Y141.444 E.00598
G1 X169.173 Y141.753 E.01012
G1 X169.173 Y146.572 E.15109
G1 X169.224 Y146.807 E.00753
G1 X169.321 Y146.954 E.0055
G1 X169.501 Y147.086 E.00699
G1 X169.739 Y147.138 E.00764
G1 X174.833 Y147.136 E.15972
G1 X175.308 Y147.115 E.01492
M204 S1000
;WIPE_START
G1 F8640
G1 X175.062 Y147.479 E-.1014
G1 X174.888 Y147.929 E-.11152
G1 X174.85 Y148.13 E-.04716
G1 X174.849 Y148.569 E-.10141
G1 X174.906 Y148.825 E-.0606
G1 X175.007 Y149.1 E-.06753
G1 X175.109 Y149.374 E-.06753
G1 X175.274 Y149.572 E-.05944
G1 X175.421 Y149.694 E-.04425
G1 X175.569 Y149.815 E-.04425
G1 X175.781 Y149.923 E-.05491
;WIPE_END
G1 E-.04 F2100
G1 Z.6 F720
G1 X177.043 Y147.054 F10800
G1 Z.2 F720
G1 E.8 F2100
M204 S800
;TYPE:External perimeter
;WIDTH:0.428634
G1 F1200
G1 X177.141 Y147.062 E.00314
G1 X177.601 Y147.271 E.0162
;WIDTH:0.419999
G1 X177.94 Y147.65 E.01595
;WIDTH:0.465829
G1 X178.019 Y147.81 E.00626
;WIDTH:0.511658
G1 X178.098 Y147.97 E.00694
;WIDTH:0.557487
G1 X178.177 Y148.129 E.00762
;WIDTH:0.560779
G1 X178.176 Y148.616 E.02097
G1 X178.089 Y148.781 E.008
;WIDTH:0.513853
G1 X178.002 Y148.945 E.00728
;WIDTH:0.466926
G1 X177.915 Y149.109 E.00655
;WIDTH:0.419999
G1 X177.581 Y149.489 E.01585
G1 X177.137 Y149.731 E.01586
G1 X176.637 Y149.809 E.01586
G1 X176.14 Y149.709 E.01589
G1 X175.707 Y149.447 E.01587
G1 X175.39 Y149.053 E.01586
G1 X175.226 Y148.57 E.01598
G1 X175.24 Y148.064 E.01588
G1 X175.438 Y147.588 E.01616
;WIDTH:0.424457
G1 X175.785 Y147.232 E.01578
;WIDTH:0.439209
G1 X176.034 Y147.103 E.00925
G1 X176.629 Y147.02 E.01978
;WIDTH:0.428634
G1 X176.983 Y147.049 E.01142
M204 S1000
;WIPE_START
G1 F8640
G1 X177.141 Y147.062 E-.0365
G1 X177.601 Y147.271 E-.11666
G1 X177.94 Y147.65 E-.11745
G1 X178.019 Y147.81 E-.04113
G1 X178.098 Y147.97 E-.04113
G1 X178.177 Y148.129 E-.04113
G1 X178.176 Y148.616 E-.11246
G1 X178.089 Y148.781 E-.04292
G1 X178.002 Y148.945 E-.04292
G1 X177.915 Y149.109 E-.04292
G1 X177.581 Y149.489 E-.11676
G1 X177.55 Y149.505 E-.00804
;WIPE_END
G1 E-.04 F2100
G1 Z.6 F720
G1 X158.444 Y147.081 F10800
G1 Z.2 F720
G1 E.8 F2100
M204 S800
;TYPE:Perimeter
;WIDTH:0.352287
G1 F1200
G1 X158.19 Y147.35 E.00951
G1 X158.078 Y147.527 E.0054
G1 X157.923 Y147.931 E.01114
G1 X157.923 Y147.092 E.02159
G1 X158.384 Y147.082 E.01186
M204 S1000
;WIPE_START
G1 F8640
G1 X158.19 Y147.35 E-.07629
G1 X158.078 Y147.527 E-.04848
G1 X157.923 Y147.931 E-.09999
G1 X157.923 Y147.092 E-.19379
G1 X158.384 Y147.082 E-.10647
;WIPE_END
G1 E-.27498 F2100
G1 Z.6 F720
G1 X159.61 Y147.019 F10800
G1 Z.2 F720
G1 E.8 F2100
M204 S800
;TYPE:External perimeter
;WIDTH:0.439837
G1 F1200
G1 X159.627 Y147.017 E.00057
;WIDTH:0.426831
G1 X160.141 Y147.063 E.01646
G1 X160.601 Y147.271 E.01613
;WIDTH:0.419999
G1 X160.938 Y147.645 E.01579
G1 X161.11 Y148.13 E.01612
G1 X161.1 Y148.636 E.0159
G1 X160.915 Y149.109 E.01592
G1 X160.581 Y149.489 E.01585
G1 X160.137 Y149.731 E.01586
G1 X159.637 Y149.809 E.01586
G1 X159.14 Y149.709 E.01589
G1 X158.707 Y149.447 E.01587
G1 X158.39 Y149.053 E.01586
;WIDTH:0.464876
G1 X158.313 Y148.892 E.00625
;WIDTH:0.509753
G1 X158.236 Y148.731 E.00692
;WIDTH:0.554629
G1 X158.159 Y148.571 E.00758
;WIDTH:0.555219
G1 X158.16 Y148.131 E.01874
G1 X158.239 Y147.97 E.00762
;WIDTH:0.510146
G1 X158.319 Y147.81 E.00695
;WIDTH:0.465073
G1 X158.399 Y147.65 E.00628
;WIDTH:0.419999
G1 X158.737 Y147.271 E.01592
;WIDTH:0.439837
G1 X159.034 Y147.103 E.01127
G1 X159.551 Y147.028 E.01722
M204 S1000
G1 X159.616 Y147.003 F10800
;WIPE_START
G1 F8640
G1 X159.627 Y147.017 E-.01784
G1 X160.141 Y147.063 E-.11906
G1 X160.601 Y147.271 E-.11665
G1 X160.938 Y147.645 E-.11627
G1 X161.11 Y148.13 E-.11869
G1 X161.1 Y148.636 E-.11706
G1 X160.915 Y149.109 E-.11723
G1 X160.808 Y149.23 E-.03719
;WIPE_END
G1 E-.04 F2100
G1 Z.6 F720
G1 X169.55 Y141.753 F10800
G1 Z.2 F720
G1 E.8 F2100
M204 S800
;WIDTH:0.419999
G1 F1200
G1 X169.55 Y146.572 E.15109
G1 X169.599 Y146.699 E.00427
G1 X169.739 Y146.761 E.00477
G1 X175.054 Y146.749 E.16665
;WIDTH:0.439209
G1 X175.987 Y146.71 E.03078
G1 X176.614 Y146.647 E.02075
;WIDTH:0.420866
G1 X177.71 Y146.733 E.03457
;WIDTH:0.419999
G1 X178.76 Y146.756 E.03292
G1 X178.76 Y147.244 E.01529
G1 X178.76 Y147.501 E.00805
;WIDTH:0.465829
G1 X178.737 Y147.71 E.00741
;WIDTH:0.511658
G1 X178.714 Y147.919 E.00821
;WIDTH:0.557487
G1 X178.691 Y148.129 E.00901
;WIDTH:0.560779
G1 X178.69 Y148.661 E.02293
G1 X178.713 Y148.839 E.00771
;WIDTH:0.513853
G1 X178.737 Y149.016 E.00701
;WIDTH:0.466926
G1 X178.76 Y149.194 E.00631
;WIDTH:0.419999
G1 X178.76 Y157.941 E.27426
G1 X174.578 Y157.941 E.13112
G1 X174.578 Y150.171 E.24363
G1 X174.534 Y150.008 E.00528
G1 X174.389 Y149.941 E.00499
G1 X162.012 Y149.941 E.3881
G1 X161.821 Y149.989 E.00617
G1 X161.758 Y150.129 E.00483
G1 X161.758 Y157.941 E.24492
G1 X157.58 Y157.941 E.131
G1 X157.58 Y149.196 E.27419
;WIDTH:0.466168
G1 X157.603 Y149.017 E.00635
;WIDTH:0.512337
G1 X157.626 Y148.838 E.00704
;WIDTH:0.558506
G1 X157.649 Y148.66 E.00773
G1 X157.648 Y148.13 E.02271
;WIDTH:0.555219
G1 X157.625 Y147.919 E.00902
;WIDTH:0.510146
G1 X157.603 Y147.709 E.00823
;WIDTH:0.465073
G1 X157.58 Y147.498 E.00743
;WIDTH:0.419999
G1 X157.58 Y146.756 E.02327
G1 X158.067 Y146.746 E.01527
;WIDTH:0.439837
G1 X158.983 Y146.709 E.03027
G1 X159.707 Y146.646 E.02399
;WIDTH:0.426831
G1 X160.849 Y146.729 E.03654
;WIDTH:0.419999
G1 X161.531 Y146.759 E.02142
G1 X166.599 Y146.761 E.1589
G1 X166.739 Y146.699 E.00477
G1 X166.788 Y146.572 E.00427
G1 X166.788 Y141.753 E.15109
G1 X166.734 Y141.621 E.00447
G1 X166.599 Y141.565 E.00458
G1 X161.605 Y141.57 E.1566
G1 X160.65 Y141.66 E.03006
G1 X160.173 Y141.765 E.01531
G1 X159.464 Y141.765 E.02225
G1 X160.073 Y141.36 E.02293
G1 X160.955 Y140.976 E.03017
G1 X161.398 Y140.71 E.0162
G1 X166.502 Y137.307 E.19235
G1 X169.836 Y137.307 E.10452
G1 X174.876 Y140.668 E.18995
G1 X175.757 Y141.161 E.03163
G1 X176.23 Y141.35 E.01599
G1 X176.868 Y141.765 E.02388
G1 X176.159 Y141.765 E.02224
G1 X175.225 Y141.595 E.02978
G1 X174.714 Y141.569 E.01603
G1 X169.739 Y141.565 E.15601
G1 X169.624 Y141.604 E.0038
G1 X169.577 Y141.7 E.00336
M204 S1000
G1 X169.164 Y141.857 F10800
;WIPE_START
G1 F8640
G1 X169.559 Y144.991 E-.76
;WIPE_END
G1 E-.04 F2100
G1 Z.6 F720
G1 X177.736 Y149.965 F10800
G1 Z.2 F720
G1 E.8 F2100
M204 S800
;TYPE:Solid infill
;WIDTH:0.423637
G1 F1200
G1 X178.1 Y150.328 E.01628
G1 X178.1 Y150.867 E.01704
G1 X177.519 Y150.286 E.02602
G1 X177.26 Y150.38 E.00872
G1 X177.1 Y150.405 E.00513
G1 X178.1 Y151.405 E.04477
G1 X178.1 Y151.944 E.01704
G1 X176.622 Y150.465 E.06619
G1 X176.079 Y150.38 E.0174
G1 X175.952 Y150.334 E.00427
G1 X178.1 Y152.482 E.09617
G1 X178.1 Y153.02 E.01704
G1 X175.239 Y150.159 E.12811
G1 X175.239 Y150.697 E.01704
G1 X178.1 Y153.559 E.12811
G1 X178.1 Y154.097 E.01704
G1 X175.239 Y151.236 E.12811
G1 X175.239 Y151.774 E.01704
G1 X178.1 Y154.636 E.12811
G1 X178.1 Y155.174 E.01704
G1 X175.238 Y152.312 E.12812
G1 X175.238 Y152.851 E.01704
G1 X178.1 Y155.713 E.12812
G1 X178.1 Y156.251 E.01704
G1 X175.238 Y153.389 E.12812
G1 X175.238 Y153.927 E.01704
G1 X178.1 Y156.789 E.12812
G1 X178.1 Y157.281 E.01556
G1 X178.053 Y157.281 E.00148
G1 X175.238 Y154.466 E.12603
G1 X175.238 Y155.004 E.01704
G1 X177.515 Y157.281 E.10193
G1 X176.977 Y157.281 E.01704
G1 X175.238 Y155.543 E.07783
G1 X175.238 Y156.081 E.01704
G1 X176.438 Y157.281 E.05373
G1 X175.9 Y157.281 E.01704
G1 X175.238 Y156.619 E.02963
G1 X175.238 Y157.158 E.01704
G1 X175.531 Y157.451 E.01312
M204 S1000
;WIPE_START
G1 F8640
G1 X175.238 Y157.158 E-.09571
G1 X175.238 Y156.619 E-.12431
G1 X175.9 Y157.281 E-.2161
G1 X176.438 Y157.281 E-.12432
G1 X175.827 Y156.67 E-.19957
;WIPE_END
G1 E-.04 F2100
G1 Z.6 F720
G1 X174.876 Y147.643 F10800
G1 Z.2 F720
M73 P1 R82
M73 Q1 S83
G1 E.8 F2100
M204 S800
G1 F1200
G1 X174.648 Y147.414 E.01024
G1 X174.11 Y147.415 E.01702
G1 X174.607 Y147.912 E.02224
G1 X174.568 Y148.12 E.00672
G1 X174.567 Y148.41 E.00918
G1 X173.572 Y147.416 E.04453
G1 X173.034 Y147.416 E.01702
G1 X174.688 Y149.07 E.07404
G1 X174.785 Y149.356 E.00955
G1 X174.7 Y149.323 E.00286
G1 X174.361 Y149.281 E.01083
G1 X172.497 Y147.417 E.08345
G1 X171.959 Y147.418 E.01702
G1 X173.822 Y149.281 E.08341
G1 X173.284 Y149.281 E.01704
G1 X171.421 Y147.419 E.08338
G1 X170.884 Y147.419 E.01702
G1 X172.745 Y149.281 E.08335
G1 X172.207 Y149.281 E.01704
G1 X170.177 Y147.251 E.0909
M204 S1000
;WIPE_START
G1 F8640
G1 X172.207 Y149.281 E-.66305
G1 X172.627 Y149.281 E-.09695
;WIPE_END
G1 E-.04 F2100
G1 Z.6 F720
G1 X171.871 Y139.253 F10800
G1 Z.2 F720
G1 E.8 F2100
M204 S800
G1 F1200
G1 X173.526 Y140.908 E.07409
G1 X172.987 Y140.908 E.01706
G1 X170.867 Y138.788 E.09492
G1 X169.636 Y137.967 E.04683
G1 X169.507 Y137.967 E.00407
G1 X172.448 Y140.907 E.13164
G1 X171.909 Y140.907 E.01706
G1 X168.969 Y137.967 E.13162
G1 X168.431 Y137.967 E.01704
G1 X171.37 Y140.906 E.1316
G1 X170.831 Y140.906 E.01706
