; generated by PrusaSlicer 2.5.2+win64 on 2023-05-11 at 19:14:13 UTC


;
;
; 

; external perimeters extrusion width = 0.45mm
; perimeters extrusion width = 0.45mm
; infill extrusion width = 0.45mm
; solid infill extrusion width = 0.45mm
; top infill extrusion width = 0.40mm
; first layer extrusion width = 0.42mm

M73 P0 R88
M73 Q0 S88
M201 X1000 Y1000 Z200 E5000 ; sets maximum accelerations, mm/sec^2
M203 X200 Y200 Z12 E120 ; sets maximum feedrates, mm / sec
M204 P1250 R1250 T1250 ; sets acceleration (P, T) and retract acceleration (R), mm/sec^2
M205 X8.00 Y8.00 Z0.40 E4.50 ; sets the jerk limits, mm/sec
M205 S0 T0 ; sets the minimum extruding and travel feed rate, mm/sec
M107
;TYPE:Custom
M862.3 P "MK3S" ; printer model check
M862.1 P0.4 ; nozzle diameter check
M115 U3.11.0 ; tell printer latest fw version
G90 ; use absolute coordinates
M83 ; extruder relative mode
M104 S215 ; set extruder temp
M140 S60 ; set bed temp
M190 S60 ; wait for bed temp
M109 S215 ; wait for extruder temp
G28 W ; home all without mesh bed level
G80 ; mesh bed leveling

G1 Z0.2 F720
G1 Y-3 F1000 ; go outside print area
G92 E0
G1 X60 E9 F1000 ; intro line
G1 X100 E12.5 F1000 ; intro line

G92 E0
M221 S95

; Don't change E values below. Excessive value can damage the printer.
M907 E430 ; set extruder motor current
G21 ; set units to millimeters
G90 ; use absolute coordinates
M83 ; use relative distances for extrusion
M900 K0.05 ; Filament gcode LA 1.5
M900 K30 ; Filament gcode LA 1.0
M107
;LAYER_CHANGE
;Z:0.2
;HEIGHT:0.2
;BEFORE_LAYER_CHANGE
G92 E0.0
;0.2


M73 P0 R87
G1 E-.8 F2100
G1 Z.4 F720
;AFTER_LAYER_CHANGE
;0.2
G1 X92.165 Y65.843 F10800
G1 Z.2 F720
G1 E.8 F2100
M204 S800
;TYPE:Skirt/Brim
;WIDTH:0.42
G1 F1200
G1 X93.735 Y64.81 E.05893
G1 X123.735 Y59.483 E.95536
G1 X124.798 Y59.382 E.03346
G1 X126.05 Y59.454 E.03931
G1 X156.265 Y64.81 E.96215
G1 X157.484 Y65.424 E.04278
G1 X158.227 Y67.151 E.05893
G1 X158.227 Y142.85 E2.37349
G1 X157.835 Y144.157 E.04278
G1 X156.265 Y145.19 E.05893
G1 X126.265 Y150.517 E.95536
G1 X125.2 Y150.618 E.03354
G1 X123.735 Y150.517 E.04602
G1 X93.735 Y145.19 E.95536
G1 X92.516 Y144.576 E.04278
G1 X91.773 Y142.85 E.05893
G1 X91.773 Y67.151 E2.37349
G1 X92.148 Y65.901 E.0409
M204 S1000
; printing object Uno_Top.STL id:0 copy 0
;WIPE_START
G1 F8640
G1 X93.735 Y64.81 E-.44469
G1 X95.079 Y64.571 E-.31531
;WIPE_END
G1 E-.04 F2100
G1 Z.6 F720
G1 X129.109 Y142.106 F10800
G1 Z.2 F720
G1 E.8 F2100
M204 S800
;TYPE:Perimeter
;WIDTH:0.419999
G1 F1200
G1 X129.096 Y142.177 E.00226
G1 X129.176 Y142.706 E.01677
G1 X129.208 Y143.369 E.0208
G1 X129.121 Y144.11 E.02341
G1 X128.914 Y144.799 E.02254
G1 X128.596 Y145.441 E.02246
G1 X128.197 Y145.985 E.02117
G1 X127.818 Y146.362 E.01677
G1 X127.425 Y146.675 E.01574
G1 X126.964 Y146.967 E.01711
G1 X127.128 Y146.581 E.01317
G1 X127.23 Y146.239 E.01117
G1 X127.285 Y145.799 E.01392
G1 X127.26 Y145.403 E.01243
G1 X127.164 Y145.014 E.01258
G1 X127.005 Y144.651 E.01242
G1 X126.782 Y144.317 E.01257
G1 X126.508 Y144.031 E.01244
G1 X126.187 Y143.795 E.01249
G1 X125.826 Y143.619 E.01258
G1 X125.299 Y143.488 E.01702
G1 X124.7 Y143.488 E.01877
G1 X124.264 Y143.586 E.01403
G1 X123.901 Y143.745 E.01242
G1 X123.613 Y143.935 E.01081
G1 X123.281 Y144.242 E.01418
G1 X123.05 Y144.556 E.01222
G1 X122.903 Y144.849 E.01026
G1 X122.774 Y145.244 E.01305
G1 X122.715 Y145.704 E.01452
G1 X122.741 Y146.097 E.01237
G1 X122.837 Y146.488 E.0126
G1 X123.091 Y146.993 E.01773
G1 X122.941 Y146.922 E.0052
G1 X122.343 Y146.518 E.02263
G1 X121.828 Y146.02 E.02245
G1 X121.404 Y145.441 E.02252
G1 X121.086 Y144.799 E.02246
G1 X120.879 Y144.11 E.02254
G1 X120.792 Y143.37 E.02336
G1 X120.831 Y142.647 E.0227
G1 X120.901 Y142.076 E.01804
G1 X120.815 Y141.839 E.0079
G1 X120.608 Y141.647 E.00885
G1 X120.339 Y141.58 E.00867
G1 X95.425 Y141.576 E.78118
G1 X95.425 Y68.425 E2.2936
G1 X120.439 Y68.411 E.78432
G1 X120.701 Y68.289 E.00904
G1 X120.858 Y68.079 E.00825
G1 X120.904 Y67.823 E.00815
G1 X120.824 Y67.294 E.01677
G1 X120.792 Y66.631 E.0208
G1 X120.879 Y65.89 E.02341
G1 X121.086 Y65.201 E.02254
G1 X121.404 Y64.56 E.02245
G1 X121.803 Y64.017 E.02113
G1 X122.183 Y63.639 E.01682
G1 X122.575 Y63.326 E.01572
G1 X123.037 Y63.033 E.01716
G1 X122.871 Y63.421 E.01326
G1 X122.769 Y63.761 E.01112
G1 X122.715 Y64.204 E.01398
G1 X122.74 Y64.597 E.01236
G1 X122.836 Y64.987 E.01257
G1 X122.996 Y65.349 E.01241
G1 X123.216 Y65.68 E.01248
G1 X123.492 Y65.969 E.01254
G1 X123.813 Y66.204 E.01247
G1 X124.17 Y66.382 E.01251
G1 X124.558 Y66.493 E.01265
G1 X124.951 Y66.535 E.0124
G1 X125.346 Y66.51 E.0124
G1 X125.732 Y66.417 E.01245
G1 X126.103 Y66.253 E.01273
G1 X126.387 Y66.064 E.0107
G1 X126.72 Y65.758 E.01417
G1 X126.946 Y65.448 E.01203
G1 X127.098 Y65.148 E.01053
G1 X127.226 Y64.757 E.01292
G1 X127.285 Y64.299 E.01448
G1 X127.26 Y63.903 E.01243
G1 X127.163 Y63.513 E.01261
G1 X126.912 Y63.009 E.01765
G1 X127.059 Y63.078 E.00509
G1 X127.656 Y63.484 E.02264
G1 X128.172 Y63.983 E.02249
G1 X128.596 Y64.56 E.02247
G1 X128.914 Y65.201 E.02245
G1 X129.121 Y65.89 E.02254
G1 X129.208 Y66.63 E.02336
G1 X129.169 Y67.354 E.02274
G1 X129.099 Y67.92 E.01787
G1 X129.19 Y68.168 E.00829
G1 X129.394 Y68.354 E.00865
G1 X129.661 Y68.42 E.00861
G1 X154.575 Y68.425 E.78118
G1 X154.575 Y141.576 E2.2936
G1 X129.661 Y141.58 E.78118
G1 X129.554 Y141.59 E.00335
G1 X129.296 Y141.713 E.00898
G1 X129.14 Y141.926 E.00826
G1 X129.119 Y142.047 E.00386
M204 S1000
G1 X129.473 Y142.156 F10800
M204 S800
;TYPE:External perimeter
G1 F1200
G1 X129.551 Y142.668 E.01623
G1 X129.587 Y143.381 E.0224
G1 X129.492 Y144.187 E.02544
G1 X129.266 Y144.938 E.02458
G1 X128.919 Y145.637 E.02448
G1 X128.457 Y146.269 E.02454
G1 X127.896 Y146.812 E.02449
G1 X127.285 Y147.225 E.02314
G1 X126.854 Y147.436 E.01503
;WIDTH:0.422502
G1 X126.378 Y147.638 E.01632
;WIDTH:0.436029
G1 X125.748 Y147.834 E.02157
G1 X125.023 Y147.928 E.02387
;WIDTH:0.43133
G1 X124.602 Y147.889 E.01366
;WIDTH:0.428481
G1 X123.982 Y147.753 E.02036
G1 X123.476 Y147.591 E.01703
;WIDTH:0.419999
G1 X122.754 Y147.251 E.02503
G1 X122.104 Y146.812 E.02459
G1 X121.543 Y146.269 E.02448
G1 X121.081 Y145.637 E.02454
G1 X120.734 Y144.938 E.02448
G1 X120.508 Y144.187 E.02458
G1 X120.413 Y143.382 E.02542
G1 X120.45 Y142.711 E.02108
G1 X120.525 Y142.175 E.01696
G1 X120.484 Y142.024 E.00492
G1 X120.339 Y141.957 E.00499
G1 X95.048 Y141.953 E.793
G1 X95.048 Y68.048 E2.31724
G1 X120.339 Y68.043 E.793
M73 Q0 S87
G1 X120.47 Y67.99 E.00443
G1 X120.527 Y67.844 E.00492
G1 X120.449 Y67.332 E.01623
G1 X120.413 Y66.619 E.0224
G1 X120.508 Y65.813 E.02544
G1 X120.734 Y65.062 E.02458
G1 X121.08 Y64.363 E.02447
G1 X121.543 Y63.734 E.02449
G1 X122.105 Y63.19 E.02451
G1 X122.714 Y62.776 E.02311
G1 X123.149 Y62.564 E.01517
;WIDTH:0.42249
G1 X123.623 Y62.364 E.01624
G1 X124.365 Y62.144 E.02443
;WIDTH:0.419816
G1 X124.898 Y62.075 E.01684
;WIDTH:0.417137
G1 X125.397 Y62.111 E.01556
;WIDTH:0.428043
G1 X126.018 Y62.248 E.02039
G1 X126.524 Y62.411 E.017
;WIDTH:0.419999
G1 X127.246 Y62.749 E.02501
G1 X127.895 Y63.19 E.02461
G1 X128.457 Y63.734 E.02451
G1 X128.92 Y64.363 E.02449
G1 X129.266 Y65.062 E.02447
G1 X129.492 Y65.813 E.02458
G1 X129.587 Y66.618 E.02542
G1 X129.55 Y67.29 E.02111
G1 X129.475 Y67.825 E.01692
G1 X129.519 Y67.979 E.00503
G1 X129.661 Y68.043 E.00488
G1 X154.952 Y68.048 E.793
G1 X154.952 Y93.339 E.793
G1 X154.952 Y141.953 E1.52424
G1 X129.661 Y141.957 E.793
G1 X129.529 Y142.011 E.00448
G1 X129.494 Y142.1 E.00299
M204 S1000
G1 X129.1 Y142.302 F10800
;WIPE_START
G1 F8640
G1 X129.551 Y142.668 E-.13172
G1 X129.587 Y143.381 E-.16499
G1 X129.492 Y144.187 E-.18733
G1 X129.266 Y144.938 E-.181
G1 X129.084 Y145.306 E-.09495
;WIPE_END
G1 E-.04 F2100
G1 Z.6 F720
G1 X126.347 Y65.591 F10800
G1 Z.2 F720
G1 E.8 F2100
M204 S800
G1 F1200
G1 X126.171 Y65.755 E.00755
G1 X125.669 Y66.041 E.0181
G1 X125.314 Y66.134 E.0115
G1 X124.983 Y66.159 E.01042
G1 X124.654 Y66.128 E.01038
G1 X124.331 Y66.041 E.01049
G1 X123.84 Y65.763 E.01769
M73 Q1 S87
G1 X123.526 Y65.465 E.01357
G1 X123.244 Y64.989 E.01734
G1 X123.116 Y64.565 E.01387
G1 X123.091 Y64.235 E.01038
G1 X123.133 Y63.86 E.01183
G1 X123.212 Y63.581 E.00909
G1 X123.359 Y63.277 E.01058
G1 X123.56 Y63.009 E.01053
;WIDTH:0.42249
G1 X123.811 Y62.782 E.01069
;WIDTH:0.428245
G1 X124.102 Y62.614 E.01074
G1 X124.414 Y62.518 E.01048
;WIDTH:0.419816
G1 X124.947 Y62.446 E.01684
;WIDTH:0.417137
G1 X125.327 Y62.474 E.01187
;WIDTH:0.428465
G1 X125.885 Y62.61 E.01842
G1 X126.255 Y62.838 E.01392
;WIDTH:0.419999
G1 X126.464 Y63.036 E.00901
G1 X126.66 Y63.309 E.01055
M73 P1 R87
G1 X126.799 Y63.612 E.01045
G1 X126.884 Y63.935 E.01047
G1 X126.909 Y64.267 E.01045
G1 X126.862 Y64.658 E.01236
G1 X126.663 Y65.189 E.01778
G1 X126.453 Y65.491 E.01151
G1 X126.39 Y65.55 E.00269
M204 S1000
G1 X126.413 Y65.822 F10800
;WIPE_START
G1 F8640
G1 X126.171 Y65.755 E-.06944
G1 X125.669 Y66.041 E-.13331
G1 X125.314 Y66.134 E-.0847
G1 X124.983 Y66.159 E-.07673
G1 X124.654 Y66.128 E-.07641
G1 X124.331 Y66.041 E-.07722
G1 X123.84 Y65.763 E-.13029
G1 X123.526 Y65.465 E-.09995
G1 X123.499 Y65.421 E-.01197
;WIPE_END
G1 E-.04 F2100
G1 Z.6 F720
G1 X126.217 Y147.193 F10800
G1 Z.2 F720
G1 E.8 F2100
M204 S800
;WIDTH:0.422502
G1 F1200
G1 X126.189 Y147.218 E.00118
;WIDTH:0.428903
G1 X125.886 Y147.39 E.01121
G1 X125.328 Y147.526 E.01842
;WIDTH:0.413576
G1 X124.718 Y147.532 E.01878
;WIDTH:0.428887
G1 X124.114 Y147.39 E.01991
;WIDTH:0.432715
G1 X124.065 Y147.372 E.00172
G1 X123.747 Y147.163 E.01232
;WIDTH:0.419999
G1 X123.536 Y146.962 E.00915
G1 X123.34 Y146.69 E.0105
G1 X123.201 Y146.389 E.01041
G1 X123.116 Y146.065 E.01047
G1 X123.091 Y145.735 E.01038
G1 X123.138 Y145.343 E.0124
G1 X123.337 Y144.809 E.01786
G1 X123.547 Y144.509 E.01149
G1 X123.83 Y144.244 E.01213
G1 X124.059 Y144.087 E.00871
G1 X124.362 Y143.95 E.01043
G1 X124.7 Y143.865 E.01094
G1 X125.299 Y143.865 E.01877
G1 X125.668 Y143.961 E.01194
G1 X126.16 Y144.237 E.0177
G1 X126.474 Y144.534 E.01353
G1 X126.754 Y145.007 E.01725
G1 X126.884 Y145.435 E.01401
G1 X126.909 Y145.767 E.01045
G1 X126.867 Y146.14 E.01178
G1 X126.788 Y146.42 E.0091
G1 X126.641 Y146.721 E.0105
G1 X126.441 Y146.988 E.01047
;WIDTH:0.422502
G1 X126.261 Y147.152 E.00769
M204 S1000
;WIPE_START
G1 F8640
G1 X126.189 Y147.218 E-.02247
G1 X125.886 Y147.39 E-.08062
G1 X125.328 Y147.526 E-.13255
G1 X124.718 Y147.532 E-.14072
G1 X124.114 Y147.39 E-.14326
G1 X124.065 Y147.372 E-.01222
G1 X123.747 Y147.163 E-.08774
G1 X123.536 Y146.962 E-.06742
G1 X123.351 Y146.705 E-.073
;WIPE_END
G1 E-.04 F2100
G1 Z.6 F720
G1 X128.939 Y65.677 F10800
G1 Z.2 F720
G1 E.8 F2100
M204 S800
;TYPE:Solid infill
;WIDTH:0.420591
G1 F1200
G1 X127.568 Y64.305 E.0609
G1 X127.541 Y64.628 E.01017
G1 X127.505 Y64.777 E.0048
G1 X128.866 Y66.137 E.06043
G1 X128.925 Y66.639 E.01586
G1 X128.92 Y66.725 E.00273
G1 X127.382 Y65.188 E.06827
G1 X127.258 Y65.474 E.00979
G1 X127.208 Y65.548 E.0028
G1 X129.049 Y67.388 E.08175
M204 S1000
;WIPE_START
G1 F8640
G1 X127.208 Y65.548 E-.60106
G1 X127.258 Y65.474 E-.02058
G1 X127.382 Y65.188 E-.072
G1 X127.586 Y65.391 E-.06635
;WIPE_END
G1 E-.04 F2100
G1 Z.6 F720
G1 X122.606 Y64.15 F10800
G1 Z.2 F720
G1 E.8 F2100
M204 S800
G1 F1200
G1 X122.338 Y63.882 E.0119
G1 X122.067 Y64.145 E.01186
G1 X122.65 Y64.728 E.02591
M204 S1000
;WIPE_START
G1 F8640
G1 X122.067 Y64.145 E-.19051
G1 X122.338 Y63.882 E-.08722
G1 X122.606 Y64.15 E-.0875
;WIPE_END
G1 E-.43478 F2100
G1 Z.6 F720
G1 X154.462 Y69.301 F10800
G1 Z.2 F720
G1 E.8 F2100
M204 S800
G1 F1200
G1 X153.868 Y68.707 E.02638
G1 X153.334 Y68.707 E.01678
G1 X154.293 Y69.666 E.04257
G1 X154.293 Y70.2 E.01677
G1 X152.8 Y68.707 E.06629
G1 X152.266 Y68.707 E.01678
G1 X154.293 Y70.734 E.09001
G1 X154.293 Y71.268 E.01677
G1 X151.732 Y68.707 E.11374
G1 X151.197 Y68.707 E.01678
G1 X154.293 Y71.802 E.13746
G1 X154.293 Y72.336 E.01677
G1 X150.663 Y68.707 E.16119
G1 X150.129 Y68.707 E.01678
G1 X154.293 Y72.87 E.18491
G1 X154.293 Y73.404 E.01677
G1 X149.595 Y68.707 E.20864
G1 X149.061 Y68.706 E.01678
G1 X154.293 Y73.938 E.23236
G1 X154.293 Y74.473 E.01677
G1 X148.526 Y68.706 E.25609
G1 X147.992 Y68.706 E.01678
G1 X154.293 Y75.007 E.27981
G1 X154.293 Y75.541 E.01677
G1 X147.458 Y68.706 E.30353
G1 X146.924 Y68.706 E.01678
G1 X154.293 Y76.075 E.32726
G1 X154.293 Y76.609 E.01677
G1 X146.39 Y68.706 E.35098
G1 X145.855 Y68.706 E.01678
M73 P1 R86
G1 X154.293 Y77.143 E.37471
G1 X154.293 Y77.677 E.01677
G1 X145.321 Y68.706 E.39843
G1 X144.787 Y68.706 E.01678
G1 X154.293 Y78.211 E.42216
G1 X154.293 Y78.745 E.01677
G1 X144.253 Y68.706 E.44588
G1 X143.719 Y68.706 E.01678
G1 X154.293 Y79.28 E.4696
G1 X154.293 Y79.814 E.01677
G1 X143.184 Y68.705 E.49333
G1 X142.65 Y68.705 E.01678
G1 X154.293 Y80.348 E.51705
G1 X154.293 Y80.882 E.01677
G1 X142.116 Y68.705 E.54078
G1 X141.582 Y68.705 E.01678
G1 X154.293 Y81.416 E.5645
G1 X154.293 Y81.95 E.01677
G1 X141.048 Y68.705 E.58823
G1 X140.513 Y68.705 E.01678
G1 X154.293 Y82.484 E.61195
G1 X154.293 Y83.018 E.01677
G1 X139.979 Y68.705 E.63568
G1 X139.445 Y68.705 E.01678
G1 X154.293 Y83.552 E.6594
G1 X154.293 Y84.086 E.01677
G1 X138.911 Y68.705 E.68312
G1 X138.377 Y68.705 E.01678
G1 X154.293 Y84.621 E.70685
G1 X154.293 Y85.155 E.01677
G1 X137.842 Y68.705 E.73057
G1 X137.308 Y68.704 E.01678
G1 X154.293 Y85.689 E.7543
G1 X154.293 Y86.223 E.01677
G1 X136.774 Y68.704 E.77802
G1 X136.24 Y68.704 E.01678
G1 X154.293 Y86.757 E.80175
G1 X154.293 Y87.291 E.01677
G1 X135.706 Y68.704 E.82547
G1 X135.171 Y68.704 E.01678
G1 X154.293 Y87.825 E.84919
G1 X154.293 Y88.359 E.01677
G1 X134.637 Y68.704 E.87292
G1 X134.103 Y68.704 E.01678
G1 X154.293 Y88.893 E.89664
G1 X154.293 Y89.428 E.01677
G1 X133.569 Y68.704 E.92037
G1 X133.035 Y68.704 E.01678
G1 X154.293 Y89.962 E.94409
G1 X154.293 Y90.496 E.01677
G1 X132.5 Y68.704 E.96782
G1 X131.966 Y68.704 E.01678
G1 X154.293 Y91.03 E.99154
G1 X154.293 Y91.564 E.01677
G1 X131.432 Y68.703 E1.01527
G1 X130.898 Y68.703 E.01678
G1 X154.293 Y92.098 E1.03899
G1 X154.293 Y92.632 E.01677
G1 X130.194 Y68.534 E1.07025
M204 S1000
;WIPE_START
G1 F8640
G1 X132.521 Y70.861 E-.76
;WIPE_END
G1 E-.04 F2100
G1 Z.6 F720
G1 X126.87 Y65.744 F10800
G1 Z.2 F720
G1 E.8 F2100
M204 S800
G1 F1200
G1 X128.829 Y67.703 E.08701
G1 X128.813 Y67.809 E.00338
G1 X128.833 Y68.043 E.00737
G1 X128.912 Y68.255 E.00711
G1 X129.07 Y68.465 E.00825
G1 X129.261 Y68.604 E.00742
G1 X129.503 Y68.689 E.00804
G1 X129.829 Y68.703 E.01027
G1 X154.293 Y93.166 E1.08644
G1 X154.293 Y93.7 E.01677
G1 X126.729 Y66.137 E1.22413
G1 X126.601 Y66.26 E.00559
M73 Q1 S86
G1 X126.433 Y66.375 E.00638
G1 X154.293 Y94.235 E1.23726
G1 X154.293 Y94.769 E.01677
G1 X126.093 Y66.569 E1.25237
G1 X125.943 Y66.641 E.00522
M73 P2 R86
M73 Q2 S86
G1 X125.699 Y66.71 E.00796
G1 X154.293 Y95.303 E1.26986
G1 X154.293 Y95.837 E.01677
G1 X125.255 Y66.799 E1.28961
G1 X124.999 Y66.82 E.00805
G1 X124.718 Y66.797 E.00885
G1 X154.293 Y96.371 E1.31343
G1 X154.293 Y96.905 E.01677
G1 X124.003 Y66.615 E1.34522
G1 X123.715 Y66.477 E.01002
G1 X123.4 Y66.26 E.01201
G1 X123.047 Y65.923 E.01533
G1 X122.742 Y65.474 E.01703
G1 X122.65 Y65.262 E.00725
G1 X121.836 Y64.449 E.03613
G1 X121.618 Y64.765 E.01206
G1 X154.293 Y97.439 E1.45112
G1 X154.293 Y97.973 E.01677
G1 X121.441 Y65.122 E1.45899
G1 X121.35 Y65.306 E.00645
G1 X121.29 Y65.505 E.00653
G1 X154.293 Y98.507 E1.4657
G1 X154.293 Y99.042 E.01677
G1 X121.166 Y65.915 E1.47118
M73 P2 R85
G1 X121.105 Y66.388 E.01497
G1 X154.293 Y99.576 E1.47391
G1 X154.293 Y100.11 E.01677
G1 X121.088 Y66.905 E1.47464
G1 X121.106 Y67.265 E.01132
G1 X121.14 Y67.491 E.00716
G1 X154.293 Y100.644 E1.47236
G1 X154.293 Y101.178 E.01677
G1 X121.165 Y68.05 E1.47125
G1 X121.088 Y68.255 E.00688
G1 X120.979 Y68.399 E.00566
G1 X154.293 Y101.712 E1.47947
G1 X154.293 Y102.246 E.01677
G1 X120.675 Y68.629 E1.49298
G1 X120.47 Y68.694 E.00676
G1 X120.206 Y68.694 E.00829
G1 X154.293 Y102.78 E1.51382
G1 X154.293 Y103.314 E.01677
G1 X119.672 Y68.694 E1.53752
G1 X119.139 Y68.695 E.01676
G1 X154.293 Y103.848 E1.56123
G1 X154.293 Y104.383 E.01677
G1 X118.605 Y68.695 E1.58494
G1 X118.071 Y68.695 E.01676
G1 X154.293 Y104.917 E1.60865
G1 X154.293 Y105.451 E.01677
