; generated by PrusaSlicer 2.5.2+win64 on 2023-05-16 at 19:59:36 UTC


;
;
; 

; external perimeters extrusion width = 0.45mm
; perimeters extrusion width = 0.45mm
; infill extrusion width = 0.45mm
; solid infill extrusion width = 0.45mm
; top infill extrusion width = 0.40mm
; first layer extrusion width = 0.42mm

M73 P0 R89
M73 Q0 S90
M201 X1000 Y1000 Z200 E5000 ; sets maximum accelerations, mm/sec^2
M203 X200 Y200 Z12 E120 ; sets maximum feedrates, mm / sec
M204 P1250 R1250 T1250 ; sets acceleration (P, T) and retract acceleration (R), mm/sec^2
M205 X8.00 Y8.00 Z0.40 E4.50 ; sets the jerk limits, mm/sec
M205 S0 T0 ; sets the minimum extruding and travel feed rate, mm/sec
M107
;TYPE:Custom
M862.3 P "MK3S" ; printer model check
M862.1 P0.4 ; nozzle diameter check
M115 U3.11.0 ; tell printer latest fw version
G90 ; use absolute coordinates
M83 ; extruder relative mode
M104 S215 ; set extruder temp
M140 S60 ; set bed temp
M190 S60 ; wait for bed temp
M109 S215 ; wait for extruder temp
G28 W ; home all without mesh bed level
G80 ; mesh bed leveling

G1 Z0.2 F720
G1 Y-3 F1000 ; go outside print area
G92 E0
G1 X60 E9 F1000 ; intro line
G1 X100 E12.5 F1000 ; intro line

G92 E0
M221 S95

; Don't change E values below. Excessive value can damage the printer.
M907 E430 ; set extruder motor current
G21 ; set units to millimeters
G90 ; use absolute coordinates
M83 ; use relative distances for extrusion
M900 K0.05 ; Filament gcode LA 1.5
M900 K30 ; Filament gcode LA 1.0
M107
;LAYER_CHANGE
;Z:0.2
;HEIGHT:0.2
;BEFORE_LAYER_CHANGE
G92 E0.0
;0.2


G1 E-.8 F2100
G1 Z.4 F720
;AFTER_LAYER_CHANGE
;0.2
G1 X92.06 Y65.516 F10800
G1 Z.2 F720
G1 E.8 F2100
M204 S800
;TYPE:Skirt/Brim
;WIDTH:0.42
G1 F1200
G1 X93.539 Y64.613 E.05435
G1 X123.738 Y59.283 E.96149
G1 X124.792 Y59.182 E.03321
G1 X125.797 Y59.233 E.03156
G1 X156.462 Y64.613 E.97613
G1 X157.681 Y65.226 E.04278
G1 X158.42 Y66.794 E.05435
G1 X160.826 Y102.502 E1.12215
G1 X160.821 Y107.662 E.16179
G1 X158.42 Y143.209 E1.11707
G1 X157.941 Y144.486 E.04278
G1 X156.461 Y145.389 E.05436
G1 X126.262 Y150.719 E.96151
G1 X125.2 Y150.819 E.03346
G1 X123.738 Y150.719 E.04594
G1 X93.539 Y145.389 E.96149
G1 X92.32 Y144.777 E.04278
G1 X91.581 Y143.209 E.05435
G1 X89.174 Y107.502 E1.1221
G1 X89.179 Y102.342 E.1618
G1 X91.581 Y66.794 E1.11713
G1 X92.039 Y65.572 E.0409
M204 S1000
; printing object Uno_Top.STL id:0 copy 0
;WIPE_START
G1 F8640
G1 X93.539 Y64.613 E-.41127
G1 X95.027 Y64.35 E-.34873
;WIPE_END
G1 E-.04 F2100
G1 Z.6 F720
G1 X129.107 Y142.308 F10800
G1 Z.2 F720
G1 E.8 F2100
M204 S800
;TYPE:Perimeter
;WIDTH:0.419999
G1 F1200
G1 X129.095 Y142.378 E.00224
G1 X129.177 Y142.906 E.01675
G1 X129.209 Y143.571 E.02086
G1 X129.121 Y144.313 E.02343
G1 X128.915 Y144.999 E.02248
G1 X128.596 Y145.642 E.02247
G1 X128.172 Y146.22 E.0225
G1 X127.812 Y146.568 E.01569
G1 X127.43 Y146.872 E.0153
G1 X126.966 Y147.167 E.01726
G1 X127.129 Y146.785 E.01302
G1 X127.23 Y146.443 E.01117
G1 X127.288 Y145.917 E.01661
G1 X127.197 Y145.377 E.01717
G1 X127.109 Y145.078 E.00975
G1 X126.809 Y144.56 E.01879
G1 X126.508 Y144.232 E.01396
G1 X126.187 Y143.996 E.01249
G1 X125.826 Y143.82 E.01258
G1 X125.299 Y143.689 E.01702
G1 X124.7 Y143.689 E.01877
G1 X124.222 Y143.8 E.0154
G1 X123.774 Y144.026 E.01573
G1 X123.317 Y144.41 E.0187
G1 X123.052 Y144.756 E.01368
G1 X122.902 Y145.052 E.0104
G1 X122.775 Y145.442 E.01287
G1 X122.715 Y145.902 E.01453
G1 X122.74 Y146.298 E.01244
G1 X122.837 Y146.689 E.01262
G1 X123.09 Y147.193 E.01769
G1 X122.941 Y147.123 E.00517
G1 X122.345 Y146.719 E.02258
G1 X121.828 Y146.22 E.02251
G1 X121.403 Y145.641 E.02252
G1 X121.084 Y144.999 E.02247
G1 X120.879 Y144.314 E.02244
G1 X120.792 Y143.572 E.02342
G1 X120.829 Y142.859 E.0224
G1 X120.9 Y142.277 E.01837
G1 X120.815 Y142.04 E.00791
G1 X120.607 Y141.848 E.00888
G1 X120.339 Y141.781 E.00865
G1 X95.225 Y141.776 E.78744
G1 X95.225 Y107.281 E1.08157
G1 X95.207 Y107.139 E.00449
G1 X95.069 Y106.891 E.00889
G1 X94.846 Y106.747 E.00832
G1 X94.659 Y106.715 E.00595
G1 X92.338 Y106.715 E.07278
G1 X92.338 Y103.289 E.10741
G1 X94.051 Y103.289 E.05371
G1 X94.846 Y103.257 E.02496
G1 X94.984 Y103.187 E.00485
G1 X95.17 Y102.966 E.00904
G1 X95.225 Y102.723 E.00781
G1 X95.225 Y68.226 E1.08165
G1 X120.376 Y68.22 E.78858
G1 X120.647 Y68.13 E.00895
G1 X120.84 Y67.918 E.00901
G1 X120.905 Y67.655 E.00847
G1 X120.823 Y67.096 E.01772
G1 X120.791 Y66.433 E.02081
G1 X120.879 Y65.69 E.02345
G1 X121.084 Y65.004 E.02245
G1 X121.403 Y64.361 E.02251
G1 X121.802 Y63.819 E.02111
G1 X122.185 Y63.439 E.0169
G1 X122.576 Y63.128 E.01567
G1 X123.04 Y62.832 E.01725
G1 X122.871 Y63.222 E.01333
G1 X122.77 Y63.561 E.01109
G1 X122.715 Y64.002 E.01393
G1 X122.74 Y64.398 E.01243
G1 X122.836 Y64.787 E.01258
G1 X122.995 Y65.15 E.01242
G1 X123.318 Y65.593 E.01717
G1 X123.749 Y65.955 E.01766
G1 X124.174 Y66.182 E.01511
G1 X124.552 Y66.293 E.01236
G1 X124.947 Y66.338 E.01245
G1 X125.352 Y66.31 E.01273
G1 X125.736 Y66.215 E.01241
G1 X126.099 Y66.056 E.01242
G1 X126.394 Y65.86 E.01109
G1 X126.719 Y65.559 E.01391
G1 X126.954 Y65.238 E.01247
G1 X127.177 Y64.737 E.01718
G1 X127.281 Y64.147 E.01878
G1 X127.28 Y63.951 E.00615
G1 X127.13 Y63.219 E.02345
G1 X126.912 Y62.81 E.01453
G1 X127.059 Y62.878 E.00509
G1 X127.655 Y63.285 E.02261
G1 X128.172 Y63.784 E.02255
G1 X128.596 Y64.361 E.02243
G1 X128.914 Y65.004 E.02251
G1 X129.121 Y65.691 E.02249
G1 X129.208 Y66.432 E.02338
G1 X129.176 Y67.052 E.01948
G1 X129.095 Y67.624 E.01811
G1 X129.138 Y67.876 E.008
G1 X129.298 Y68.091 E.00842
G1 X129.394 Y68.155 E.00361
G1 X129.66 Y68.221 E.00858
G1 X154.775 Y68.226 E.78748
G1 X154.775 Y102.723 E1.08165
G1 X154.793 Y102.865 E.00449
G1 X154.931 Y103.113 E.00889
G1 X155.154 Y103.257 E.00832
G1 X155.341 Y103.289 E.00595
G1 X157.662 Y103.289 E.07278
G1 X157.662 Y106.715 E.10741
G1 X155.291 Y106.717 E.07433
G1 X155.016 Y106.817 E.00919
G1 X154.83 Y107.038 E.00904
G1 X154.775 Y107.281 E.00781
M73 Q0 S89
G1 X154.775 Y141.776 E1.08157
G1 X129.66 Y141.781 E.78747
G1 X129.554 Y141.791 E.00333
G1 X129.295 Y141.914 E.00899
G1 X129.139 Y142.127 E.00827
G1 X129.117 Y142.249 E.00388
M204 S1000
G1 X129.472 Y142.357 F10800
M204 S800
;TYPE:External perimeter
G1 F1200
G1 X129.552 Y142.867 E.01619
G1 X129.587 Y143.584 E.0225
G1 X129.492 Y144.39 E.02545
G1 X129.266 Y145.139 E.02452
G1 X128.919 Y145.838 E.02448
G1 X128.457 Y146.469 E.02453
G1 X127.894 Y147.013 E.02454
G1 X127.281 Y147.428 E.02322
G1 X126.853 Y147.636 E.01491
;WIDTH:0.422494
G1 X126.377 Y147.837 E.01632
;WIDTH:0.436066
G1 X125.747 Y148.035 E.02158
G1 X125.023 Y148.129 E.02385
;WIDTH:0.431333
G1 X124.602 Y148.09 E.01366
;WIDTH:0.428263
G1 X123.981 Y147.953 E.0204
G1 X123.476 Y147.79 E.01698
;WIDTH:0.419999
G1 X122.754 Y147.452 E.02502
G1 X122.106 Y147.013 E.02453
G1 X121.543 Y146.469 E.02454
G1 X121.08 Y145.838 E.02454
G1 X120.732 Y145.139 E.0245
G1 X120.508 Y144.39 E.02449
G1 X120.413 Y143.584 E.02545
G1 X120.448 Y142.927 E.02063
G1 X120.525 Y142.377 E.01744
G1 X120.483 Y142.225 E.00493
G1 X120.339 Y142.158 E.00499
G1 X94.848 Y142.153 E.79926
G1 X94.848 Y107.281 E1.0934
G1 X94.796 Y107.151 E.00439
G1 X94.659 Y107.092 E.00466
G1 X91.961 Y107.092 E.08461
G1 X91.961 Y102.912 E.13106
G1 X94.659 Y102.912 E.08461
G1 X94.796 Y102.853 E.00466
G1 X94.848 Y102.723 E.00439
G1 X94.848 Y67.849 E1.09347
G1 X120.339 Y67.844 E.79925
G1 X120.482 Y67.779 E.00492
G1 X120.526 Y67.629 E.0049
G1 X120.448 Y67.135 E.01568
G1 X120.413 Y66.42 E.02243
G1 X120.508 Y65.614 E.02546
G1 X120.732 Y64.865 E.02449
G1 X121.08 Y64.164 E.02454
G1 X121.543 Y63.535 E.02449
G1 X122.107 Y62.991 E.02456
G1 X122.714 Y62.577 E.02306
G1 X123.15 Y62.364 E.01521
;WIDTH:0.422459
G1 X123.623 Y62.165 E.01618
G1 X124.364 Y61.945 E.02441
;WIDTH:0.419738
G1 X124.897 Y61.875 E.01684
;WIDTH:0.417235
G1 X125.398 Y61.911 E.01561
;WIDTH:0.427952
G1 X126.018 Y62.049 E.02036
G1 X126.524 Y62.212 E.017
;WIDTH:0.419999
G1 X127.246 Y62.55 E.025
G1 X127.893 Y62.991 E.02457
G1 X128.457 Y63.535 E.02456
G1 X128.919 Y64.164 E.02447
G1 X129.266 Y64.865 E.02453
G1 X129.492 Y65.614 E.02452
G1 X129.587 Y66.419 E.02543
G1 X129.552 Y67.072 E.02048
G1 X129.471 Y67.663 E.01871
G1 X129.539 Y67.801 E.00482
G1 X129.66 Y67.844 E.00401
G1 X155.152 Y67.849 E.7993
G1 X155.152 Y102.723 E1.09347
G1 X155.204 Y102.853 E.00439
G1 X155.341 Y102.912 E.00466
G1 X158.039 Y102.912 E.08461
G1 X158.039 Y107.092 E.13106
G1 X155.341 Y107.092 E.08461
G1 X155.204 Y107.151 E.00466
G1 X155.152 Y107.281 E.00439
G1 X155.152 Y142.153 E1.09339
G1 X129.66 Y142.158 E.79929
M73 P0 R88
G1 X129.528 Y142.212 E.00448
G1 X129.493 Y142.301 E.00299
M204 S1000
G1 X129.099 Y142.504 F10800
;WIPE_START
G1 F8640
G1 X129.552 Y142.867 E-.13142
G1 X129.587 Y143.584 E-.16567
G1 X129.492 Y144.39 E-.18741
G1 X129.266 Y145.139 E-.18056
G1 X129.084 Y145.507 E-.09494
;WIPE_END
G1 E-.04 F2100
G1 Z.6 F720
G1 X124.064 Y62.437 F10800
G1 Z.2 F720
M73 Q1 S89
G1 E.8 F2100
M204 S800
;WIDTH:0.428135
G1 F1200
G1 X124.414 Y62.318 E.01184
;WIDTH:0.419738
G1 X124.946 Y62.246 E.01684
;WIDTH:0.417235
G1 X125.328 Y62.274 E.01189
;WIDTH:0.428363
G1 X125.886 Y62.411 E.01842
G1 X126.254 Y62.638 E.01386
;WIDTH:0.419999
G1 X126.463 Y62.838 E.00908
M73 P1 R88
G1 X126.659 Y63.108 E.01045
G1 X126.805 Y63.429 E.01108
G1 X126.912 Y64.062 E.02011
G1 X126.825 Y64.561 E.01588
G1 X126.759 Y64.787 E.00739
G1 X126.474 Y65.267 E.01751
G1 X126.178 Y65.552 E.01288
G1 X125.941 Y65.714 E.00899
G1 X125.638 Y65.851 E.01043
G1 X125.317 Y65.935 E.01039
G1 X124.982 Y65.962 E.01057
G1 X124.651 Y65.929 E.01043
G1 X124.332 Y65.84 E.01037
G1 X123.991 Y65.666 E.012
G1 X123.56 Y65.304 E.01766
G1 X123.337 Y64.992 E.01202
G1 X123.138 Y64.46 E.0178
G1 X123.091 Y64.034 E.01344
G1 X123.134 Y63.66 E.01179
G1 X123.212 Y63.382 E.00906
G1 X123.359 Y63.077 E.01062
G1 X123.56 Y62.812 E.01045
;WIDTH:0.422459
G1 X123.812 Y62.583 E.01072
;WIDTH:0.428135
G1 X124.012 Y62.467 E.0074
M204 S1000
;WIPE_START
G1 F8640
G1 X124.414 Y62.318 E-.09895
G1 X124.946 Y62.246 E-.1241
G1 X125.328 Y62.274 E-.08824
G1 X125.886 Y62.411 E-.13269
G1 X126.254 Y62.638 E-.09988
G1 X126.463 Y62.838 E-.06686
G1 X126.659 Y63.108 E-.07692
G1 X126.789 Y63.393 E-.07236
;WIPE_END
G1 E-.04 F2100
G1 Z.6 F720
G1 X124.331 Y144.166 F10800
G1 Z.2 F720
G1 E.8 F2100
M204 S800
;WIDTH:0.419999
G1 F1200
G1 X124.7 Y144.066 E.01198
G1 X125.299 Y144.066 E.01877
G1 X125.668 Y144.162 E.01194
G1 X125.97 Y144.305 E.01048
G1 X126.241 Y144.498 E.01045
G1 X126.483 Y144.749 E.01091
G1 X126.783 Y145.267 E.01879
G1 X126.909 Y145.917 E.02075
G1 X126.865 Y146.347 E.01355
G1 X126.789 Y146.622 E.00893
G1 X126.641 Y146.921 E.01048
G1 X126.44 Y147.192 E.01057
;WIDTH:0.422494
G1 X126.189 Y147.419 E.0107
;WIDTH:0.428693
G1 X125.885 Y147.591 E.01118
G1 X125.328 Y147.727 E.01841
;WIDTH:0.413596
G1 X124.718 Y147.733 E.01879
;WIDTH:0.428693
G1 X124.114 Y147.591 E.01992
G1 X123.745 Y147.361 E.01395
;WIDTH:0.419999
G1 X123.536 Y147.165 E.00899
G1 X123.34 Y146.89 E.01057
G1 X123.201 Y146.59 E.01039
G1 X123.116 Y146.266 E.01048
G1 X123.091 Y145.934 E.01045
G1 X123.139 Y145.54 E.01244
G1 X123.337 Y145.012 E.01769
G1 X123.56 Y144.698 E.01204
G1 X124.016 Y144.315 E.0187
G1 X124.277 Y144.191 E.00905
M204 S1000
G1 X124.387 Y143.788 F10800
;WIPE_START
G1 F8640
G1 X124.7 Y144.066 E-.1019
G1 X125.299 Y144.066 E-.13825
G1 X125.668 Y144.162 E-.08795
G1 X125.97 Y144.305 E-.07718
G1 X126.241 Y144.498 E-.07692
G1 X126.483 Y144.749 E-.08034
G1 X126.783 Y145.267 E-.13839
G1 X126.832 Y145.519 E-.05907
;WIPE_END
G1 E-.04 F2100
G1 Z.6 F720
G1 X153.896 Y68.338 F10800
G1 Z.2 F720
G1 E.8 F2100
M204 S800
;TYPE:Solid infill
;WIDTH:0.421344
G1 F1200
G1 X154.492 Y68.934 E.02652
G1 X154.492 Y69.47 E.01684
G1 X153.531 Y68.508 E.0428
G1 X152.995 Y68.508 E.01685
G1 X154.492 Y70.005 E.06663
G1 X154.492 Y70.54 E.01684
G1 X152.459 Y68.507 E.09046
G1 X151.924 Y68.507 E.01685
G1 X154.492 Y71.075 E.1143
G1 X154.492 Y71.61 E.01684
G1 X151.388 Y68.506 E.13813
G1 X150.853 Y68.506 E.01685
G1 X154.492 Y72.146 E.16196
G1 X154.492 Y72.681 E.01684
G1 X150.317 Y68.506 E.18579
G1 X149.782 Y68.505 E.01685
G1 X154.493 Y73.216 E.20963
G1 X154.493 Y73.751 E.01684
G1 X149.246 Y68.505 E.23346
G1 X148.711 Y68.505 E.01685
G1 X154.493 Y74.287 E.25729
G1 X154.493 Y74.822 E.01684
G1 X148.175 Y68.504 E.28113
G1 X147.64 Y68.504 E.01685
G1 X154.493 Y75.357 E.30496
G1 X154.493 Y75.892 E.01684
G1 X147.104 Y68.504 E.32879
G1 X146.569 Y68.503 E.01685
G1 X154.493 Y76.427 E.35262
G1 X154.493 Y76.963 E.01684
G1 X146.033 Y68.503 E.37646
G1 X145.497 Y68.502 E.01685
G1 X154.493 Y77.498 E.40029
G1 X154.493 Y78.033 E.01684
G1 X144.962 Y68.502 E.42412
G1 X144.426 Y68.502 E.01685
G1 X154.493 Y78.568 E.44795
G1 X154.493 Y79.103 E.01684
G1 X143.891 Y68.501 E.47179
G1 X143.355 Y68.501 E.01685
G1 X154.493 Y79.639 E.49562
G1 X154.493 Y80.174 E.01684
G1 X142.82 Y68.501 E.51945
G1 X142.284 Y68.5 E.01685
G1 X154.493 Y80.709 E.54329
G1 X154.493 Y81.244 E.01684
G1 X141.749 Y68.5 E.56712
G1 X141.213 Y68.5 E.01685
G1 X154.493 Y81.779 E.59095
G1 X154.493 Y82.315 E.01684
G1 X140.678 Y68.499 E.61478
G1 X140.142 Y68.499 E.01685
G1 X154.493 Y82.85 E.63862
G1 X154.493 Y83.385 E.01684
G1 X139.607 Y68.498 E.66245
G1 X139.071 Y68.498 E.01685
G1 X154.493 Y83.92 E.68628
G1 X154.493 Y84.455 E.01684
G1 X138.536 Y68.498 E.71011
G1 X138 Y68.497 E.01685
G1 X154.493 Y84.991 E.73395
G1 X154.493 Y85.526 E.01684
G1 X137.464 Y68.497 E.75778
G1 X136.929 Y68.497 E.01685
G1 X154.493 Y86.061 E.78161
G1 X154.493 Y86.596 E.01684
G1 X136.393 Y68.496 E.80544
G1 X135.858 Y68.496 E.01685
G1 X154.493 Y87.131 E.82928
G1 X154.493 Y87.667 E.01684
G1 X135.322 Y68.496 E.85311
G1 X134.787 Y68.495 E.01685
G1 X154.493 Y88.202 E.87694
G1 X154.493 Y88.737 E.01684
G1 X134.251 Y68.495 E.90078
G1 X133.716 Y68.494 E.01685
G1 X154.494 Y89.272 E.92461
G1 X154.494 Y89.807 E.01684
G1 X133.18 Y68.494 E.94844
G1 X132.645 Y68.494 E.01685
G1 X154.494 Y90.343 E.97227
G1 X154.494 Y90.878 E.01684
G1 X132.109 Y68.493 E.99611
G1 X131.574 Y68.493 E.01685
G1 X154.494 Y91.413 E1.01994
G1 X154.494 Y91.948 E.01684
M73 Q1 S88
G1 X131.038 Y68.493 E1.04377
G1 X130.502 Y68.492 E.01685
G1 X154.494 Y92.484 E1.0676
G1 X154.494 Y93.019 E.01684
G1 X129.797 Y68.322 E1.09899
M204 S1000
;WIPE_START
G1 F8640
G1 X132.125 Y70.65 E-.76
;WIPE_END
G1 E-.04 F2100
G1 Z.6 F720
G1 X128.872 Y65.257 F10800
G1 Z.2 F720
G1 E.8 F2100
M204 S800
G1 F1200
G1 X127.562 Y63.946 E.05831
G1 X127.571 Y64.103 E.00493
G1 X127.515 Y64.434 E.01058
G1 X128.845 Y65.765 E.0592
G1 X128.917 Y66.371 E.01921
G1 X127.427 Y64.881 E.0663
G1 X127.267 Y65.257 E.01285
G1 X128.901 Y66.891 E.07271
G1 X128.849 Y67.374 E.01528
G1 X127.057 Y65.582 E.07974
G1 X126.806 Y65.866 E.01193
G1 X154.494 Y93.554 E1.23212
G1 X154.494 Y94.089 E.01684
G1 X126.515 Y66.111 E1.24504
G1 X126.193 Y66.324 E.01215
G1 X154.494 Y94.624 E1.25936
G1 X154.494 Y95.16 E.01684
G1 X125.818 Y66.484 E1.27606
G1 X125.515 Y66.568 E.00991
M73 P2 R88
M73 Q2 S88
G1 X125.382 Y66.583 E.0042
G1 X154.494 Y95.695 E1.29547
G1 X154.494 Y96.23 E.01684
G1 X124.688 Y66.424 E1.32635
M204 S1000
;WIPE_START
G1 F8640
M73 P2 R87
G1 X127.016 Y68.752 E-.76
;WIPE_END
G1 E-.04 F2100
G1 Z.6 F720
G1 X122.617 Y63.818 F10800
G1 Z.2 F720
G1 E.8 F2100
M204 S800
G1 F1200
G1 X122.412 Y63.613 E.00912
G1 X122.14 Y63.876 E.01191
G1 X122.636 Y64.372 E.0221
M204 S1000
G1 X121.775 Y64.046 F10800
M204 S800
G1 F1200
G1 X122.563 Y64.834 E.03505
G1 X122.609 Y64.99 E.00511
G1 X122.741 Y65.276 E.00993
G1 X123.049 Y65.727 E.01719
G1 X123.688 Y66.263 E.02623
G1 X124.061 Y66.442 E.01302
G1 X124.215 Y66.486 E.00502
G1 X154.494 Y96.765 E1.34743
G1 X154.494 Y97.3 E.01684
G1 X121.67 Y64.476 E1.46066
G1 X121.487 Y64.828 E.01249
G1 X154.494 Y97.836 E1.46881
G1 X154.494 Y98.371 E.01684
G1 X121.321 Y65.198 E1.47619
G1 X121.198 Y65.61 E.01353
G1 X154.494 Y98.906 E1.48168
G1 X154.494 Y99.441 E.01684
G1 X121.119 Y66.066 E1.48517
G1 X121.075 Y66.443 E.01193
G1 X121.081 Y66.563 E.00379
G1 X154.494 Y99.976 E1.48689
G1 X154.494 Y100.512 E.01684
G1 X121.114 Y67.131 E1.48541
G1 X121.188 Y67.654 E.01661
G1 X121.179 Y67.732 E.00246
G1 X154.494 Y101.047 E1.48251
G1 X154.494 Y101.582 E.01684
G1 X121.036 Y68.124 E1.48888
